sample/src/main/assets/lut/pq2sdr/ACES_1.3_1000nit_ReferenceGamutCompress.cube
TITLE "Generated by Resolve"
LUT_3D_SIZE 65
0 0 0
0 0 0
0 0 0
0 0 0
0 0 0
0.046067 0 0
0.0733959 0 0
0.0985428 0 0
0.118105 0 0
0.136217 0 0
0.155367 0 0
0.175647 0 0
0.197269 0 0.0108186
0.220264 0 0.0184787
0.244388 0 0.0245212
0.269688 0 0.0295262
0.295949 0 0.0339971
0.324163 0 0.0381476
0.354604 0 0.0423285
0.387549 0 0.0468605
0.423301 0 0.0517739
0.462196 0 0.0572213
0.504158 0 0.0632486
0.547936 0 0.06981
0.592889 0 0.0769818
0.639124 0 0.0848859
0.686534 0 0.0937362
0.734936 0 0.103593
0.784207 0 0.114641
0.834028 0 0.127092
0.881682 0 0.141299
0.925429 0 0.15758
0.964401 0 0.175921
0.998108 0 0.196597
1 0 0.219944
1 0 0.246418
1 0.19057 0.277241
1 0.281102 0.314778
1 0.360861 0.359396
1 0.438315 0.411948
1 0.516823 0.470527
1 0.597986 0.535653
1 0.6804 0.608042
1 0.755154 0.688624
1 0.818814 0.76762
1 0.874708 0.836973
1 0.924239 0.899413
1 0.970901 0.957824
1 1 0.998276
1 1 1
1 1 1
1 1 1
1 1 1
1 1 1
1 1 1
1 1 1
1 1 1
1 1 1
1 1 1
1 1 1
1 1 1
1 1 1
1 1 1
1 1 1
1 1 1
0 0 0
0 0 0
0 0 0
0 0 0
0.00920119 0 0
0.0481575 0 0
0.0745098 0 0
0.0991226 0 0
0.118181 0 0
0.136248 0 0
0.155322 0 0
0.17557 0 0
0.197177 0 0.0102388
0.220188 0 0.0182498
0.244312 0 0.0243687
0.269612 0 0.0294041
0.295903 0 0.0339055
0.324117 0 0.0380713
0.354559 0 0.0422675
0.387503 0 0.0467842
0.423255 0 0.0517281
0.462165 0 0.0571756
0.504128 0 0.0632029
0.547906 0 0.0697795
0.592859 0 0.076936
0.639094 0 0.0848554
0.686503 0 0.0937057
0.734905 0 0.103578
0.784176 0 0.114626
0.834012 0 0.127062
0.881666 0 0.141283
0.925414 0 0.157565
0.964385 0 0.175906
0.998093 0 0.196582
1 0 0.219928
1 0 0.246418
1 0.19057 0.277241
1 0.281102 0.314778
1 0.360861 0.359396
1 0.438315 0.411948
1 0.516823 0.470527
1 0.597986 0.535653
1 0.6804 0.608042
1 0.755154 0.688624
1 0.818814 0.76762
1 0.874708 0.836973
1 0.924239 0.899413
1 0.970901 0.957824
1 1 0.998276
1 1 1
1 1 1
1 1 1
1 1 1
1 1 1
1 1 1
1 1 1
1 1 1
1 1 1
1 1 1
1 1 1
1 1 1
1 1 1
1 1 1
1 1 1
1 1 1
0 0.0176699 0
0 0.0176699 0
0.0173037 0.016968 0
0.0361486 0.0146181 0
0.044831 0.0130312 0
0.0573281 0.00547799 0
0.0767834 0 0
0.0995804 0 0
0.118013 0 0
0.136172 0 0
0.155169 0 0
0.175357 0 0
0.196963 0 0.0089723
0.219974 0 0.0177615
0.244114 0 0.0240482
0.269429 0 0.0291752
0.29575 0 0.0336919
0.32398 0 0.0378729
0.354421 0 0.0420844
0.387366 0 0.0466163
0.423133 0 0.0515755
0.462043 0 0.0570382
0.504021 0 0.0630808
0.547799 0 0.0696727
0.592767 0 0.0768444
0.639017 0 0.0847791
0.686427 0 0.0936294
0.734844 0 0.103502
0.784115 0 0.114549
0.833951 0 0.127001
0.881621 0 0.141222
0.925383 0 0.157519
0.964355 0 0.175875
0.998062 0 0.196551
1 0 0.219898
1 0 0.246387
1 0.19057 0.277241
1 0.281102 0.314778
1 0.360861 0.359396
1 0.438315 0.411948
1 0.516823 0.470527
1 0.597986 0.535653
1 0.6804 0.608042
1 0.755154 0.688624
1 0.818814 0.76762
1 0.874708 0.836973
1 0.924239 0.899413
1 0.970901 0.957824
1 1 0.998276
1 1 1
1 1 1
1 1 1
1 1 1
1 1 1
1 1 1
1 1 1
1 1 1
1 1 1
1 1 1
1 1 1
1 1 1
1 1 1
1 1 1
1 1 1
1 1 1
0 0.0355535 0
0 0.0355535 0
0 0.0352789 0
0.0349279 0.0341039 0
0.0514687 0.032578 0
0.0645762 0.0307774 0
0.0798199 0.0274815 0
0.0984054 0.0197604 0
0.116732 0 0
0.135439 0 0
0.154711 0 0
0.174975 0 0
0.196582 0 0.00654612
0.219608 0 0.0171054
0.243763 0 0.0236057
0.269093 0 0.0287938
0.295445 0 0.0333562
0.32369 0 0.0375677
0.354147 0 0.0417945
0.387121 0 0.0463417
0.422889 0 0.0513313
0.46183 0 0.0568246
0.503822 0 0.0628824
0.547616 0 0.0694743
0.592599 0 0.0766766
0.638865 0 0.0846113
0.686305 0 0.0934768
0.734722 0 0.10338
0.784009 0 0.114443
0.83386 0 0.126909
0.881544 0 0.141131
0.925307 0 0.157427
0.964279 0 0.175799
0.998001 0 0.19649
1 0 0.219837
1 0 0.246342
1 0.190555 0.277241
1 0.281086 0.314778
1 0.360845 0.359396
1 0.438315 0.411933
1 0.516823 0.470527
1 0.597986 0.535653
1 0.6804 0.608042
1 0.755154 0.68864
1 0.818814 0.76762
1 0.874708 0.836973
1 0.924239 0.899413
1 0.970901 0.957824
1 1 0.998276
1 1 1
1 1 1
1 1 1
1 1 1
1 1 1
1 1 1
1 1 1
1 1 1
1 1 1
1 1 1
1 1 1
1 1 1
1 1 1
1 1 1
1 1 1
1 1 1
0 0.0484627 0
0 0.0484474 0
0 0.0482643 0
0.0254826 0.0475013 0
0.0476387 0.0464637 0
0.0642405 0.0450752 0
0.080766 0.0429541 0
0.0975509 0.0398108 0
0.115389 0.0348516 0
0.134218 0.0262608 0
0.15378 0 0
0.174273 0 0
0.195987 0 0
0.219013 0 0.0160678
0.243183 0 0.0229191
0.268528 0 0.0282444
0.294957 0 0.0328832
0.323217 0 0.0371099
0.353704 0 0.0413825
0.386709 0 0.0459754
0.422507 0 0.0509804
0.461479 0 0.0565042
0.503517 0 0.0625925
0.547326 0 0.0692149
0.59234 0 0.0764324
0.638636 0 0.0843977
0.686091 0 0.0932784
0.734539 0 0.103197
0.783841 0 0.114275
0.833707 0 0.126757
0.881407 0 0.140993
0.925185 0 0.157305
0.964172 0 0.175692
0.997894 0 0.196399
1 0 0.21976
1 0 0.246265
1 0.191653 0.277195
1 0.281086 0.314778
1 0.360845 0.359396
1 0.4383 0.411933
1 0.516823 0.470527
1 0.597986 0.535653
1 0.6804 0.608042
1 0.755154 0.68864
1 0.818814 0.76762
1 0.874708 0.836973
1 0.924239 0.899413
1 0.970901 0.957824
1 1 0.998276
1 1 1
1 1 1
1 1 1
1 1 1
1 1 1
1 1 1
1 1 1
1 1 1
1 1 1
1 1 1
1 1 1
1 1 1
1 1 1
1 1 1
1 1 1
1 1 1
0 0.0607462 0
0 0.0607462 0
0 0.0605783 0
0 0.060029 0
0.0399176 0.0592813 0
0.0597086 0.0582437 0
0.0778973 0.0567178 0
0.0957046 0.0545663 0
0.11371 0.0515602 0
0.132601 0.0471962 0
0.152377 0.0406348 0
0.173098 0.0293431 0
0.194965 0 0
0.218112 0 0.0138094
0.242298 0 0.0216831
0.267689 0 0.0273289
0.294194 0 0.0321202
0.322499 0 0.0364538
0.353033 0 0.0407874
0.386084 0 0.0454566
0.421942 0 0.0505379
0.46096 0 0.0561074
0.503044 0 0.0622263
0.546899 0 0.0688792
0.591974 0 0.076112
0.6383 0 0.0841077
0.685802 0 0.093019
0.734279 0 0.102937
0.783612 0 0.114046
0.833494 0 0.126543
0.881224 0 0.14081
0.925017 0 0.157153
0.964019 0 0.17554
0.997757 0 0.196262
1 0 0.219638
1 0.0407874 0.246159
1 0.194217 0.277104
1 0.281102 0.314763
1 0.360845 0.359396
1 0.4383 0.411933
1 0.516823 0.470527
1 0.597986 0.535653
1 0.6804 0.608042
1 0.755154 0.68864
1 0.818814 0.76762
1 0.874708 0.836973
1 0.924239 0.899413
1 0.970901 0.957824
1 1 0.998276
1 1 1
1 1 1
1 1 1
1 1 1
1 1 1
1 1 1
1 1 1
1 1 1
1 1 1
1 1 1
1 1 1
1 1 1
1 1 1
1 1 1
1 1 1
1 1 1
0 0.0738842 0
0 0.0738689 0
0 0.0737163 0
0 0.0733196 0
0.0220645 0.072755 0
0.0517128 0.0719921 0
0.0726177 0.0708476 0
0.0919203 0.0692607 0
0.110826 0.0671092 0
0.130205 0.0641794 0
0.150332 0.0601358 0
0.171359 0.0544289 0
0.193484 0.0458534 0
0.21677 0.0303349 0.00645457
0.241062 0 0.019028
0.266499 0 0.0256657
0.293111 0 0.030869
0.321462 0 0.0354314
0.352071 0 0.0399634
0.385199 0 0.0447547
0.421134 0 0.0499123
0.460212 0 0.0555581
0.502388 0 0.061738
0.546304 0 0.0684367
0.59144 0 0.0757153
0.637842 0 0.0837415
0.685389 0 0.092668
0.733913 0 0.102632
0.783291 0 0.113756
0.833204 0 0.126284
0.880964 0 0.140581
0.924788 0 0.156939
0.963821 0 0.175357
0.997574 0 0.196094
1 0 0.219471
1 0.0615702 0.246021
1 0.197574 0.276982
1 0.283162 0.314656
1 0.36083 0.359396
1 0.4383 0.411933
1 0.516823 0.470527
1 0.597971 0.535653
1 0.6804 0.608042
1 0.755154 0.68864
1 0.818814 0.76762
1 0.874708 0.836973
1 0.924239 0.899413
1 0.970901 0.957824
1 1 0.998276
1 1 1
1 1 1
1 1 1
1 1 1
1 1 1
1 1 1
1 1 1
1 1 1
1 1 1
1 1 1
1 1 1
1 1 1
1 1 1
1 1 1
1 1 1
1 1 1
0 0.0877241 0
0 0.0876936 0
0 0.0875563 0
0 0.0872358 0
0 0.0868086 0
0.0368811 0.0862135 0
0.0644846 0.0853285 0
0.0862135 0.0841077 0
0.106508 0.082475 0
0.126757 0.080293 0
0.147478 0.0773632 0
0.168978 0.0734569 0
0.191485 0.0681163 0
0.21503 0.0606241 0
0.23946 0.0493172 0.0131991
0.264973 0.0266728 0.022385
0.291676 0 0.0286564
0.320104 0 0.0337835
0.350759 0 0.0386816
0.383978 0 0.0437324
0.420005 0 0.049073
0.45919 0 0.0548409
0.501472 0 0.0611124
0.545495 0 0.0678569
0.590738 0 0.0751965
0.637232 0 0.0832685
0.684855 0 0.0922408
0.73344 0 0.102235
0.782864 0 0.11339
0.832837 0 0.125948
0.880644 0 0.140276
0.924514 0 0.156664
0.963561 0 0.175113
0.99733 0 0.19588
1 0 0.219287
1 0.0786603 0.245838
1 0.20177 0.276814
1 0.285756 0.314519
1 0.361898 0.359319
1 0.4383 0.411933
1 0.516823 0.470527
1 0.597971 0.535653
1 0.6804 0.608042
1 0.755154 0.68864
1 0.818814 0.76762
1 0.874723 0.836973
1 0.924239 0.899413
1 0.970901 0.957839
1 1 0.998276
1 1 1
1 1 1
1 1 1
1 1 1
1 1 1
1 1 1
1 1 1
1 1 1
1 1 1
1 1 1
1 1 1
1 1 1
1 1 1
1 1 1
1 1 1
1 1 1
0 0.102174 0
0 0.102144 0
0 0.102022 0
0 0.101778 0
0 0.101442 0
0 0.100954 0
0.0510262 0.100252 0
0.0778973 0.0992752 0
0.10042 0.0979934 0
0.122026 0.0962692 0
0.143633 0.0940261 0
0.16582 0.0910658 0
0.188876 0.0871595 0
0.212818 0.082002 0
0.237507 0.0751354 0
0.263142 0.0654917 0.016022
0.289952 0.05037 0.0245518
0.31841 0 0.0308843
0.349126 0 0.0366217
0.382406 0 0.0421607
0.41854 0 0.0478218
0.457832 0 0.0538186
0.500252 0 0.0602426
0.544411 0 0.0671092
0.589792 0 0.0745403
0.636408 0 0.0826734
0.684138 0 0.0917067
0.732815 0 0.101747
0.782315 0 0.112947
0.832364 0 0.125551
0.880232 0 0.139925
0.924147 0 0.156344
0.963241 0 0.174823
0.997024 0 0.195605
1 0 0.219043
1 0.0944381 0.245624
1 0.206806 0.276616
1 0.288945 0.314351
1 0.364141 0.359182
1 0.438407 0.411917
1 0.516823 0.470527
1 0.597971 0.535653
1 0.6804 0.608042
1 0.755154 0.68864
1 0.818814 0.76762
1 0.874723 0.836973
1 0.924239 0.899413
1 0.970901 0.957839
1 1 0.998276
1 1 1
1 1 1
1 1 1
1 1 1
1 1 1
1 1 1
1 1 1
1 1 1
1 1 1
1 1 1
1 1 1
1 1 1
1 1 1
1 1 1
1 1 1
1 1 1
0 0.117494 0
0 0.117464 0
0 0.117372 0
0 0.117174 0
0 0.116899 0
0 0.116518 0
0.0108339 0.115938 0
0.0648051 0.115145 0
0.091722 0.114092 0
0.115496 0.112718 0
0.13846 0.110903 0
0.161593 0.108568 0
0.185397 0.105516 0
0.209979 0.101595 0
0.235111 0.0965896 0
0.261006 0.0901045 0
0.287938 0.0813764 0.0166323
0.316457 0.0686809 0.025742
0.347189 0.0460517 0.0329595
0.380499 0 0.0395819
0.416693 0 0.0459144
0.456092 0 0.0523384
0.49868 0 0.0590524
0.542992 0 0.0661021
0.588556 0 0.0736706
0.63534 0 0.0819257
0.683207 0 0.0910353
0.732006 0 0.101137
0.781613 0 0.112413
0.831754 0 0.125078
0.879713 0 0.139498
0.923705 0 0.155962
0.962844 0 0.174487
0.996674 0 0.1953
1 0 0.218753
1 0.109651 0.245365
1 0.212711 0.276356
1 0.29276 0.314137
1 0.366842 0.359014
1 0.440406 0.411795
1 0.516823 0.470512
1 0.597971 0.535653
1 0.6804 0.608042
1 0.755154 0.68864
1 0.818814 0.767636
1 0.874723 0.836973
1 0.924239 0.899413
1 0.970916 0.957839
1 1 0.998276
1 1 1
1 1 1
1 1 1
1 1 1
1 1 1
1 1 1
1 1 1
1 1 1
1 1 1
1 1 1
1 1 1
1 1 1
1 1 1
1 1 1
1 1 1
1 1 1
0 0.133745 0
0 0.133715 0
0 0.133639 0
0 0.133501 0
0 0.133272 0
0 0.132952 0
0 0.132464 0
0.03888 0.131823 0
0.0786145 0.130953 0
0.106371 0.129809 0
0.131487 0.128328 0
0.155993 0.126421 0
0.180804 0.123964 0
0.206195 0.120836 0
0.232029 0.116899 0
0.258412 0.111986 0
0.285603 0.10573 0
0.314244 0.0974441 0.0153201
0.345037 0.0857252 0.0267491
0.378347 0.0671244 0.0351568
0.414542 0.0146029 0.0428168
0.454002 0 0.0500954
0.496712 0 0.0573281
0.541207 0 0.0647135
0.586984 0 0.0725109
0.633967 0 0.0809339
0.682017 0 0.0901808
0.730983 0 0.100389
0.780728 0 0.111757
0.830991 0 0.124498
0.879072 0 0.138979
0.923156 0 0.155505
0.962356 0 0.174075
0.996216 0 0.194934
1 0 0.218418
1 0.124666 0.245045
1 0.219501 0.276066
1 0.297215 0.313893
1 0.370047 0.358816
1 0.442786 0.411627
1 0.517693 0.470466
1 0.597971 0.535653
1 0.6804 0.608042
1 0.755154 0.68864
1 0.818814 0.767636
1 0.874723 0.836973
1 0.924254 0.899413
1 0.970916 0.957839
1 1 0.998276
1 1 1
1 1 1
1 1 1
1 1 1
1 1 1
1 1 1
1 1 1
1 1 1
1 1 1
1 1 1
1 1 1
1 1 1
1 1 1
1 1 1
1 1 1
1 1 1
0 0.151049 0
0 0.151034 0
0 0.150973 0
0 0.150851 0
0 0.150683 0
0 0.150408 0
0 0.149996 0
0 0.149462 0
0.0555734 0.14873 0
0.093019 0.147784 0
0.121859 0.146548 0
0.148501 0.144961 0
0.174746 0.142931 0
0.201205 0.140368 0
0.227909 0.137163 0
0.25507 0.133227 0
0.282795 0.128344 0
0.311727 0.122148 0
0.342641 0.11397 0.0126345
0.375982 0.102617 0.0277562
0.412177 0.0855726 0.0376135
0.451606 0.0535439 0.0464179
0.494377 0 0.0546731
0.539025 0 0.0626841
0.585016 0 0.0708934
0.632227 0 0.0796063
0.680507 0 0.0890669
0.729686 0 0.099443
0.779614 0 0.110933
0.830045 0 0.123781
0.878279 0 0.138369
0.922469 0 0.154971
0.961776 0 0.173587
0.995682 0 0.194491
1 0 0.218021
1 0.139696 0.244694
1 0.227161 0.2757
1 0.302358 0.313588
1 0.37377 0.358572
1 0.445563 0.411444
1 0.519783 0.470314
1 0.597986 0.535653
1 0.6804 0.608042
1 0.755169 0.68864
1 0.81883 0.767636
1 0.874723 0.836988
1 0.924254 0.899413
1 0.970916 0.957839
1 1 0.998276
1 1 1
1 1 1
1 1 1
1 1 1
1 1 1
1 1 1
1 1 1
1 1 1
1 1 1
1 1 1
1 1 1
1 1 1
1 1 1
1 1 1
1 1 1
1 1 1
0 0.169558 0
0 0.169543 0
0 0.169497 0
0 0.169406 0
0 0.169268 0
0 0.169024 0
0 0.168688 0
0 0.168231 0
0 0.16762 0
0.0710002 0.166812 0
0.108034 0.165774 0
0.138293 0.164446 0
0.166705 0.162753 0
0.194629 0.160601 0
0.222446 0.157961 0
0.250553 0.154696 0
0.279133 0.150698 0
0.308705 0.145754 0
0.339925 0.139467 0
0.373404 0.131197 0.00613413
0.409598 0.11989 0.0288853
0.449012 0.10341 0.0404517
0.491768 0.0758221 0.05037
0.536461 0 0.059617
0.582635 0 0.068574
0.630091 0 0.0777752
0.678645 0 0.0875868
0.728069 0 0.0982223
0.778225 0 0.109911
0.82887 0 0.122911
0.877302 0 0.137621
0.921645 0 0.154314
0.961059 0 0.173022
0.995041 0 0.193988
1 0 0.217563
1 0.15491 0.244266
1 0.235752 0.275273
1 0.308202 0.313237
1 0.378058 0.358297
1 0.448798 0.411231
1 0.522225 0.470146
1 0.599344 0.535561
1 0.680415 0.608042
1 0.755169 0.688655
1 0.81883 0.767636
1 0.874723 0.836988
1 0.924254 0.899428
1 0.970916 0.957839
1 1 0.998276
1 1 1
1 1 1
1 1 1
1 1 1
1 1 1
1 1 1
1 1 1
1 1 1
1 1 1
1 1 1
1 1 1
1 1 1
1 1 1
1 1 1
1 1 1
1 1 1
0 0.189227 0
0 0.189212 0
0 0.189166 0
0 0.189105 0
0 0.188983 0
0 0.188785 0
0 0.188495 0
0 0.188098 0
0 0.187579 0
0 0.186892 0
0.0864576 0.186007 0
0.12401 0.184878 0
0.155947 0.183444 0
0.186053 0.181628 0
0.215351 0.1794 0
0.244617 0.176669 0
0.274205 0.173327 0
0.304723 0.169207 0
0.33669 0.16408 0
0.37052 0.157565 0
0.406851 0.149065 0
0.446265 0.137514 0.0305028
0.488991 0.121096 0.0436561
0.533654 0.0963607 0.0547341
0.579889 0.0485695 0.0651255
0.627543 0 0.0752117
0.676371 0 0.0856031
0.726085 0 0.0966354
0.776516 0 0.108614
0.827405 0 0.121843
0.876081 0 0.136706
0.920638 0 0.153536
0.960189 0 0.172335
0.994278 0 0.193378
1 0.0608377 0.217029
1 0.170459 0.243793
1 0.245274 0.274769
1 0.314809 0.312825
1 0.382925 0.357961
1 0.452491 0.410971
1 0.525017 0.469963
1 0.601434 0.535409
1 0.680415 0.608057
1 0.755169 0.688655
1 0.81883 0.767651
1 0.874739 0.836988
1 0.924254 0.899428
1 0.970916 0.957855
1 1 0.998276
1 1 1
1 1 1
1 1 1
1 1 1
1 1 1
1 1 1
