sample/src/main/assets/lut/pq2sdr/ACES_1.3_1000nit_ReferenceGamutCompress.cube
TITLE "Generated by Resolve"
LUT_3D_SIZE 9
0 0 0
0.118105 0 0
0.295949 0 0.0339971
0.592889 0 0.0769818
0.964401 0 0.175921
1 0.516823 0.470527
1 1 0.998276
1 1 1
1 1 1
0 0.102174 0
0.10042 0.0979934 0
0.289952 0.05037 0.0245518
0.589792 0 0.0745403
0.963241 0 0.174823
1 0.516823 0.470527
1 1 0.998276
1 1 1
1 1 1
0 0.254063 0
0 0.253056 0
0.249851 0.243915 0
0.570428 0.193561 0.0395056
0.956329 0 0.169299
1 0.535927 0.469184
1 1 0.998291
1 1 1
1 1 1
0 0.508186 0
0 0.507836 0
0 0.504616 0
0.499641 0.487831 0
0.918837 0.439063 0.121569
1 0.59826 0.463874
1 1 0.998367
1 1 1
1 1 1
0 0.828305 0
0 0.828153 0
0 0.826932 0
0 0.818952 0
0.815167 0.795468 0
1 0.776715 0.441688
1 1 0.998657
1 1 1
1 1 1
0 0.989792 0.438178
0 0.989792 0.438148
0 0.989013 0.438193
0 0.985565 0.438529
0.714504 0.972412 0.441901
0.977081 0.957641 0.477928
1 1 0.999542
1 1 1
1 1 1
0.992187 1 1
0.992187 1 1
0.992187 1 1
0.992203 1 1
0.992248 1 1
0.992401 1 1
1 1 1
1 1 1
1 1 1
1 1 1
1 1 1
1 1 1
1 1 1
1 1 1
1 1 1
1 1 1
1 1 1
1 1 1
1 1 1
1 1 1
1 1 1
1 1 1
1 1 1
1 1 1
1 1 1
1 1 1
1 1 1
0 0 0.102007
0.11696 0 0.100618
0.293751 0 0.0993668
0.591745 0 0.106142
0.964034 0 0.187762
1 0.517235 0.470619
1 1 0.998276
1 1 1
1 1 1
0 0.101915 0.0979171
0.0977798 0.0977798 0.0977798
0.29073 0.0487678 0.0973983
0.589563 0 0.104387
0.962997 0 0.18674
1 0.51722 0.470619
1 1 0.998276
1 1 1
1 1 1
0 0.254002 0.0781262
0 0.252995 0.0781567
0.249165 0.243854 0.0786755
0.571649 0.192981 0.0876631
0.956451 0 0.18143
1 0.536309 0.469276
1 1 0.998291
1 1 1
1 1 1
0 0.508171 0
0 0.50782 0
0 0.504585 0
0.499458 0.487816 0
0.919097 0.438926 0.138491
1 0.598672 0.463981
1 1 0.998367
1 1 1
1 1 1
0 0.828305 0
0 0.828138 0
0 0.826917 0
0 0.818952 0
0.815091 0.795468 0
1 0.776883 0.441794
1 1 0.998657
1 1 1
1 1 1
0 0.989792 0.440696
0 0.989792 0.440681
0 0.989013 0.440711
0 0.98555 0.441032
0.714412 0.972412 0.444327
0.977081 0.957641 0.477928
1 1 0.999542
1 1 1
1 1 1
0.992187 1 1
0.992187 1 1
0.992187 1 1
0.992203 1 1
0.992248 1 1
0.992401 1 1
1 1 1
1 1 1
1 1 1
1 1 1
1 1 1
1 1 1
1 1 1
1 1 1
1 1 1
1 1 1
1 1 1
1 1 1
1 1 1
1 1 1
1 1 1
1 1 1
1 1 1
1 1 1
1 1 1
1 1 1
1 1 1
0 0.0343633 0.25333
0.0944381 0 0.252644
0.290333 0 0.250309
0.582223 0 0.247654
0.963027 0 0.255421
1 0.517632 0.486931
1 1 0.998276
1 1 1
1 1 1
0 0.0999466 0.251331
0.0709544 0.0961166 0.250965
0.285847 0.0449073 0.249317
0.583169 0 0.246845
0.961669 0 0.25449
1 0.517617 0.48687
1 1 0.998276
1 1 1
1 1 1
0 0.253559 0.243793
0 0.252537 0.243748
0.243381 0.243397 0.243397
0.573693 0.190982 0.24242
0.956039 0 0.250889
1 0.536782 0.485542
1 1 0.998291
1 1 1
1 1 1
0 0.508003 0.216999
0 0.507668 0.216922
0 0.504433 0.216953
0.497414 0.487663 0.217105
0.920027 0.43827 0.227481
1 0.599176 0.48098
1 1 0.998383
1 1 1
1 1 1
0 0.828229 0.134432
0 0.828061 0.13434
0 0.826841 0.134112
0 0.818875 0.135485
0.814359 0.795392 0.143832
1 0.776898 0.461357
1 1 0.998672
1 1 1
1 1 1
0 0.989746 0.459403
0 0.989746 0.459373
0 0.988968 0.459388
0 0.985504 0.459617
0.713832 0.972366 0.462455
0.976913 0.957626 0.485954
1 1 0.999542
1 1 1
1 1 1
0.992187 1 1
0.992187 1 1
0.992187 1 1
0.992203 1 1
0.992248 1 1
0.992401 1 1
1 1 1
1 1 1
1 1 1
1 1 1
1 1 1
1 1 1
1 1 1
1 1 1
1 1 1
1 1 1
1 1 1
1 1 1
1 1 1
1 1 1
1 1 1
1 1 1
1 1 1
1 1 1
1 1 1
1 1 1
1 1 1
0 0.0769055 0.506233
0 0.0725872 0.505943
0.261463 0 0.504143
0.580102 0 0.500237
0.952026 0 0.496544
1 0.515297 0.561334
1 1 0.998291
1 1 1
1 1 1
0 0.111315 0.505348
0 0.108705 0.505089
0.257099 0.0757153 0.503487
0.578607 0 0.499809
0.951675 0 0.496117
1 0.515297 0.561242
1 1 0.998306
1 1 1
1 1 1
0 0.250828 0.500587
0 0.249912 0.50045
0.210864 0.241093 0.499702
0.564858 0.188052 0.497414
0.948852 0 0.494484
1 0.534676 0.559976
1 1 0.998322
1 1 1
1 1 1
0 0.507164 0.487648
0 0.506828 0.487587
0 0.503594 0.487449
0.486809 0.486839 0.486824
0.918624 0.436301 0.486442
1 0.598489 0.556649
1 1 0.998398
1 1 1
1 1 1
0 0.82771 0.464805
0 0.827543 0.464759
0 0.826322 0.464607
0 0.818341 0.46453
0.80885 0.794903 0.465354
1 0.776547 0.541802
1 1 0.998688
1 1 1
1 1 1
0 0.989532 0.537575
0 0.989532 0.53756
0 0.988739 0.537499
0 0.98529 0.537438
0.710933 0.972152 0.538796
0.975006 0.957458 0.553399
1 1 0.999557
1 1 1
1 1 1
0.992203 1 1
0.992203 1 1
0.992203 1 1
0.992218 1 1
0.992264 1 1
0.992416 1 1
1 1 1
1 1 1
1 1 1
1 1 1
1 1 1
1 1 1
1 1 1
1 1 1
1 1 1
1 1 1
1 1 1
1 1 1
1 1 1
1 1 1
1 1 1
1 1 1
1 1 1
1 1 1
1 1 1
1 1 1
1 1 1
0 0.183627 0.827695
0 0.182177 0.827573
0.166537 0.172213 0.82678
0.547158 0.0618296 0.823346
0.945708 0 0.818189
1 0.50399 0.806851
1 1 0.998383
1 1 1
1 1 1
0 0.199771 0.827237
0 0.198459 0.827115
0.156527 0.189548 0.826368
0.54519 0.109361 0.823041
0.944884 0 0.81799
1 0.50399 0.806806
1 1 0.998383
1 1 1
1 1 1
0 0.270527 0.824964
0 0.269642 0.824872
0.0613413 0.263737 0.824277
0.534127 0.22211 0.821469
0.939803 0 0.816892
1 0.525063 0.805951
1 1 0.998398
1 1 1
1 1 1
0 0.503914 0.814771
0 0.503532 0.81474
0 0.500908 0.814481
0.455833 0.484764 0.813092
0.905226 0.434318 0.8103
1 0.592248 0.80325
1 1 0.998489
1 1 1
1 1 1
0 0.826322 0.795575
0 0.826169 0.795544
0 0.824933 0.795438
0 0.816938 0.794858
0.793576 0.793606 0.793591
1 0.775174 0.794324
1 1 0.998764
1 1 1
1 1 1
0 0.98851 0.79057
0 0.98851 0.79057
0 0.987686 0.790478
0 0.984237 0.790173
0.696269 0.971145 0.789441
0.96527 0.956527 0.790417
1 1 0.999649
1 1 1
1 1 1
0.992248 1 1
0.992248 1 1
0.992264 1 1
0.992279 1 1
0.992325 1 1
0.992477 1 1
1 1 1
1 1 1
1 1 1
1 1 1
1 1 1
1 1 1
1 1 1
1 1 1
1 1 1
1 1 1
1 1 1
1 1 1
1 1 1
1 1 1
1 1 1
1 1 1
1 1 1
1 1 1
1 1 1
1 1 1
1 1 1
0.335073 0.49163 0.988373
0.346685 0.491188 0.988327
0.40885 0.488472 0.988052
0.566567 0.478614 0.987121
0.895003 0.4421 0.984207
1 0.434928 0.981094
1 1 0.998718
1 1 1
1 1 1
0.330846 0.496834 0.988128
0.342626 0.496391 0.988098
0.405585 0.493675 0.987823
0.564462 0.483894 0.986908
0.893919 0.447669 0.984024
1 0.434928 0.981094
1 1 0.998718
1 1 1
1 1 1
0.307912 0.523156 0.986923
0.320684 0.522744 0.986893
0.388067 0.520195 0.986633
0.553338 0.510948 0.985779
0.887968 0.476921 0.983047
1 0.461082 0.980316
1 1 0.998734
1 1 1
1 1 1
0.207843 0.60061 0.983093
0.22797 0.60029 0.983063
0.321309 0.598199 0.982864
0.514488 0.590463 0.982147
0.867628 0.562264 0.979782
1 0.545464 0.977447
1 1 0.99881
1 1 1
1 1 1
0 0.818601 0.96997
0 0.818402 0.969955
0 0.817105 0.969848
0.305806 0.812009 0.969406
0.782986 0.793164 0.967865
1 0.774121 0.966598
1 1 0.999069
1 1 1
1 1 1
0 0.987411 0.957992
0 0.987305 0.957992
0 0.986496 0.957916
0 0.983078 0.957626
0.684764 0.970138 0.956558
0.955673 0.955688 0.955673
1 1 0.999908
1 1 1
1 1 1
0.992416 1 1
0.992416 1 1
0.992416 1 1
0.992432 1 1
0.992477 1 1
0.992645 1 1
1 1 1
1 1 1
1 1 1
1 1 1
1 1 1
1 1 1
1 1 1
1 1 1
1 1 1
1 1 1
1 1 1
1 1 1
1 1 1
1 1 1
1 1 1
1 1 1
1 1 1
1 1 1
1 1 1
1 1 1
1 1 1
0.990051 0.998352 1
0.990051 0.998352 1
0.990066 0.998367 1
0.990097 0.998383 1
0.990768 0.998413 1
0.994369 0.998444 1
1 0.998978 1
1 1 1
1 1 1
0.990051 0.998367 1
0.990051 0.998367 1
0.990066 0.998367 1
0.990097 0.998383 1
0.990768 0.998428 1
0.994369 0.998444 1
1 0.998978 1
1 1 1
1 1 1
0.990097 0.998383 1
0.990097 0.998383 1
0.990097 0.998398 1
0.990127 0.998413 1
0.990799 0.998444 1
0.9944 0.998459 1
1 0.999008 1
1 1 1
1 1 1
0.99025 0.998489 1
0.99025 0.998489 1
0.99025 0.998489 1
0.99028 0.998505 1
0.990936 0.99855 1
0.994492 0.998566 1
1 0.999084 1
1 1 1
1 1 1
0.990692 0.999023 1
0.990692 0.999023 1
0.990707 0.999023 1
0.990738 0.999039 1
0.991348 0.999084 1
0.994781 0.999084 1
1 0.999374 1
1 1 1
1 1 1
0.991913 1 1
0.991913 1 1
0.991928 1 1
0.991958 1 1
0.992416 1 1
0.995407 1 1
1 1 1
1 1 1
1 1 1
0.991547 1 1
0.991547 1 1
0.991547 1 1
0.991562 1 1
0.991623 1 1
0.991791 1 1
1 1 1
1 1 1
1 1 1
1 1 1
1 1 1
1 1 1
1 1 1
1 1 1
1 1 1
1 1 1
1 1 1
1 1 1
1 1 1
1 1 1
1 1 1
1 1 1
1 1 1
1 1 1
1 1 1
1 1 1
1 1 1
1 1 1
1 1 1
1 1 1
1 1 1
1 1 1
1 1 1
1 1 1
1 1 1
1 1 1
1 1 1
1 1 1
1 1 1
1 1 1
1 1 1
1 1 1
1 1 1
1 1 1
1 1 1
1 1 1
1 1 1
1 1 1
1 1 1
1 1 1
1 1 1
1 1 1
1 1 1
1 1 1
1 1 1
1 1 1
1 1 1
1 1 1
1 1 1
1 1 1
1 1 1
1 1 1
1 1 1
1 1 1
1 1 1
1 1 1
1 1 1
1 1 1
1 1 1
1 1 1
1 1 1
1 1 1
1 1 1
1 1 1
1 1 1
1 1 1
1 1 1
1 1 1
1 1 1
1 1 1
1 1 1
1 1 1
1 1 1
1 1 1
1 1 1
1 1 1
1 1 1
1 1 1
1 1 1
1 1 1
1 1 1
1 1 1
1 1 1
1 1 1
1 1 1
1 1 1
1 1 1
1 1 1
1 1 1
1 1 1
1 1 1
1 1 1
1 1 1
1 1 1
1 1 1
1 1 1
1 1 1
1 1 1
1 1 1
1 1 1
1 1 1
1 1 1
1 1 1
1 1 1
1 1 1
1 1 1
1 1 1
1 1 1
1 1 1
1 1 1
1 1 1
1 1 1
1 1 1
1 1 1
1 1 1
1 1 1
1 1 1
1 1 1
1 1 1
1 1 1
1 1 1
1 1 1
1 1 1
1 1 1
1 1 1
1 1 1
1 1 1
1 1 1
1 1 1
1 1 1
1 1 1
1 1 1
1 1 1
1 1 1
1 1 1
1 1 1
1 1 1
1 1 1
1 1 1
1 1 1
1 1 1
1 1 1
1 1 1
1 1 1
1 1 1
1 1 1
1 1 1
1 1 1
1 1 1
1 1 1
1 1 1
1 1 1
1 1 1
1 1 1
1 1 1
1 1 1
1 1 1
1 1 1
1 1 1
1 1 1
1 1 1
1 1 1
1 1 1
1 1 1
1 1 1
1 1 1
1 1 1
1 1 1
1 1 1
1 1 1
1 1 1
1 1 1
1 1 1
1 1 1
1 1 1
1 1 1
1 1 1
1 1 1
1 1 1
