sample/src/main/assets/lut/pq2sdr/ACES_1.3_1000nit_ReferenceGamutCompress.cube
TITLE "Generated by Resolve"
LUT_3D_SIZE 5
0 0 0
0.295949 0 0.0339971
0.964401 0 0.175921
1 1 0.998276
1 1 1
0 0.254063 0
0.249851 0.243915 0
0.956329 0 0.169299
1 1 0.998291
1 1 1
0 0.828305 0
0 0.826932 0
0.815167 0.795468 0
1 1 0.998657
1 1 1
0.992187 1 1
0.992187 1 1
0.992248 1 1
1 1 1
1 1 1
1 1 1
1 1 1
1 1 1
1 1 1
1 1 1
0 0.0343633 0.25333
0.290333 0 0.250309
0.963027 0 0.255421
1 1 0.998276
1 1 1
0 0.253559 0.243793
0.243381 0.243397 0.243397
0.956039 0 0.250889
1 1 0.998291
1 1 1
0 0.828229 0.134432
0 0.826841 0.134112
0.814359 0.795392 0.143832
1 1 0.998672
1 1 1
0.992187 1 1
0.992187 1 1
0.992248 1 1
1 1 1
1 1 1
1 1 1
1 1 1
1 1 1
1 1 1
1 1 1
0 0.183627 0.827695
0.166537 0.172213 0.82678
0.945708 0 0.818189
1 1 0.998383
1 1 1
0 0.270527 0.824964
0.0613413 0.263737 0.824277
0.939803 0 0.816892
1 1 0.998398
1 1 1
0 0.826322 0.795575
0 0.824933 0.795438
0.793576 0.793606 0.793591
1 1 0.998764
1 1 1
0.992248 1 1
0.992264 1 1
0.992325 1 1
1 1 1
1 1 1
1 1 1
1 1 1
1 1 1
1 1 1
1 1 1
0.990051 0.998352 1
0.990066 0.998367 1
0.990768 0.998413 1
1 0.998978 1
1 1 1
0.990097 0.998383 1
0.990097 0.998398 1
0.990799 0.998444 1
1 0.999008 1
1 1 1
0.990692 0.999023 1
0.990707 0.999023 1
0.991348 0.999084 1
1 0.999374 1
1 1 1
0.991547 1 1
0.991547 1 1
0.991623 1 1
1 1 1
1 1 1
1 1 1
1 1 1
1 1 1
1 1 1
1 1 1
1 1 1
1 1 1
1 1 1
1 1 1
1 1 1
1 1 1
1 1 1
1 1 1
1 1 1
1 1 1
1 1 1
1 1 1
1 1 1
1 1 1
1 1 1
1 1 1
1 1 1
1 1 1
1 1 1
1 1 1
1 1 1
1 1 1
1 1 1
1 1 1
1 1 1
