sample/src/main/assets/lut/pq2sdr/BT2020_BT709_Gamma_2.4.cube
# site: https://trev16.hatenablog.com/entry/2020/06/07/094646
TITLE "./3DLUT/GamutMapping_ITU-R_BT.2020_to_ITU-R_BT.709_Gamma_2.4_33x33x33.cube"
LUT_3D_SIZE 5
1.5123409e-07 1.5123409e-07 1.5123409e-07
2.7520024e-01 6.0713710e-05 7.7860869e-02
5.7166909e-01 0.0000000e+00 1.0831700e-01
8.6639985e-01 0.0000000e+00 8.9567603e-02
1.0000000e+00 2.8263559e-01 1.6784294e-01
0.0000000e+00 2.4321835e-01 1.4274337e-01
2.5787979e-01 2.4996851e-01 5.1483539e-03
5.7430580e-01 2.3436977e-01 0.0000000e+00
8.5765241e-01 2.4176801e-01 0.0000000e+00
1.0000000e+00 3.2761832e-01 1.5350350e-01
0.0000000e+00 4.9235842e-01 2.3704447e-01
3.9397206e-02 5.0621011e-01 3.2666388e-02
5.3040996e-01 5.0198904e-01 0.0000000e+00
8.2386536e-01 5.0275114e-01 0.0000000e+00
9.9984402e-01 4.6612334e-01 7.4556729e-04
0.0000000e+00 7.4414442e-01 3.5024368e-01
0.0000000e+00 7.5010428e-01 2.7891440e-01
4.5092621e-01 7.5596259e-01 0.0000000e+00
8.0271599e-01 7.5817465e-01 0.0000000e+00
9.9961678e-01 6.9010463e-01 3.5825081e-02
0.0000000e+00 9.7604315e-01 4.5939819e-01
0.0000000e+00 9.7991071e-01 4.1555044e-01
1.7191619e-01 9.9903508e-01 3.1930777e-02
7.1036580e-01 9.7787096e-01 0.0000000e+00
9.9974066e-01 9.4034584e-01 2.8289980e-01
9.0384350e-03 1.9873995e-02 2.3102197e-01
2.7341990e-01 0.0000000e+00 2.3707545e-01
5.6824143e-01 0.0000000e+00 2.7349012e-01
8.6087183e-01 0.0000000e+00 2.9803544e-01
1.0000000e+00 2.7467125e-01 3.2922169e-01
0.0000000e+00 2.4570236e-01 2.3638244e-01
2.5000000e-01 2.5000000e-01 2.5000000e-01
5.9780092e-01 1.8206267e-01 2.4172041e-01
8.9083718e-01 0.0000000e+00 2.4994627e-01
1.0000000e+00 3.2219897e-01 3.2272363e-01
0.0000000e+00 4.9176360e-01 3.4208410e-01
0.0000000e+00 5.0445113e-01 2.8858830e-01
5.1209604e-01 5.0140712e-01 1.8604507e-01
8.7134374e-01 4.5601898e-01 1.5837968e-01
1.0000000e+00 4.6534859e-01 2.9224345e-01
0.0000000e+00 7.4401331e-01 4.4709014e-01
0.0000000e+00 7.4926399e-01 4.0418676e-01
2.7355353e-01 7.7152848e-01 0.0000000e+00
7.7662141e-01 7.5243665e-01 0.0000000e+00
1.0000000e+00 6.8624106e-01 2.6894777e-01
0.0000000e+00 9.7360209e-01 5.3796916e-01
0.0000000e+00 9.7739895e-01 5.0550278e-01
4.7656432e-02 9.9901473e-01 3.1315359e-01
6.4942956e-01 9.9851400e-01 8.5643033e-03
1.0000000e+00 9.5178933e-01 3.2611471e-01
0.0000000e+00 5.7377545e-02 4.6382255e-01
2.8339026e-01 0.0000000e+00 4.7445358e-01
5.5383254e-01 0.0000000e+00 4.8021382e-01
8.5107522e-01 0.0000000e+00 5.1975006e-01
1.0000000e+00 2.6244642e-01 5.1485153e-01
0.0000000e+00 2.7210372e-01 4.5311488e-01
2.1397326e-01 2.4623975e-01 5.1951305e-01
5.8811183e-01 1.7612772e-01 5.1659658e-01
8.8268945e-01 0.0000000e+00 5.1298268e-01
1.0000000e+00 3.1380448e-01 5.1226239e-01
0.0000000e+00 4.9594993e-01 4.7713764e-01
0.0000000e+00 5.0546971e-01 4.8962073e-01
5.0000000e-01 5.0000000e-01 5.0000000e-01
8.6566521e-01 4.5441114e-01 4.9372001e-01
1.0000000e+00 4.6384793e-01 5.0069667e-01
0.0000000e+00 7.4417894e-01 5.8375802e-01
0.0000000e+00 7.4922496e-01 5.7059768e-01
1.2014045e-01 7.7523922e-01 4.6367709e-01
7.6397954e-01 7.5162072e-01 4.5668534e-01
1.0000000e+00 6.7415194e-01 4.7463264e-01
0.0000000e+00 9.6894966e-01 6.7402810e-01
0.0000000e+00 9.7250891e-01 6.5774637e-01
0.0000000e+00 9.9367933e-01 5.6847176e-01
6.2437730e-01 1.0000000e+00 4.8746732e-01
1.0000000e+00 9.7346114e-01 4.8804590e-01
0.0000000e+00 8.9057498e-02 7.1989854e-01
2.7989298e-01 0.0000000e+00 7.3410003e-01
5.8024422e-01 0.0000000e+00 7.3120663e-01
8.4039654e-01 0.0000000e+00 7.2868587e-01
1.0000000e+00 2.5158008e-01 6.9203525e-01
0.0000000e+00 2.8821741e-01 7.1774271e-01
7.4877419e-02 2.3834453e-01 7.8339919e-01
5.6771312e-01 1.6312293e-01 7.8176221e-01
8.7041319e-01 0.0000000e+00 7.5658058e-01
1.0000000e+00 3.0610216e-01 6.9264414e-01
0.0000000e+00 5.6031982e-01 7.1715734e-01
0.0000000e+00 5.4430677e-01 7.3788698e-01
4.7408198e-01 4.9712497e-01 7.7260292e-01
8.5396882e-01 4.5112091e-01 7.6920755e-01
1.0000000e+00 4.6174898e-01 6.9506828e-01
0.0000000e+00 7.5015974e-01 7.2170480e-01
0.0000000e+00 7.5446954e-01 7.2783809e-01
0.0000000e+00 7.7190994e-01 7.5197876e-01
7.5000000e-01 7.5000000e-01 7.5000000e-01
1.0000000e+00 6.7600743e-01 6.9955811e-01
0.0000000e+00 9.6522667e-01 7.9910745e-01
0.0000000e+00 9.6856031e-01 7.9467325e-01
0.0000000e+00 9.8842193e-01 7.7040094e-01
5.9896352e-01 1.0000000e+00 7.4298764e-01
1.0000000e+00 9.8646126e-01 7.2804258e-01
0.0000000e+00 1.2152111e-01 9.8200033e-01
2.5326475e-01 0.0000000e+00 9.9618655e-01
5.7784380e-01 0.0000000e+00 9.6743081e-01
8.3126290e-01 0.0000000e+00 9.3712079e-01
1.0000000e+00 2.4211399e-01 8.7091822e-01
0.0000000e+00 2.9485018e-01 9.6505378e-01
1.6498708e-01 2.6071406e-01 1.0000000e+00
5.4914821e-01 2.1415313e-01 1.0000000e+00
8.5386785e-01 0.0000000e+00 9.9280984e-01
1.0000000e+00 2.9901499e-01 8.7451773e-01
0.0000000e+00 5.6083690e-01 9.3392127e-01
0.0000000e+00 5.4094816e-01 9.5720032e-01
4.5984873e-01 5.0012695e-01 1.0000000e+00
8.1592313e-01 4.5751151e-01 1.0000000e+00
1.0000000e+00 4.5881779e-01 8.8998527e-01
0.0000000e+00 8.2124562e-01 9.5687685e-01
0.0000000e+00 8.1437615e-01 9.6529891e-01
2.3847341e-01 7.7895563e-01 1.0000000e+00
7.2155074e-01 7.3942928e-01 1.0000000e+00
1.0000000e+00 6.7825204e-01 9.2403131e-01
0.0000000e+00 9.6280654e-01 9.2628569e-01
0.0000000e+00 9.6599790e-01 9.3065597e-01
0.0000000e+00 9.8440781e-01 9.5354191e-01
5.7028547e-01 1.0000000e+00 9.8032209e-01
1.0000000e+00 1.0000000e+00 1.0000000e+00
