sample/src/main/assets/lut/pq2sdr/BT2020_BT709_Gamma_2.4.cube
# site: https://trev16.hatenablog.com/entry/2020/06/07/094646
TITLE "./3DLUT/GamutMapping_ITU-R_BT.2020_to_ITU-R_BT.709_Gamma_2.4_33x33x33.cube"
LUT_3D_SIZE 33
1.5123409e-07 1.5123409e-07 1.5123409e-07
3.3848196e-02 3.9326346e-04 1.0454552e-02
6.7743268e-02 5.8536189e-04 2.0921994e-02
1.0175629e-01 9.3523919e-05 3.1424363e-02
1.3597439e-01 5.0547640e-04 4.1991983e-02
1.7050508e-01 4.8524263e-04 5.2655604e-02
2.0536003e-01 1.7911405e-03 6.0539515e-02
2.4018644e-01 1.8123521e-03 6.7984851e-02
2.7520024e-01 6.0713710e-05 7.7860869e-02
3.1106871e-01 0.0000000e+00 8.6010562e-02
3.4733266e-01 0.0000000e+00 9.2416793e-02
3.8395866e-01 0.0000000e+00 9.7494005e-02
4.2092122e-01 0.0000000e+00 1.0147432e-01
4.5819984e-01 0.0000000e+00 1.0448976e-01
4.9577042e-01 0.0000000e+00 1.0661365e-01
5.3360258e-01 0.0000000e+00 1.0788834e-01
5.7166909e-01 0.0000000e+00 1.0831700e-01
6.0993796e-01 0.0000000e+00 1.0810651e-01
6.4838619e-01 0.0000000e+00 1.0745247e-01
6.8700677e-01 0.0000000e+00 1.0632206e-01
7.2579558e-01 0.0000000e+00 1.0466473e-01
7.6475621e-01 0.0000000e+00 1.0243064e-01
8.0388851e-01 0.0000000e+00 9.9524410e-02
8.3830761e-01 0.0000000e+00 9.5298752e-02
8.6639985e-01 0.0000000e+00 8.9567603e-02
8.9399438e-01 0.0000000e+00 8.2849419e-02
9.2110787e-01 0.0000000e+00 7.4800483e-02
9.4775570e-01 0.0000000e+00 6.4764067e-02
9.7395653e-01 0.0000000e+00 5.1124734e-02
9.9859946e-01 5.2325433e-02 3.7371047e-02
1.0000000e+00 1.8685431e-01 1.0513133e-01
1.0000000e+00 2.4399273e-01 1.4117273e-01
1.0000000e+00 2.8263559e-01 1.6784294e-01
3.4704066e-05 3.0206914e-02 1.7854163e-02
3.1993468e-02 3.1260129e-02 0.0000000e+00
7.2948213e-02 2.5498999e-02 0.0000000e+00
1.0979362e-01 3.3895638e-04 1.6693461e-02
1.4134638e-01 4.2692459e-04 3.5399108e-02
1.7437290e-01 0.0000000e+00 4.8346827e-02
2.0828343e-01 1.7159537e-03 5.7133617e-02
2.4249478e-01 1.7285196e-03 6.5447778e-02
2.7711013e-01 0.0000000e+00 7.5776954e-02
3.1262668e-01 0.0000000e+00 8.4170555e-02
3.4861924e-01 0.0000000e+00 9.0791804e-02
3.8503182e-01 0.0000000e+00 9.6048506e-02
4.2182350e-01 0.0000000e+00 1.0017561e-01
4.5896241e-01 0.0000000e+00 1.0330950e-01
4.9641445e-01 0.0000000e+00 1.0553230e-01
5.3414631e-01 0.0000000e+00 1.0688373e-01
5.7212604e-01 0.0000000e+00 1.0737844e-01
6.1032189e-01 0.0000000e+00 1.0717846e-01
6.4870676e-01 0.0000000e+00 1.0652564e-01
6.8727210e-01 0.0000000e+00 1.0538935e-01
7.2601525e-01 0.0000000e+00 1.0372834e-01
7.6493419e-01 0.0000000e+00 1.0147145e-01
8.0403262e-01 0.0000000e+00 9.8541902e-02
8.3845518e-01 0.0000000e+00 9.4288603e-02
8.6656858e-01 0.0000000e+00 8.8518888e-02
8.9418090e-01 0.0000000e+00 8.1731667e-02
9.2130923e-01 0.0000000e+00 7.3563738e-02
9.4796938e-01 0.0000000e+00 6.3306789e-02
9.7417841e-01 0.0000000e+00 4.9163655e-02
9.9871824e-01 5.4433504e-02 3.5309100e-02
1.0000000e+00 1.8755368e-01 1.0490846e-01
1.0000000e+00 2.4444199e-01 1.4104178e-01
1.0000000e+00 2.8297407e-01 1.6775029e-01
0.0000000e+00 6.0421804e-02 3.5712510e-02
0.0000000e+00 6.2640930e-02 2.6090055e-02
6.3987880e-02 6.2521188e-02 0.0000000e+00
1.0622509e-01 5.8681824e-02 0.0000000e+00
1.4600579e-01 5.1034832e-02 0.0000000e+00
1.8505114e-01 3.5253896e-02 0.0000000e+00
2.2026981e-01 1.9745216e-03 2.8911183e-02
2.5207114e-01 1.5690794e-03 4.9402626e-02
2.8503946e-01 0.0000000e+00 6.4073181e-02
3.1913037e-01 0.0000000e+00 7.4682678e-02
3.5401190e-01 0.0000000e+00 8.2815296e-02
3.8954332e-01 0.0000000e+00 8.9170997e-02
4.2562342e-01 0.0000000e+00 9.4125659e-02
4.6217381e-01 0.0000000e+00 9.7899376e-02
4.9913103e-01 0.0000000e+00 1.0061973e-01
5.3643932e-01 0.0000000e+00 1.0236611e-01
5.7405489e-01 0.0000000e+00 1.0316615e-01
6.1194100e-01 0.0000000e+00 1.0307569e-01
6.5006070e-01 0.0000000e+00 1.0243609e-01
6.8839787e-01 0.0000000e+00 1.0128932e-01
7.2694390e-01 0.0000000e+00 9.9584377e-02
7.6569556e-01 0.0000000e+00 9.7258841e-02
8.0465018e-01 0.0000000e+00 9.4212533e-02
8.3908724e-01 0.0000000e+00 8.9811000e-02
8.6729159e-01 0.0000000e+00 8.3844745e-02
8.9497903e-01 0.0000000e+00 7.6713453e-02
9.2217080e-01 0.0000000e+00 6.7935313e-02
9.4888401e-01 0.0000000e+00 5.6488070e-02
9.7480396e-01 3.1885208e-02 4.1584943e-02
9.9902766e-01 6.5326204e-02 2.6276159e-02
1.0000000e+00 1.9049392e-01 1.0393873e-01
1.0000000e+00 2.4635060e-01 1.4047914e-01
1.0000000e+00 2.8441491e-01 1.6735227e-01
0.0000000e+00 9.0656697e-02 5.3582682e-02
0.0000000e+00 9.1886597e-02 4.9839207e-02
3.9992983e-02 9.5619510e-02 0.0000000e+00
9.5984733e-02 9.3784633e-02 0.0000000e+00
1.3898032e-01 9.0476056e-02 0.0000000e+00
1.7958563e-01 8.5071522e-02 0.0000000e+00
2.1863147e-01 7.7517170e-02 0.0000000e+00
2.5751185e-01 6.5335300e-02 2.0908990e-04
2.9611640e-01 4.3909585e-02 1.8465625e-04
3.3162131e-01 0.0000000e+00 3.6218035e-02
3.6445102e-01 0.0000000e+00 5.7812765e-02
3.9832861e-01 0.0000000e+00 7.0024930e-02
4.3304996e-01 0.0000000e+00 7.8433641e-02
4.6846516e-01 0.0000000e+00 8.4497134e-02
5.0445922e-01 0.0000000e+00 8.8838303e-02
5.4094400e-01 0.0000000e+00 9.1770575e-02
5.7785157e-01 0.0000000e+00 9.3460887e-02
6.1513014e-01 0.0000000e+00 9.3973309e-02
6.5273791e-01 0.0000000e+00 9.3436992e-02
6.9063528e-01 0.0000000e+00 9.2268022e-02
7.2880225e-01 0.0000000e+00 9.0456390e-02
7.6722657e-01 0.0000000e+00 8.7922004e-02
8.0589913e-01 0.0000000e+00 8.4541295e-02
8.4038328e-01 0.0000000e+00 7.9713817e-02
8.6877436e-01 0.0000000e+00 7.3118493e-02
8.9661697e-01 0.0000000e+00 6.4865137e-02
9.2393597e-01 0.0000000e+00 5.3945175e-02
9.5041315e-01 3.2801582e-02 3.9919924e-02
9.7570367e-01 5.7970315e-02 1.8908570e-02
9.9801213e-01 9.6922665e-02 2.4644064e-02
1.0000000e+00 1.9632283e-01 1.0196239e-01
1.0000000e+00 2.5014461e-01 1.3930883e-01
1.0000000e+00 2.8731987e-01 1.6654814e-01
0.0000000e+00 1.2092674e-01 7.1473469e-02
0.0000000e+00 1.2174084e-01 6.9187459e-02
0.0000000e+00 1.2532021e-01 5.2203624e-02
7.6971586e-02 1.2704150e-01 0.0000000e+00
1.2798580e-01 1.2505223e-01 0.0000000e+00
1.7153411e-01 1.2204305e-01 0.0000000e+00
2.1236041e-01 1.1773918e-01 0.0000000e+00
2.5218496e-01 1.1192352e-01 1.0124923e-03
2.9138400e-01 1.0426411e-01 7.3789099e-04
3.3008737e-01 9.4238113e-02 7.0018680e-04
3.6840914e-01 8.0827268e-02 0.0000000e+00
4.0642842e-01 6.1274864e-02 5.3107352e-04
4.4388123e-01 2.0468012e-02 1.6596283e-02
4.7793947e-01 0.0000000e+00 4.7435917e-02
5.1251875e-01 0.0000000e+00 6.0419524e-02
5.4779274e-01 0.0000000e+00 6.8109907e-02
5.8366026e-01 0.0000000e+00 7.2811729e-02
6.2004335e-01 0.0000000e+00 7.5337415e-02
6.5688153e-01 0.0000000e+00 7.6017635e-02
6.9412696e-01 0.0000000e+00 7.4986091e-02
7.3173305e-01 0.0000000e+00 7.2845403e-02
7.6966952e-01 0.0000000e+00 6.9677206e-02
8.0791663e-01 0.0000000e+00 6.5230882e-02
8.4248224e-01 0.0000000e+00 5.8774031e-02
8.7117922e-01 0.0000000e+00 4.9319600e-02
8.9898512e-01 3.2043452e-02 3.7349647e-02
9.2572002e-01 5.4255408e-02 1.9600946e-02
9.5060639e-01 8.3303496e-02 0.0000000e+00
9.7419664e-01 1.0691829e-01 0.0000000e+00
9.9681316e-01 1.2635007e-01 1.1678010e-02
1.0000000e+00 2.0515014e-01 9.8663398e-02
1.0000000e+00 2.5606889e-01 1.3742389e-01
1.0000000e+00 2.9187521e-01 1.6524449e-01
0.0000000e+00 1.5124931e-01 8.9395386e-02
0.0000000e+00 1.5183862e-01 8.7780166e-02
0.0000000e+00 1.5439445e-01 7.8561213e-02
1.8143044e-02 1.5975562e-01 8.0785746e-03
1.1064608e-01 1.5842502e-01 4.5371887e-04
1.5992495e-01 1.5635289e-01 0.0000000e+00
2.0399498e-01 1.5363985e-01 5.7554292e-04
2.4528135e-01 1.4994473e-01 0.0000000e+00
2.8518741e-01 1.4534514e-01 0.0000000e+00
3.2432989e-01 1.3978111e-01 0.0000000e+00
3.6300600e-01 1.3315854e-01 4.3795567e-04
4.0134793e-01 1.2535810e-01 1.3990353e-03
4.3940414e-01 1.1623948e-01 1.8100656e-03
4.7720569e-01 1.0562025e-01 1.9166609e-03
5.1477936e-01 9.3229453e-02 2.1653555e-03
5.5215217e-01 7.8568779e-02 7.7848273e-04
5.8933703e-01 6.0591554e-02 2.2530114e-03
6.2616040e-01 3.9657940e-02 1.4775422e-02
6.6273372e-01 0.0000000e+00 2.1727921e-02
6.9900263e-01 1.8209393e-02 2.8760398e-02
7.3564835e-01 3.1159699e-02 2.8163880e-02
7.7267561e-01 4.2534587e-02 2.0937549e-02
8.0991328e-01 5.6979909e-02 0.0000000e+00
8.4354922e-01 7.7174174e-02 0.0000000e+00
8.7117134e-01 9.3857849e-02 0.0000000e+00
8.9773653e-01 1.0870932e-01 0.0000000e+00
9.2329241e-01 1.2242370e-01 0.0000000e+00
9.4788991e-01 1.3529461e-01 0.0000000e+00
9.7159711e-01 1.4739909e-01 0.0000000e+00
9.9441972e-01 1.5903970e-01 4.6701421e-03
1.0000000e+00 2.1687294e-01 9.3704420e-02
1.0000000e+00 2.6417575e-01 1.3468123e-01
1.0000000e+00 2.9818700e-01 1.6337017e-01
1.4454165e-03 1.8169714e-01 1.0803274e-01
1.5648575e-03 1.8214358e-01 1.0686936e-01
1.7447939e-03 1.8406606e-01 1.0092273e-01
1.1466192e-03 1.8808015e-01 8.0577818e-02
7.7754849e-02 1.9150175e-01 4.5013438e-04
1.4323851e-01 1.8985417e-01 0.0000000e+00
1.9225000e-01 1.8757860e-01 1.7862653e-03
2.3648810e-01 1.8533710e-01 3.0083169e-04
2.7800054e-01 1.8223528e-01 0.0000000e+00
3.1803202e-01 1.7851964e-01 0.0000000e+00
3.5718578e-01 1.7425697e-01 0.0000000e+00
3.9577149e-01 1.6948027e-01 0.0000000e+00
4.3396387e-01 1.6424208e-01 0.0000000e+00
4.7187252e-01 1.5862591e-01 0.0000000e+00
5.0955409e-01 1.5277548e-01 6.7211889e-04
5.4703513e-01 1.4691655e-01 1.2114273e-03
5.8433162e-01 1.4139353e-01 1.4590548e-03
6.2145381e-01 1.3670665e-01 1.5509831e-03
6.5841103e-01 1.3353545e-01 1.5689405e-03
6.9520875e-01 1.3272776e-01 2.8976270e-03
7.3189425e-01 1.3490553e-01 0.0000000e+00
7.6875856e-01 1.3890660e-01 0.0000000e+00
8.0589933e-01 1.4424032e-01 0.0000000e+00
8.3975557e-01 1.5012135e-01 0.0000000e+00
8.6742267e-01 1.5589176e-01 0.0000000e+00
8.9405508e-01 1.6228775e-01 0.0000000e+00
9.1970793e-01 1.6913022e-01 0.0000000e+00
9.4442613e-01 1.7630656e-01 0.0000000e+00
9.6825357e-01 1.8371802e-01 0.0000000e+00
9.9123322e-01 1.9128010e-01 0.0000000e+00
1.0000000e+00 2.3117960e-01 8.6516499e-02
1.0000000e+00 2.7443008e-01 1.3094198e-01
1.0000000e+00 3.0627994e-01 1.6084865e-01
0.0000000e+00 2.1231978e-01 1.2727624e-01
0.0000000e+00 2.1266501e-01 1.2643519e-01
0.0000000e+00 2.1414793e-01 1.2235583e-01
0.0000000e+00 2.1720970e-01 1.1070865e-01
0.0000000e+00 2.2243807e-01 6.6984267e-02
1.1861097e-01 2.2280649e-01 9.3131604e-04
1.7729976e-01 2.2090657e-01 4.7827660e-04
2.2489507e-01 2.1877548e-01 3.8431003e-03
2.6916117e-01 2.1714789e-01 5.9028225e-04
3.1075475e-01 2.1463946e-01 5.6255208e-04
3.5086673e-01 2.1169622e-01 0.0000000e+00
3.9002195e-01 2.0843653e-01 0.0000000e+00
4.2854892e-01 2.0496569e-01 0.0000000e+00
4.6662949e-01 2.0138402e-01 0.0000000e+00
5.0437666e-01 1.9782694e-01 0.0000000e+00
5.4186815e-01 1.9447169e-01 0.0000000e+00
5.7915231e-01 1.9155867e-01 0.0000000e+00
6.1625906e-01 1.8939317e-01 0.0000000e+00
6.5320766e-01 1.8834976e-01 9.2113567e-04
6.9003932e-01 1.8876106e-01 0.0000000e+00
7.2699260e-01 1.9021389e-01 0.0000000e+00
7.6415530e-01 1.9259056e-01 0.0000000e+00
8.0155635e-01 1.9589096e-01 0.0000000e+00
8.3518275e-01 1.9913918e-01 0.0000000e+00
8.6290213e-01 2.0182381e-01 0.0000000e+00
8.8961879e-01 2.0511129e-01 0.0000000e+00
9.1537575e-01 2.0892797e-01 0.0000000e+00
9.4021671e-01 2.1319779e-01 0.0000000e+00
9.6418417e-01 2.1784913e-01 0.0000000e+00
9.8731910e-01 2.2281585e-01 0.0000000e+00
1.0000000e+00 2.4770792e-01 7.6048793e-02
1.0000000e+00 2.8669131e-01 1.2599831e-01
1.0000000e+00 3.1611992e-01 1.5759721e-01
0.0000000e+00 2.4321835e-01 1.4274337e-01
0.0000000e+00 2.4349973e-01 1.4185051e-01
0.0000000e+00 2.4470615e-01 1.3769603e-01
0.0000000e+00 2.4717822e-01 1.2721709e-01
0.0000000e+00 2.5125051e-01 1.0147868e-01
7.6324015e-02 2.5535799e-01 0.0000000e+00
1.5785589e-01 2.5371013e-01 1.2208653e-03
2.1156103e-01 2.5185625e-01 0.0000000e+00
2.5787979e-01 2.4996851e-01 5.1483539e-03
3.0214115e-01 2.4909990e-01 1.2587025e-03
3.4370972e-01 2.4721549e-01 0.0000000e+00
3.8384660e-01 2.4502342e-01 0.0000000e+00
4.2297867e-01 2.4265503e-01 0.0000000e+00
4.6142845e-01 2.4026017e-01 0.0000000e+00
4.9939467e-01 2.3797655e-01 0.0000000e+00
5.3699378e-01 2.3595273e-01 0.0000000e+00
5.7430580e-01 2.3436977e-01 0.0000000e+00
6.1138267e-01 2.3345422e-01 0.0000000e+00
6.4834975e-01 2.3328026e-01 0.0000000e+00
6.8538135e-01 2.3372764e-01 0.0000000e+00
7.2254300e-01 2.3483140e-01 0.0000000e+00
7.5988414e-01 2.3661789e-01 0.0000000e+00
7.9744087e-01 2.3910430e-01 0.0000000e+00
8.2988170e-01 2.4073881e-01 0.0000000e+00
8.5765241e-01 2.4176801e-01 0.0000000e+00
8.8446029e-01 2.4327595e-01 0.0000000e+00
9.1033423e-01 2.4525200e-01 0.0000000e+00
9.3532236e-01 2.4763571e-01 0.0000000e+00
9.5944405e-01 2.5042752e-01 0.0000000e+00
9.8275474e-01 2.5354864e-01 0.0000000e+00
1.0000000e+00 2.6608254e-01 5.9583703e-02
1.0000000e+00 3.0078528e-01 1.1957146e-01
1.0000000e+00 3.2761832e-01 1.5350350e-01
0.0000000e+00 2.7421979e-01 1.5650965e-01
0.0000000e+00 2.7445240e-01 1.5552387e-01
0.0000000e+00 2.7545253e-01 1.5098120e-01
0.0000000e+00 2.7750840e-01 1.4000880e-01
0.0000000e+00 2.8087026e-01 1.1837455e-01
0.0000000e+00 2.8578437e-01 6.6859435e-02
1.3194911e-01 2.8610421e-01 0.0000000e+00
1.9576284e-01 2.8447563e-01 0.0000000e+00
2.4608318e-01 2.8271974e-01 0.0000000e+00
2.9124176e-01 2.8117852e-01 4.4214952e-03
3.3552558e-01 2.8122496e-01 4.4910089e-04
3.7700489e-01 2.8002842e-01 6.3282533e-04
4.1710854e-01 2.7860781e-01 0.0000000e+00
4.5620021e-01 2.7711583e-01 0.0000000e+00
4.9455242e-01 2.7571498e-01 0.0000000e+00
5.3238314e-01 2.7457696e-01 0.0000000e+00
5.6986418e-01 2.7379583e-01 0.0000000e+00
6.0716207e-01 2.7338028e-01 0.0000000e+00
6.4438197e-01 2.7338470e-01 0.0000000e+00
6.8161080e-01 2.7385381e-01 0.0000000e+00
7.1891864e-01 2.7482583e-01 0.0000000e+00
7.5636762e-01 2.7632548e-01 0.0000000e+00
7.9399977e-01 2.7838301e-01 0.0000000e+00
8.2390417e-01 2.7831917e-01 0.0000000e+00
8.5173901e-01 2.7825036e-01 0.0000000e+00
8.7864224e-01 2.7857326e-01 0.0000000e+00
9.0464575e-01 2.7927677e-01 0.0000000e+00
9.2978150e-01 2.8034695e-01 0.0000000e+00
9.5407820e-01 2.8177188e-01 0.0000000e+00
9.7756564e-01 2.8353375e-01 0.0000000e+00
9.9899518e-01 2.8747445e-01 3.3486928e-02
1.0000000e+00 3.1653390e-01 1.1125237e-01
1.0000000e+00 3.4066948e-01 1.4843778e-01
0.0000000e+00 3.0527772e-01 1.6815510e-01
0.0000000e+00 3.0547269e-01 1.6708830e-01
0.0000000e+00 3.0631071e-01 1.6239907e-01
0.0000000e+00 3.0803713e-01 1.5214072e-01
0.0000000e+00 3.1086707e-01 1.3313686e-01
0.0000000e+00 3.1499557e-01 9.6824297e-02
9.3756704e-02 3.1815106e-01 0.0000000e+00
1.7723258e-01 3.1667920e-01 0.0000000e+00
2.3323593e-01 3.1511988e-01 0.0000000e+00
2.8092198e-01 3.1350725e-01 1.8100149e-04
3.2503094e-01 3.1242214e-01 8.5161899e-03
3.6939953e-01 3.1355492e-01 2.4812338e-03
4.1076944e-01 3.1314548e-01 1.3040155e-04
4.5079491e-01 3.1253349e-01 0.0000000e+00
4.8986339e-01 3.1188104e-01 0.0000000e+00
5.2822440e-01 3.1129047e-01 0.0000000e+00
5.6612049e-01 3.1087537e-01 0.0000000e+00
6.0374351e-01 3.1072343e-01 0.0000000e+00
6.4122246e-01 3.1088910e-01 0.0000000e+00
6.7865281e-01 3.1141373e-01 0.0000000e+00
7.1611018e-01 3.1233642e-01 0.0000000e+00
7.5365969e-01 3.1368629e-01 0.0000000e+00
7.8848100e-01 3.1433685e-01 0.0000000e+00
8.1730977e-01 3.1318389e-01 0.0000000e+00
8.4521774e-01 3.1233144e-01 0.0000000e+00
8.7222581e-01 3.1179425e-01 0.0000000e+00
8.9836799e-01 3.1156280e-01 0.0000000e+00
9.2365742e-01 3.1165608e-01 0.0000000e+00
9.4813303e-01 3.1205196e-01 0.0000000e+00
9.7181837e-01 3.1274789e-01 0.0000000e+00
9.9474455e-01 3.1372841e-01 0.0000000e+00
1.0000000e+00 3.3373970e-01 1.0027997e-01
1.0000000e+00 3.5515143e-01 1.4221858e-01
0.0000000e+00 3.3636779e-01 1.7906550e-01
0.0000000e+00 3.3653297e-01 1.7806325e-01
0.0000000e+00 3.3724489e-01 1.7367261e-01
0.0000000e+00 3.3871319e-01 1.6421530e-01
0.0000000e+00 3.4112489e-01 1.4724288e-01
0.0000000e+00 3.4466351e-01 1.1718130e-01
0.0000000e+00 3.4936583e-01 4.0338474e-02
1.5576593e-01 3.4852065e-01 0.0000000e+00
2.1954102e-01 3.4710250e-01 0.0000000e+00
2.7062577e-01 3.4566058e-01 3.0773439e-04
3.1607196e-01 3.4424237e-01 0.0000000e+00
3.5921499e-01 3.4373356e-01 0.0000000e+00
4.0374503e-01 3.4606534e-01 0.0000000e+00
4.4507669e-01 3.4644026e-01 0.0000000e+00
4.8510737e-01 3.4648710e-01 0.0000000e+00
5.2428717e-01 3.4646559e-01 0.0000000e+00
5.6280766e-01 3.4645895e-01 0.0000000e+00
6.0086875e-01 3.4656887e-01 0.0000000e+00
6.3866211e-01 3.4688800e-01 0.0000000e+00
6.7632849e-01 3.4748424e-01 0.0000000e+00
7.1396358e-01 3.4839666e-01 0.0000000e+00
7.5146432e-01 3.4957526e-01 0.0000000e+00
7.8126959e-01 3.4766456e-01 0.0000000e+00
8.1015680e-01 3.4598368e-01 0.0000000e+00
8.3815339e-01 3.4454008e-01 0.0000000e+00
8.6528382e-01 3.4334379e-01 0.0000000e+00
8.9156449e-01 3.4241154e-01 0.0000000e+00
9.1702554e-01 3.4173985e-01 0.0000000e+00
9.4168688e-01 3.4133517e-01 0.0000000e+00
9.6557736e-01 3.4119136e-01 0.0000000e+00
9.8871647e-01 3.4130996e-01 0.0000000e+00
1.0000000e+00 3.5224441e-01 8.5134856e-02
1.0000000e+00 3.7093976e-01 1.3458014e-01
0.0000000e+00 3.6749086e-01 1.9010816e-01
0.0000000e+00 3.6763312e-01 1.8916565e-01
0.0000000e+00 3.6824399e-01 1.8506860e-01
0.0000000e+00 3.6950712e-01 1.7633025e-01
0.0000000e+00 3.7158392e-01 1.6100444e-01
0.0000000e+00 3.7464260e-01 1.3516414e-01
0.0000000e+00 3.7876235e-01 8.5469955e-02
1.2819196e-01 3.8020368e-01 4.4302443e-04
2.0404184e-01 3.7889903e-01 0.0000000e+00
2.5945740e-01 3.7758143e-01 0.0000000e+00
3.0723088e-01 3.7628345e-01 0.0000000e+00
3.5096056e-01 3.7507577e-01 0.0000000e+00
3.9345881e-01 3.7517158e-01 0.0000000e+00
4.3832373e-01 3.7864069e-01 0.0000000e+00
4.7982374e-01 3.7976178e-01 0.0000000e+00
5.1996652e-01 3.8037349e-01 0.0000000e+00
5.5933977e-01 3.8088865e-01 0.0000000e+00
5.9809658e-01 3.8137903e-01 0.0000000e+00
6.3639431e-01 3.8192815e-01 0.0000000e+00
6.7440521e-01 3.8263050e-01 0.0000000e+00
7.1228039e-01 3.8356429e-01 0.0000000e+00
7.5013738e-01 3.8475569e-01 0.0000000e+00
7.7697804e-01 3.8088114e-01 0.0000000e+00
8.0292859e-01 3.7729975e-01 0.0000000e+00
8.3060415e-01 3.7519830e-01 0.0000000e+00
8.5786486e-01 3.7349743e-01 0.0000000e+00
8.8429989e-01 3.7201182e-01 0.0000000e+00
9.0993519e-01 3.7074497e-01 0.0000000e+00
9.3478950e-01 3.6970515e-01 0.0000000e+00
9.5889072e-01 3.6889015e-01 0.0000000e+00
9.8225646e-01 3.6830487e-01 0.0000000e+00
9.9996489e-01 3.7193414e-01 6.1438104e-02
1.0000000e+00 3.8792534e-01 1.2512985e-01
0.0000000e+00 3.9865037e-01 2.0135915e-01
0.0000000e+00 3.9877276e-01 2.0048238e-01
0.0000000e+00 3.9930375e-01 1.9665294e-01
0.0000000e+00 4.0039950e-01 1.8857015e-01
0.0000000e+00 4.0220387e-01 1.7462309e-01
0.0000000e+00 4.0486740e-01 1.5190552e-01
0.0000000e+00 4.0848829e-01 1.1274746e-01
8.1740216e-02 4.1192190e-01 0.0000000e+00
1.8485808e-01 4.1068837e-01 0.0000000e+00
2.4653162e-01 4.0944321e-01 0.0000000e+00
2.9741102e-01 4.0821942e-01 0.0000000e+00
3.4300046e-01 4.0704399e-01 0.0000000e+00
3.8553179e-01 4.0603598e-01 0.0000000e+00
4.2770316e-01 4.0672995e-01 0.0000000e+00
4.7305990e-01 4.1127124e-01 0.0000000e+00
5.1490397e-01 4.1313284e-01 0.0000000e+00
5.5524170e-01 4.1424552e-01 0.0000000e+00
5.9486987e-01 4.1523107e-01 0.0000000e+00
6.3391953e-01 4.1615775e-01 0.0000000e+00
6.7251359e-01 4.1709666e-01 0.0000000e+00
7.1079706e-01 4.1813129e-01 0.0000000e+00
7.4891809e-01 4.1934296e-01 0.0000000e+00
7.7591431e-01 4.1487001e-01 0.0000000e+00
8.0185677e-01 4.1061047e-01 0.0000000e+00
8.2692107e-01 4.0664148e-01 0.0000000e+00
8.5113466e-01 4.0295422e-01 0.0000000e+00
8.7662612e-01 4.0050796e-01 0.0000000e+00
9.0244569e-01 3.9876691e-01 0.0000000e+00
9.2750492e-01 3.9721465e-01 0.0000000e+00
9.5182044e-01 3.9585947e-01 0.0000000e+00
9.7541817e-01 3.9470120e-01 0.0000000e+00
9.9820618e-01 3.9381767e-01 1.2507354e-02
1.0000000e+00 4.0600237e-01 1.1316488e-01
0.0000000e+00 4.2984670e-01 2.1289680e-01
0.0000000e+00 4.2995473e-01 2.1207080e-01
0.0000000e+00 4.3041834e-01 2.0850234e-01
9.0510627e-04 4.3137586e-01 2.0101514e-01
0.0000000e+00 4.3295609e-01 1.8824545e-01
0.0000000e+00 4.3528994e-01 1.6797760e-01
0.0000000e+00 4.3848472e-01 1.3519060e-01
0.0000000e+00 4.4254508e-01 6.6017156e-02
1.5955162e-01 4.4251737e-01 0.0000000e+00
2.3101724e-01 4.4131606e-01 0.0000000e+00
2.8608526e-01 4.4013172e-01 0.0000000e+00
3.3411922e-01 4.3899183e-01 0.0000000e+00
3.7818327e-01 4.3792013e-01 0.0000000e+00
4.1987591e-01 4.3711137e-01 0.0000000e+00
4.6195135e-01 4.3839735e-01 0.0000000e+00
5.0789639e-01 4.4394403e-01 4.7836926e-04
5.5023457e-01 4.4655818e-01 0.0000000e+00
5.9083501e-01 4.4812733e-01 0.0000000e+00
6.3076508e-01 4.4953460e-01 0.0000000e+00
6.7014919e-01 4.5085375e-01 0.0000000e+00
7.0908577e-01 4.5214439e-01 0.0000000e+00
7.4769175e-01 4.5348064e-01 0.0000000e+00
7.7483194e-01 4.4841972e-01 0.0000000e+00
8.0078967e-01 4.4349979e-01 0.0000000e+00
8.2590670e-01 4.3888684e-01 0.0000000e+00
8.5020329e-01 4.3456475e-01 0.0000000e+00
8.7370088e-01 4.3052220e-01 0.0000000e+00
8.9642502e-01 4.2674887e-01 0.0000000e+00
9.1988245e-01 4.2392383e-01 0.0000000e+00
9.4442246e-01 4.2212750e-01 0.0000000e+00
9.6826062e-01 4.2049879e-01 0.0000000e+00
9.9140498e-01 4.1904803e-01 0.0000000e+00
1.0000000e+00 4.2509360e-01 9.7341939e-02
0.0000000e+00 4.6108280e-01 2.2477221e-01
0.0000000e+00 4.6117789e-01 2.2400018e-01
0.0000000e+00 4.6158573e-01 2.2067186e-01
0.0000000e+00 4.6242948e-01 2.1371654e-01
0.0000000e+00 4.6381977e-01 2.0198579e-01
0.0000000e+00 4.6587621e-01 1.8371295e-01
0.0000000e+00 4.6870434e-01 1.5538119e-01
0.0000000e+00 4.7234113e-01 1.0601983e-01
1.2198401e-01 4.7441150e-01 0.0000000e+00
2.1170362e-01 4.7323871e-01 0.0000000e+00
2.7265495e-01 4.7207445e-01 0.0000000e+00
3.2386128e-01 4.7094706e-01 0.0000000e+00
3.6996801e-01 4.6987956e-01 0.0000000e+00
4.1293116e-01 4.6889634e-01 0.0000000e+00
4.5404780e-01 4.6829193e-01 0.0000000e+00
4.9618953e-01 4.7015419e-01 0.0000000e+00
5.4278448e-01 4.7664263e-01 4.2171937e-04
5.8574487e-01 4.8002952e-01 0.0000000e+00
6.2667068e-01 4.8202939e-01 0.0000000e+00
6.6693797e-01 4.8381960e-01 0.0000000e+00
7.0668687e-01 4.8549491e-01 0.0000000e+00
7.4599924e-01 4.8710900e-01 0.0000000e+00
7.7378596e-01 4.8176338e-01 0.0000000e+00
7.9972317e-01 4.7613813e-01 0.0000000e+00
8.2487493e-01 4.7086930e-01 0.0000000e+00
8.4924162e-01 4.6591800e-01 0.0000000e+00
8.7283921e-01 4.6126021e-01 0.0000000e+00
8.9568533e-01 4.5688141e-01 0.0000000e+00
9.1780287e-01 4.5276737e-01 0.0000000e+00
9.3921272e-01 4.4891008e-01 0.0000000e+00
9.6082869e-01 4.4571872e-01 0.0000000e+00
9.8422972e-01 4.4385762e-01 0.0000000e+00
1.0000000e+00 4.4512995e-01 7.4009754e-02
0.0000000e+00 4.9235842e-01 2.3704447e-01
0.0000000e+00 4.9244237e-01 2.3632392e-01
0.0000000e+00 4.9280295e-01 2.3321878e-01
0.0000000e+00 4.9354990e-01 2.2675105e-01
0.0000000e+00 4.9478054e-01 2.1593057e-01
0.0000000e+00 4.9660027e-01 1.9933346e-01
0.0000000e+00 4.9911138e-01 1.7436769e-01
0.0000000e+00 5.0237234e-01 1.3456375e-01
3.9397206e-02 5.0621011e-01 3.2666388e-02
1.8648865e-01 5.0523209e-01 0.0000000e+00
2.5632789e-01 5.0407815e-01 0.0000000e+00
3.1175395e-01 5.0295072e-01 0.0000000e+00
3.6044737e-01 5.0187381e-01 9.0255626e-04
4.0518497e-01 5.0086767e-01 0.0000000e+00
4.4734084e-01 4.9996206e-01 0.0000000e+00
4.8808230e-01 4.9957053e-01 0.0000000e+00
5.3040996e-01 5.0198904e-01 0.0000000e+00
5.7768442e-01 5.0935174e-01 0.0000000e+00
6.2137736e-01 5.1353570e-01 0.0000000e+00
6.6268506e-01 5.1595089e-01 0.0000000e+00
7.0331543e-01 5.1809044e-01 0.0000000e+00
7.4345242e-01 5.2009296e-01 0.0000000e+00
7.7292733e-01 5.1518388e-01 0.0000000e+00
7.9873697e-01 5.0873498e-01 0.0000000e+00
8.2386536e-01 5.0275114e-01 0.0000000e+00
8.4827943e-01 4.9714866e-01 0.0000000e+00
8.7196370e-01 4.9187478e-01 0.0000000e+00
8.9492591e-01 4.8689870e-01 0.0000000e+00
9.1718065e-01 4.8220121e-01 0.0000000e+00
9.3874634e-01 4.7776736e-01 0.0000000e+00
9.5963885e-01 4.7358759e-01 0.0000000e+00
9.7987950e-01 4.6965236e-01 0.0000000e+00
9.9984402e-01 4.6612334e-01 7.4556729e-04
0.0000000e+00 5.2367629e-01 2.4974869e-01
0.0000000e+00 5.2375040e-01 2.4907760e-01
0.0000000e+00 5.2407132e-01 2.4617518e-01
0.0000000e+00 5.2473318e-01 2.4016484e-01
0.0000000e+00 5.2582702e-01 2.3015595e-01
1.2805608e-03 5.2744230e-01 2.1499804e-01
