sample/src/main/assets/lut/LinearTransformation/BT2020_HLG_BT601_PAL.cube
TITLE "BT2020_HLG_BT601_PAL"
LUT_3D_SIZE 5
# BT2020 HLG HDR to BT601 PAL SDR by Francesco Bucciantini
0.00000000 0.00000000 0.00000000
0.37922901 0.00000000 0.00000000
0.68371333 0.00000000 0.00000000
0.86684961 0.00000000 0.00000000
0.97828848 0.00000000 0.00000000
0.00000000 0.29995748 0.00000000
0.28462871 0.27457407 0.00000000
0.66411742 0.18128780 0.00000000
0.86294465 0.00000000 0.00000000
0.97795808 0.00000000 0.00000000
0.00000000 0.60312950 0.00000000
0.00000000 0.59583407 0.00000000
0.58464360 0.57190231 0.00000000
0.85006820 0.47649621 0.00000000
0.97692289 0.00000000 0.00000000
0.00000000 0.81160458 0.00000000
0.00000000 0.81000254 0.00000000
0.00000000 0.80504963 0.00000000
0.79843423 0.78926342 0.00000000
0.97350402 0.69024555 0.00000000
0.00000000 0.95650897 0.00000000
0.00000000 0.95631739 0.00000000
0.00000000 0.95573620 0.00000000
0.00000000 0.95399040 0.00000000
0.95038697 0.94595639 0.00000000
0.00000000 0.00000000 0.28833431
0.36837848 0.00000000 0.28583483
0.68133504 0.00000000 0.27821454
0.86635808 0.00000000 0.25492068
0.97824645 0.00000000 0.13111606
0.00000000 0.29601136 0.27292133
0.27029369 0.27029369 0.27029369
0.66140921 0.17516772 0.26227011
0.86243022 0.00000000 0.23761288
0.97791513 0.00000000 0.10018094
0.00000000 0.60197761 0.22115061
0.00000000 0.59463190 0.21798922
0.58023820 0.57052337 0.20826535
0.84947404 0.47420338 0.17760361
0.97687707 0.00000000 0.00000000
0.00000000 0.81134867 0.00000000
0.00000000 0.80974280 0.00000000
0.00000000 0.80477782 0.00000000
0.79744910 0.78895081 0.00000000
0.97344870 0.68958092 0.00000000
0.00000000 0.95647825 0.00000000
0.00000000 0.95628650 0.00000000
0.00000000 0.95570478 0.00000000
0.00000000 0.95395740 0.00000000
0.95026310 0.94591582 0.00000000
0.00000000 0.00000000 0.58921357
0.33381053 0.00000000 0.58844984
0.67396544 0.00000000 0.58613833
0.86486628 0.00000000 0.57924202
0.97811968 0.00000000 0.54823280
0.00000000 0.28387326 0.58454821
0.22252696 0.25707305 0.58376372
0.65298997 0.15571786 0.58138894
0.86086843 0.00000000 0.57429993
0.97778559 0.00000000 0.54234793
0.00000000 0.59847460 0.56975876
0.00000000 0.59097430 0.56890560
0.56632138 0.56632138 0.56632138
0.84766839 0.46716249 0.55859312
0.97673884 0.00000000 0.52348299
0.00000000 0.81057725 0.51830403
0.00000000 0.80895981 0.51717514
0.00000000 0.80395835 0.51374773
0.79444115 0.78800787 0.50342428
0.97328180 0.68756888 0.45499802
0.00000000 0.95638592 0.00000000
0.00000000 0.95619365 0.00000000
0.00000000 0.95561036 0.00000000
0.00000000 0.95385820 0.00000000
0.94988910 0.94579388 0.00000000
0.00000000 0.00000000 0.80170534
0.20583728 0.00000000 0.80153391
0.65028627 0.00000000 0.80101804
0.86037869 0.00000000 0.79950521
0.97774522 0.00000000 0.79316673
0.00000000 0.24559288 0.80066574
0.00000000 0.21472939 0.80049271
0.62564244 0.08471153 0.79997199
0.85616606 0.00000000 0.79844488
0.97740294 0.00000000 0.79204518
0.00000000 0.58786988 0.79748776
0.00000000 0.57988623 0.79730975
0.51850909 0.55352113 0.79677405
0.84221477 0.44518491 0.79520273
0.97633056 0.00000000 0.78861343
0.00000000 0.80830376 0.78771337
0.00000000 0.80665189 0.78751951
0.00000000 0.80154190 0.78693599
0.78522349 0.78522349 0.78522349
0.97278878 0.68156188 0.77802728
0.00000000 0.95611618 0.73729772
0.00000000 0.95592240 0.73700720
0.00000000 0.95533450 0.73613184
0.00000000 0.95356839 0.73355495
0.94878159 0.94543748 0.72259366
0.00000000 0.00000000 0.95193484
0.00000000 0.00000000 0.95191348
0.49078914 0.00000000 0.95184933
0.83951932 0.00000000 0.95166227
0.97613377 0.00000000 0.95089568
0.00000000 0.00000000 0.95180562
0.00000000 0.00000000 0.95178419
0.42516741 0.00000000 0.95171981
0.83422045 0.00000000 0.95153211
0.97575629 0.00000000 0.95076287
0.00000000 0.53697884 0.95141528
0.00000000 0.52632509 0.95139363
0.04554914 0.49022765 0.95132858
0.81640655 0.33773970 0.95113893
0.97457365 0.00000000 0.95036168
0.00000000 0.79858986 0.95025774
0.00000000 0.79678567 0.95023542
0.00000000 0.79119448 0.95016838
0.73851305 0.77323400 0.94997291
0.97066630 0.65448207 0.94917176
0.00000000 0.95500266 0.94519475
0.00000000 0.95480260 0.94516946
0.00000000 0.95419558 0.94509351
0.00000000 0.95237154 0.94487203
0.94396381 0.94396381 0.94396381
