sample/src/main/assets/lut/LinearTransformation/BT2020_HLG_BT601_PAL.cube
TITLE "BT2020_HLG_BT601_PAL"
LUT_3D_SIZE 33
# BT2020 HLG HDR to BT601 PAL SDR by Francesco Bucciantini
0.00000000 0.00000000 0.00000000
0.01106640 0.00000000 0.00000000
0.04426560 0.00000000 0.00000000
0.09881721 0.00000000 0.00000000
0.15727658 0.00000000 0.00000000
0.21427659 0.00000000 0.00000000
0.27013996 0.00000000 0.00000000
0.32507549 0.00000000 0.00000000
0.37922901 0.00000000 0.00000000
0.43270799 0.00000000 0.00000000
0.48326540 0.00000000 0.00000000
0.52735655 0.00000000 0.00000000
0.56611914 0.00000000 0.00000000
0.60049106 0.00000000 0.00000000
0.63119146 0.00000000 0.00000000
0.65878296 0.00000000 0.00000000
0.68371333 0.00000000 0.00000000
0.70758703 0.00000000 0.00000000
0.73160548 0.00000000 0.00000000
0.75554525 0.00000000 0.00000000
0.77918876 0.00000000 0.00000000
0.80232838 0.00000000 0.00000000
0.82476931 0.00000000 0.00000000
0.84633134 0.00000000 0.00000000
0.86684961 0.00000000 0.00000000
0.88617457 0.00000000 0.00000000
0.90417143 0.00000000 0.00000000
0.92071913 0.00000000 0.00000000
0.93570919 0.00000000 0.00000000
0.94904433 0.00000000 0.00000000
0.96063719 0.00000000 0.00000000
0.97040903 0.00000000 0.00000000
0.97828848 0.00000000 0.00000000
0.00000000 0.00739770 0.00000000
0.00678086 0.00639223 0.00000000
0.03998006 0.00337583 0.00000000
0.09494054 0.00000000 0.00000000
0.15446650 0.00000000 0.00000000
0.21208347 0.00000000 0.00000000
0.26834774 0.00000000 0.00000000
0.32356399 0.00000000 0.00000000
0.37792467 0.00000000 0.00000000
0.43156256 0.00000000 0.00000000
0.48235051 0.00000000 0.00000000
0.52662907 0.00000000 0.00000000
0.56553032 0.00000000 0.00000000
0.60000733 0.00000000 0.00000000
0.63078901 0.00000000 0.00000000
0.65844446 0.00000000 0.00000000
0.68342593 0.00000000 0.00000000
0.70734312 0.00000000 0.00000000
0.73140041 0.00000000 0.00000000
0.75537443 0.00000000 0.00000000
0.77904776 0.00000000 0.00000000
0.80221304 0.00000000 0.00000000
0.82467582 0.00000000 0.00000000
0.84625628 0.00000000 0.00000000
0.86678994 0.00000000 0.00000000
0.88612764 0.00000000 0.00000000
0.90413496 0.00000000 0.00000000
0.92069118 0.00000000 0.00000000
0.93568810 0.00000000 0.00000000
0.94902875 0.00000000 0.00000000
0.96062598 0.00000000 0.00000000
0.97040125 0.00000000 0.00000000
0.97828337 0.00000000 0.00000000
0.00000000 0.02959081 0.00000000
0.00000000 0.02858534 0.00000000
0.02712343 0.02556893 0.00000000
0.08269824 0.02054159 0.00000000
0.14579841 0.01350331 0.00000000
0.20538784 0.00445410 0.00000000
0.26290584 0.00000000 0.00000000
0.31898936 0.00000000 0.00000000
0.37398522 0.00000000 0.00000000
0.42810796 0.00000000 0.00000000
0.47958017 0.00000000 0.00000000
0.52442959 0.00000000 0.00000000
0.56375218 0.00000000 0.00000000
0.59854789 0.00000000 0.00000000
0.62957566 0.00000000 0.00000000
0.65742454 0.00000000 0.00000000
0.68256036 0.00000000 0.00000000
0.70660884 0.00000000 0.00000000
0.73078333 0.00000000 0.00000000
0.75486059 0.00000000 0.00000000
0.77862375 0.00000000 0.00000000
0.80186631 0.00000000 0.00000000
0.82439487 0.00000000 0.00000000
0.84603076 0.00000000 0.00000000
0.86661069 0.00000000 0.00000000
0.88598670 0.00000000 0.00000000
0.90402544 0.00000000 0.00000000
0.92060724 0.00000000 0.00000000
0.93562481 0.00000000 0.00000000
0.94898198 0.00000000 0.00000000
0.96059233 0.00000000 0.00000000
0.97037790 0.00000000 0.00000000
0.97826804 0.00000000 0.00000000
0.00000000 0.06657931 0.00000000
0.00000000 0.06557384 0.00000000
0.00569571 0.06255744 0.00000000
0.06102771 0.05753010 0.00000000
0.13045308 0.05049182 0.00000000
0.19380985 0.04144261 0.00000000
0.25360684 0.03038245 0.00000000
0.31122595 0.01731137 0.00000000
0.36732885 0.00222934 0.00000000
0.42228800 0.00000000 0.00000000
0.47487516 0.00000000 0.00000000
0.52070586 0.00000000 0.00000000
0.56074897 0.00000000 0.00000000
0.59608754 0.00000000 0.00000000
0.62753322 0.00000000 0.00000000
0.65570975 0.00000000 0.00000000
0.68110652 0.00000000 0.00000000
0.70537658 0.00000000 0.00000000
0.72974856 0.00000000 0.00000000
0.75399955 0.00000000 0.00000000
0.77791371 0.00000000 0.00000000
0.80128601 0.00000000 0.00000000
0.82392490 0.00000000 0.00000000
0.84565368 0.00000000 0.00000000
0.86631111 0.00000000 0.00000000
0.88575120 0.00000000 0.00000000
0.90384251 0.00000000 0.00000000
0.92046706 0.00000000 0.00000000
0.93551914 0.00000000 0.00000000
0.94890391 0.00000000 0.00000000
0.96053615 0.00000000 0.00000000
0.97033893 0.00000000 0.00000000
0.97824245 0.00000000 0.00000000
0.00000000 0.11479602 0.00000000
0.00000000 0.11397683 0.00000000
0.00000000 0.11149586 0.00000000
0.03102891 0.10727955 0.00000000
0.10658154 0.10119339 0.00000000
0.17659183 0.09301927 0.00000000
0.24006091 0.08241132 0.00000000
0.30004545 0.06909528 0.00000000
0.35780999 0.05401325 0.00000000
0.41400406 0.03692029 0.00000000
0.46809575 0.01781639 0.00000000
0.51536656 0.00000000 0.00000000
0.55645871 0.00000000 0.00000000
0.59258287 0.00000000 0.00000000
0.62463045 0.00000000 0.00000000
0.65327709 0.00000000 0.00000000
0.67904714 0.00000000 0.00000000
0.70363335 0.00000000 0.00000000
0.72828647 0.00000000 0.00000000
0.75278428 0.00000000 0.00000000
0.77691253 0.00000000 0.00000000
0.80046849 0.00000000 0.00000000
0.82326331 0.00000000 0.00000000
0.84512321 0.00000000 0.00000000
0.86588991 0.00000000 0.00000000
0.88542029 0.00000000 0.00000000
0.90358557 0.00000000 0.00000000
0.92027025 0.00000000 0.00000000
0.93537080 0.00000000 0.00000000
0.94879435 0.00000000 0.00000000
0.96045733 0.00000000 0.00000000
0.97028426 0.00000000 0.00000000
0.97820655 0.00000000 0.00000000
0.00000000 0.16234767 0.00000000
0.00000000 0.16170732 0.00000000
0.00000000 0.15977466 0.00000000
0.00000000 0.15651375 0.00000000
0.06992381 0.15186113 0.00000000
0.15230615 0.14571959 0.00000000
0.22160697 0.13794744 0.00000000
0.28508195 0.12834028 0.00000000
0.34520319 0.11659878 0.00000000
0.40310681 0.10226788 0.00000000
0.45902868 0.08460995 0.00000000
0.50827449 0.06328087 0.00000000
0.55078931 0.04015510 0.00000000
0.58796991 0.01501839 0.00000000
0.62082164 0.00000000 0.00000000
0.65009314 0.00000000 0.00000000
0.67635726 0.00000000 0.00000000
0.70136047 0.00000000 0.00000000
0.72638325 0.00000000 0.00000000
0.75120466 0.00000000 0.00000000
0.77561291 0.00000000 0.00000000
0.79940854 0.00000000 0.00000000
0.82240642 0.00000000 0.00000000
0.84443678 0.00000000 0.00000000
0.86534531 0.00000000 0.00000000
0.88499270 0.00000000 0.00000000
0.90325376 0.00000000 0.00000000
0.92001622 0.00000000 0.00000000
0.93517943 0.00000000 0.00000000
0.94865305 0.00000000 0.00000000
0.96035570 0.00000000 0.00000000
0.97021377 0.00000000 0.00000000
0.97816027 0.00000000 0.00000000
0.00000000 0.20895109 0.00000000
0.00000000 0.20842735 0.00000000
0.00000000 0.20684955 0.00000000
0.00000000 0.20419755 0.00000000
0.02278283 0.20043640 0.00000000
0.11803135 0.19551409 0.00000000
0.19711898 0.18935790 0.00000000
0.26576509 0.18186870 0.00000000
0.32917459 0.17291209 0.00000000
0.38938223 0.16230428 0.00000000
0.44736546 0.14978846 0.00000000
0.49923529 0.13499302 0.00000000
0.54361240 0.11735122 0.00000000
0.58216060 0.09592734 0.00000000
0.61604448 0.06924546 0.00000000
0.64611263 0.04008688 0.00000000
0.67300327 0.00891736 0.00000000
0.69853288 0.00000000 0.00000000
0.72402047 0.00000000 0.00000000
0.74924732 0.00000000 0.00000000
0.77400524 0.00000000 0.00000000
0.79809929 0.00000000 0.00000000
0.82134939 0.00000000 0.00000000
0.84359100 0.00000000 0.00000000
0.86467495 0.00000000 0.00000000
0.88446684 0.00000000 0.00000000
0.90284599 0.00000000 0.00000000
0.91970422 0.00000000 0.00000000
0.93494451 0.00000000 0.00000000
0.94847966 0.00000000 0.00000000
0.96023104 0.00000000 0.00000000
0.97012733 0.00000000 0.00000000
0.97810351 0.00000000 0.00000000
0.00000000 0.25478047 0.00000000
0.00000000 0.25433854 0.00000000
0.00000000 0.25300868 0.00000000
0.00000000 0.25077850 0.00000000
0.00000000 0.24762672 0.00000000
0.06666837 0.24352223 0.00000000
0.16453433 0.23842252 0.00000000
0.24118750 0.23227142 0.00000000
0.30923147 0.22499587 0.00000000
0.37252864 0.21650105 0.00000000
0.43278005 0.20666329 0.00000000
0.48798009 0.19531903 0.00000000
0.53475403 0.18224726 0.00000000
0.57503748 0.16713995 0.00000000
0.61021687 0.14954867 0.00000000
0.64127651 0.12877892 0.00000000
0.66894168 0.10365159 0.00000000
0.69511844 0.06993014 0.00000000
0.72117463 0.02805980 0.00000000
0.74689525 0.00000000 0.00000000
0.77207734 0.00000000 0.00000000
0.79653212 0.00000000 0.00000000
0.82008616 0.00000000 0.00000000
0.84258164 0.00000000 0.00000000
0.86387590 0.00000000 0.00000000
0.88384068 0.00000000 0.00000000
0.90236088 0.00000000 0.00000000
0.91933333 0.00000000 0.00000000
0.93466542 0.00000000 0.00000000
0.94827378 0.00000000 0.00000000
0.96008307 0.00000000 0.00000000
0.97002475 0.00000000 0.00000000
0.97803616 0.00000000 0.00000000
0.00000000 0.29995748 0.00000000
0.00000000 0.29957599 0.00000000
0.00000000 0.29842883 0.00000000
0.00000000 0.29650785 0.00000000
0.00000000 0.29379916 0.00000000
0.00238522 0.29028265 0.00000000
0.11941072 0.28593126 0.00000000
0.20981421 0.28070990 0.00000000
0.28462871 0.27457407 0.00000000
0.35211814 0.26746775 0.00000000
0.41527254 0.25932063 0.00000000
0.47413822 0.25004411 0.00000000
0.52398072 0.23952550 0.00000000
0.56644603 0.22761941 0.00000000
0.60323247 0.21413443 0.00000000
0.63550926 0.19881165 0.00000000
0.66411742 0.18128780 0.00000000
0.69107674 0.15975856 0.00000000
0.71781642 0.13084990 0.00000000
0.74412742 0.08920407 0.00000000
0.76981424 0.02977374 0.00000000
0.79469647 0.00000000 0.00000000
0.81860934 0.00000000 0.00000000
0.84140357 0.00000000 0.00000000
0.86294465 0.00000000 0.00000000
0.88311182 0.00000000 0.00000000
0.90179679 0.00000000 0.00000000
0.91890244 0.00000000 0.00000000
0.93434141 0.00000000 0.00000000
0.94803491 0.00000000 0.00000000
0.95991146 0.00000000 0.00000000
0.96990582 0.00000000 0.00000000
0.97795808 0.00000000 0.00000000
0.00000000 0.34457175 0.00000000
0.00000000 0.34423666 0.00000000
0.00000000 0.34322952 0.00000000
0.00000000 0.34154470 0.00000000
0.00000000 0.33917264 0.00000000
0.00000000 0.33609958 0.00000000
0.05126138 0.33230722 0.00000000
0.16872718 0.32777212 0.00000000
0.25417957 0.32246501 0.00000000
0.32752881 0.31634979 0.00000000
0.39450595 0.30938223 0.00000000
0.45719398 0.30150821 0.00000000
0.51097840 0.29266129 0.00000000
0.55618348 0.28275942 0.00000000
0.59495437 0.27170020 0.00000000
0.62871507 0.25935409 0.00000000
0.65846146 0.24555412 0.00000000
0.68635766 0.22912974 0.00000000
0.71390982 0.20815317 0.00000000
0.74091817 0.18062607 0.00000000
0.76719785 0.14275435 0.00000000
0.79257968 0.08501389 0.00000000
0.81691012 0.00057856 0.00000000
0.84005071 0.00000000 0.00000000
0.86187700 0.00000000 0.00000000
0.88227740 0.00000000 0.00000000
0.90115180 0.00000000 0.00000000
0.91841024 0.00000000 0.00000000
0.93397163 0.00000000 0.00000000
0.94776247 0.00000000 0.00000000
0.95971583 0.00000000 0.00000000
0.96977029 0.00000000 0.00000000
0.97786911 0.00000000 0.00000000
0.00000000 0.38869199 0.00000000
0.00000000 0.38839359 0.00000000
0.00000000 0.38749706 0.00000000
0.00000000 0.38599835 0.00000000
0.00000000 0.38389058 0.00000000
0.00000000 0.38116396 0.00000000
0.00000000 0.37780551 0.00000000
0.11096311 0.37379877 0.00000000
0.21581858 0.36912343 0.00000000
0.29781603 0.36375474 0.00000000
0.36995386 0.35766290 0.00000000
0.43645597 0.35081215 0.00000000
0.49531965 0.34315956 0.00000000
0.54398235 0.33465358 0.00000000
0.58520612 0.32523197 0.00000000
0.62077267 0.31481898 0.00000000
0.65188765 0.30332155 0.00000000
0.68089943 0.28985126 0.00000000
0.70941094 0.27302495 0.00000000
0.73723656 0.25168524 0.00000000
0.76420649 0.22399321 0.00000000
0.79016666 0.18666112 0.00000000
0.81497809 0.13241288 0.00000000
0.83851590 0.04082152 0.00000000
0.86066808 0.00000000 0.00000000
0.88133411 0.00000000 0.00000000
0.90042366 0.00000000 0.00000000
0.91785525 0.00000000 0.00000000
0.93355506 0.00000000 0.00000000
0.94745580 0.00000000 0.00000000
0.95949575 0.00000000 0.00000000
0.96961788 0.00000000 0.00000000
0.97776906 0.00000000 0.00000000
0.00000000 0.43237246 0.00000000
0.00000000 0.43210378 0.00000000
0.00000000 0.43129675 0.00000000
0.00000000 0.42994835 0.00000000
0.00000000 0.42805350 0.00000000
0.00000000 0.42560496 0.00000000
0.00000000 0.42259321 0.00000000
0.02370284 0.41900622 0.00000000
0.16535113 0.41482931 0.00000000
0.26144105 0.41004473 0.00000000
0.34084689 0.40463137 0.00000000
0.41195604 0.39856423 0.00000000
0.47641141 0.39181379 0.00000000
0.52948536 0.38434525 0.00000000
0.57375865 0.37611750 0.00000000
0.61152801 0.36708177 0.00000000
0.64428844 0.35717994 0.00000000
0.67462603 0.34568625 0.00000000
0.70426641 0.33150562 0.00000000
0.73304538 0.31383463 0.00000000
0.76081439 0.29150199 0.00000000
0.78743965 0.26267879 0.00000000
0.81280106 0.22418735 0.00000000
0.83679084 0.16937370 0.00000000
0.85931224 0.07670588 0.00000000
0.88027814 0.00000000 0.00000000
0.89960981 0.00000000 0.00000000
0.91723573 0.00000000 0.00000000
0.93309056 0.00000000 0.00000000
0.94711414 0.00000000 0.00000000
0.95925073 0.00000000 0.00000000
0.96944826 0.00000000 0.00000000
0.97765773 0.00000000 0.00000000
0.00000000 0.47425179 0.00000000
0.00000000 0.47402755 0.00000000
0.00000000 0.47335333 0.00000000
0.00000000 0.47222453 0.00000000
0.00000000 0.47063342 0.00000000
0.00000000 0.46856893 0.00000000
0.00000000 0.46601644 0.00000000
0.00000000 0.46295747 0.00000000
0.09106517 0.45936924 0.00000000
0.21559810 0.45522414 0.00000000
0.30599481 0.45048906 0.00000000
0.38335980 0.44512450 0.00000000
0.45340730 0.43909488 0.00000000
0.51220654 0.43243202 0.00000000
0.56031094 0.42511952 0.00000000
0.60078388 0.41712387 0.00000000
0.63552889 0.40840590 0.00000000
0.66744367 0.39834751 0.00000000
0.69841140 0.38603434 0.00000000
0.72830003 0.37085242 0.00000000
0.75699098 0.35195045 0.00000000
0.78437781 0.32809261 0.00000000
0.81036486 0.29736138 0.00000000
0.83486593 0.25645903 0.00000000
0.85780301 0.19861126 0.00000000
0.87910513 0.10320570 0.00000000
0.89870733 0.00000000 0.00000000
0.91654977 0.00000000 0.00000000
0.93257686 0.00000000 0.00000000
0.94673666 0.00000000 0.00000000
0.95898021 0.00000000 0.00000000
0.96926108 0.00000000 0.00000000
0.97753489 0.00000000 0.00000000
0.00000000 0.51167510 0.00000000
0.00000000 0.51148997 0.00000000
0.00000000 0.51093352 0.00000000
0.00000000 0.51000250 0.00000000
0.00000000 0.50869143 0.00000000
0.00000000 0.50699250 0.00000000
0.00000000 0.50489546 0.00000000
0.00000000 0.50238737 0.00000000
0.00000000 0.49945242 0.00000000
0.15403344 0.49607157 0.00000000
0.26339025 0.49222219 0.00000000
0.34971973 0.48787755 0.00000000
0.42542030 0.48300625 0.00000000
0.49146781 0.47757142 0.00000000
0.54446055 0.47152980 0.00000000
0.58828477 0.46483055 0.00000000
0.62543831 0.45741374 0.00000000
0.65923604 0.44870897 0.00000000
0.69176690 0.43785738 0.00000000
0.72294697 0.42450014 0.00000000
0.75270007 0.40802792 0.00000000
0.78095671 0.38751442 0.00000000
0.80765305 0.36161326 0.00000000
0.83273012 0.32823174 0.00000000
0.85613299 0.28376061 0.00000000
0.87781014 0.22074615 0.00000000
0.89771295 0.11617893 0.00000000
0.91579516 0.00000000 0.00000000
0.93201251 0.00000000 0.00000000
0.94632240 0.00000000 0.00000000
0.95868357 0.00000000 0.00000000
0.96905593 0.00000000 0.00000000
0.97740029 0.00000000 0.00000000
0.00000000 0.54526117 0.00000000
0.00000000 0.54510639 0.00000000
0.00000000 0.54464128 0.00000000
0.00000000 0.54386346 0.00000000
0.00000000 0.54276897 0.00000000
0.00000000 0.54135217 0.00000000
0.00000000 0.53960564 0.00000000
0.00000000 0.53752011 0.00000000
0.00000000 0.53508425 0.00000000
0.05641188 0.53228455 0.00000000
0.20913639 0.52910502 0.00000000
0.30952994 0.52552693 0.00000000
0.39277245 0.52152849 0.00000000
0.46629100 0.51708435 0.00000000
0.52565693 0.51216512 0.00000000
0.57369422 0.50673668 0.00000000
0.61379832 0.50075939 0.00000000
0.64985779 0.49378842 0.00000000
0.68423613 0.48514813 0.00000000
0.71692174 0.47433820 0.00000000
0.74789873 0.46064970 0.00000000
0.77714775 0.44303839 0.00000000
0.80464660 0.42050833 0.00000000
0.83037076 0.39200991 0.00000000
0.85429376 0.35518254 0.00000000
0.87638760 0.30589542 0.00000000
0.89662297 0.23538980 0.00000000
0.91496948 0.11450825 0.00000000
0.93139591 0.00000000 0.00000000
0.94587031 0.00000000 0.00000000
0.95836014 0.00000000 0.00000000
0.96883238 0.00000000 0.00000000
0.97725363 0.00000000 0.00000000
0.00000000 0.57559148 0.00000000
0.00000000 0.57546066 0.00000000
0.00000000 0.57506760 0.00000000
0.00000000 0.57441058 0.00000000
0.00000000 0.57348662 0.00000000
0.00000000 0.57229157 0.00000000
0.00000000 0.57081996 0.00000000
0.00000000 0.56906495 0.00000000
0.00000000 0.56701826 0.00000000
0.00000000 0.56467002 0.00000000
0.13333870 0.56200865 0.00000000
0.26013287 0.55902065 0.00000000
0.35446366 0.55569041 0.00000000
0.43526191 0.55199994 0.00000000
0.50312441 0.54792855 0.00000000
0.55655996 0.54345247 0.00000000
0.60032523 0.53854440 0.00000000
0.63912522 0.53284793 0.00000000
0.67569963 0.52582907 0.00000000
0.71014635 0.51711383 0.00000000
0.74253588 0.50618538 0.00000000
0.77291741 0.49230625 0.00000000
0.80132346 0.47438070 0.00000000
0.82777332 0.45069258 0.00000000
0.85227578 0.41906489 0.00000000
0.87483122 0.37787104 0.00000000
0.89543324 0.32228013 0.00000000
0.91407001 0.24131686 0.00000000
0.93072529 0.09207524 0.00000000
0.94537924 0.00000000 0.00000000
0.95800915 0.00000000 0.00000000
0.96858994 0.00000000 0.00000000
0.97709461 0.00000000 0.00000000
0.00000000 0.60312950 0.00000000
0.00000000 0.60301787 0.00000000
0.00000000 0.60268254 0.00000000
0.00000000 0.60212220 0.00000000
0.00000000 0.60133461 0.00000000
0.00000000 0.60031662 0.00000000
0.00000000 0.59906414 0.00000000
0.00000000 0.59757202 0.00000000
0.00000000 0.59583407 0.00000000
0.00000000 0.59384294 0.00000000
0.00954086 0.59159003 0.00000000
0.19592847 0.58906538 0.00000000
0.30856882 0.58625753 0.00000000
0.39846645 0.58315335 0.00000000
0.47572771 0.57973787 0.00000000
0.53625777 0.57599401 0.00000000
0.58464360 0.57190231 0.00000000
0.62680304 0.56717126 0.00000000
0.66600851 0.56136866 0.00000000
0.70252584 0.55420534 0.00000000
0.73655054 0.54528932 0.00000000
0.76822632 0.53407475 0.00000000
0.79765808 0.51977547 0.00000000
0.82492119 0.50120942 0.00000000
0.85006820 0.47649621 0.00000000
0.87313390 0.44240611 0.00000000
0.89413915 0.39572059 0.00000000
0.91309374 0.33191215 0.00000000
0.92999868 0.23620285 0.00000000
0.94484792 0.03531872 0.00000000
0.95762980 0.00000000 0.00000000
0.96832808 0.00000000 0.00000000
0.97692289 0.00000000 0.00000000
0.00000000 0.62963328 0.00000000
0.00000000 0.62953804 0.00000000
0.00000000 0.62925199 0.00000000
0.00000000 0.62877413 0.00000000
0.00000000 0.62810278 0.00000000
0.00000000 0.62723556 0.00000000
0.00000000 0.62616936 0.00000000
0.00000000 0.62490033 0.00000000
0.00000000 0.62342383 0.00000000
0.00000000 0.62173435 0.00000000
0.00000000 0.61982548 0.00000000
0.09195893 0.61768985 0.00000000
0.24772294 0.61531899 0.00000000
0.35249972 0.61270327 0.00000000
0.43951159 0.60983177 0.00000000
0.51034187 0.60669210 0.00000000
0.56508585 0.60327029 0.00000000
0.61169800 0.59932633 0.00000000
0.65429226 0.59450766 0.00000000
0.69341586 0.58858753 0.00000000
0.72946070 0.58126357 0.00000000
0.76271130 0.57212315 0.00000000
0.79337567 0.56058687 0.00000000
0.82160605 0.54581159 0.00000000
0.84751317 0.52651264 0.00000000
0.87117640 0.50061060 0.00000000
0.89265106 0.46444684 0.00000000
0.91197382 0.41197199 0.00000000
0.92916678 0.33818476 0.00000000
0.94424056 0.22295873 0.00000000
0.95719666 0.00000000 0.00000000
0.96802934 0.00000000 0.00000000
0.97672703 0.00000000 0.00000000
0.00000000 0.65644590 0.00000000
0.00000000 0.65636536 0.00000000
0.00000000 0.65612346 0.00000000
0.00000000 0.65571948 0.00000000
0.00000000 0.65515214 0.00000000
0.00000000 0.65441968 0.00000000
0.00000000 0.65351979 0.00000000
0.00000000 0.65244961 0.00000000
0.00000000 0.65120568 0.00000000
0.00000000 0.64978396 0.00000000
0.00000000 0.64817972 0.00000000
0.00000000 0.64638755 0.00000000
0.15139077 0.64440128 0.00000000
0.28891057 0.64221391 0.00000000
0.38982806 0.63981755 0.00000000
0.47408716 0.63720331 0.00000000
0.53862516 0.63436123 0.00000000
0.59174115 0.63109469 0.00000000
0.63909592 0.62711721 0.00000000
0.68177116 0.62225113 0.00000000
0.72050352 0.61626293 0.00000000
0.75580924 0.60883955 0.00000000
0.78805728 0.59955108 0.00000000
0.81751478 0.58778905 0.00000000
0.84437626 0.57265932 0.00000000
0.86878333 0.55278239 0.00000000
0.89083822 0.52588795 0.00000000
0.91061342 0.48788804 0.00000000
0.92815861 0.43053782 0.00000000
0.94350587 0.34551445 0.00000000
0.95667346 0.20626089 0.00000000
0.96766880 0.00000000 0.00000000
0.97649074 0.00000000 0.00000000
0.00000000 0.68333920 0.00000000
0.00000000 0.68327165 0.00000000
0.00000000 0.68306881 0.00000000
0.00000000 0.68273014 0.00000000
0.00000000 0.68225470 0.00000000
0.00000000 0.68164119 0.00000000
0.00000000 0.68088791 0.00000000
0.00000000 0.67999276 0.00000000
0.00000000 0.67895322 0.00000000
0.00000000 0.67776633 0.00000000
0.00000000 0.67642864 0.00000000
0.00000000 0.67493624 0.00000000
0.00000000 0.67328466 0.00000000
0.19056993 0.67146887 0.00000000
0.32111644 0.66948321 0.00000000
0.42069489 0.66732138 0.00000000
0.50124619 0.66497631 0.00000000
0.56452636 0.66228772 0.00000000
0.61890860 0.65902372 0.00000000
0.66660822 0.65504518 0.00000000
0.70902047 0.65017157 0.00000000
0.74706933 0.64416461 0.00000000
0.78138899 0.63670327 0.00000000
0.81242589 0.62734399 0.00000000
0.84049971 0.61545443 0.00000000
0.86584165 0.60009668 0.00000000
0.88861944 0.57980664 0.00000000
0.90895426 0.55213674 0.00000000
0.92693256 0.51258170 0.00000000
0.94261441 0.45154114 0.00000000
0.95603969 0.35405541 0.00000000
0.96723257 0.18478924 0.00000000
0.97620497 0.00000000 0.00000000
0.00000000 0.71009020 0.00000000
0.00000000 0.71003401 0.00000000
0.00000000 0.70986530 0.00000000
0.00000000 0.70958369 0.00000000
0.00000000 0.70918848 0.00000000
0.00000000 0.70867873 0.00000000
0.00000000 0.70805320 0.00000000
0.00000000 0.70731037 0.00000000
0.00000000 0.70644842 0.00000000
0.00000000 0.70546519 0.00000000
0.00000000 0.70435821 0.00000000
0.00000000 0.70312467 0.00000000
0.00000000 0.70176136 0.00000000
0.00000000 0.70026471 0.00000000
0.21493257 0.69863070 0.00000000
0.34445875 0.69685487 0.00000000
0.44469304 0.69493225 0.00000000
0.52562861 0.69273280 0.00000000
0.59116831 0.69006957 0.00000000
0.64635887 0.68683369 0.00000000
0.69401084 0.68288545 0.00000000
0.73583233 0.67804297 0.00000000
0.77292568 0.67206525 0.00000000
0.80603318 0.66462607 0.00000000
0.83566996 0.65527214 0.00000000
0.86220098 0.64335277 0.00000000
0.88588822 0.62789448 0.00000000
0.90692083 0.60736082 0.00000000
0.92543519 0.57914534 0.00000000
0.94152871 0.53834956 0.00000000
0.95526945 0.47418958 0.00000000
0.96670314 0.36397716 0.00000000
0.97585833 0.15629358 0.00000000
0.00000000 0.73648551 0.00000000
0.00000000 0.73643914 0.00000000
0.00000000 0.73629995 0.00000000
0.00000000 0.73606763 0.00000000
0.00000000 0.73574170 0.00000000
0.00000000 0.73532148 0.00000000
0.00000000 0.73480608 0.00000000
0.00000000 0.73419440 0.00000000
0.00000000 0.73348514 0.00000000
0.00000000 0.73267674 0.00000000
0.00000000 0.73176746 0.00000000
0.00000000 0.73075528 0.00000000
0.00000000 0.72963794 0.00000000
0.00000000 0.72841289 0.00000000
0.00000000 0.72707732 0.00000000
0.22464703 0.72562809 0.00000000
0.35806763 0.72406173 0.00000000
0.46563519 0.72227325 0.00000000
0.55106428 0.72011254 0.00000000
0.61832725 0.71749448 0.00000000
0.67386366 0.71431091 0.00000000
0.72108923 0.71042269 0.00000000
0.76201275 0.70564808 0.00000000
0.79790053 0.69974538 0.00000000
0.82959060 0.69238597 0.00000000
0.85765699 0.68311080 0.00000000
0.88250240 0.67125658 0.00000000
0.90441374 0.65582301 0.00000000
0.92359707 0.63521500 0.00000000
0.94020048 0.60668941 0.00000000
0.95432957 0.56498958 0.00000000
