sample/src/main/assets/lut/LinearTransformation/BT2020_HLG_BT601_PAL.cube
TITLE "BT2020_HLG_BT601_PAL"
LUT_3D_SIZE 9
# BT2020 HLG HDR to BT601 PAL SDR by Francesco Bucciantini
0.00000000 0.00000000 0.00000000
0.15727658 0.00000000 0.00000000
0.37922901 0.00000000 0.00000000
0.56611914 0.00000000 0.00000000
0.68371333 0.00000000 0.00000000
0.77918876 0.00000000 0.00000000
0.86684961 0.00000000 0.00000000
0.93570919 0.00000000 0.00000000
0.97828848 0.00000000 0.00000000
0.00000000 0.11479602 0.00000000
0.10658154 0.10119339 0.00000000
0.35780999 0.05401325 0.00000000
0.55645871 0.00000000 0.00000000
0.67904714 0.00000000 0.00000000
0.77691253 0.00000000 0.00000000
0.86588991 0.00000000 0.00000000
0.93537080 0.00000000 0.00000000
0.97820655 0.00000000 0.00000000
0.00000000 0.29995748 0.00000000
0.00000000 0.29379916 0.00000000
0.28462871 0.27457407 0.00000000
0.52398072 0.23952550 0.00000000
0.66411742 0.18128780 0.00000000
0.76981424 0.02977374 0.00000000
0.86294465 0.00000000 0.00000000
0.93434141 0.00000000 0.00000000
0.97795808 0.00000000 0.00000000
0.00000000 0.47425179 0.00000000
0.00000000 0.47063342 0.00000000
0.09106517 0.45936924 0.00000000
0.45340730 0.43909488 0.00000000
0.63552889 0.40840590 0.00000000
0.75699098 0.35195045 0.00000000
0.85780301 0.19861126 0.00000000
0.93257686 0.00000000 0.00000000
0.97753489 0.00000000 0.00000000
0.00000000 0.60312950 0.00000000
0.00000000 0.60133461 0.00000000
0.00000000 0.59583407 0.00000000
0.30856882 0.58625753 0.00000000
0.58464360 0.57190231 0.00000000
0.73655054 0.54528932 0.00000000
0.85006820 0.47649621 0.00000000
0.92999868 0.23620285 0.00000000
0.97692289 0.00000000 0.00000000
0.00000000 0.71009020 0.00000000
0.00000000 0.70918848 0.00000000
0.00000000 0.70644842 0.00000000
0.00000000 0.70176136 0.00000000
0.44469304 0.69493225 0.00000000
0.69401084 0.68288545 0.00000000
0.83566996 0.65527214 0.00000000
0.92543519 0.57914534 0.00000000
0.97585833 0.15629358 0.00000000
0.00000000 0.81160458 0.00000000
0.00000000 0.81120630 0.00000000
0.00000000 0.81000254 0.00000000
0.00000000 0.80796608 0.00000000
0.00000000 0.80504963 0.00000000
0.53659748 0.80004945 0.00000000
0.79843423 0.78926342 0.00000000
0.91494668 0.76400272 0.00000000
0.97350402 0.69024555 0.00000000
0.00000000 0.89633131 0.00000000
0.00000000 0.89617779 0.00000000
0.00000000 0.89571525 0.00000000
0.00000000 0.89493760 0.00000000
0.00000000 0.89383453 0.00000000
0.00000000 0.89197210 0.00000000
0.64357946 0.88807602 0.00000000
0.88649957 0.87957341 0.00000000
0.96776067 0.85916074 0.00000000
0.00000000 0.95650897 0.00000000
0.00000000 0.95646117 0.00000000
0.00000000 0.95631739 0.00000000
0.00000000 0.95607642 0.00000000
0.00000000 0.95573620 0.00000000
0.00000000 0.95516603 0.00000000
0.00000000 0.95399040 0.00000000
0.75190743 0.95150377 0.00000000
0.95038697 0.94595639 0.00000000
0.00000000 0.00000000 0.10856732
0.15146193 0.00000000 0.10722788
0.37654472 0.00000000 0.10314427
0.56490742 0.00000000 0.09610467
0.68312230 0.00000000 0.08569318
0.77889891 0.00000000 0.06717481
0.86672699 0.00000000 0.03029778
0.93566587 0.00000000 0.00000000
0.97827798 0.00000000 0.00000000
0.00000000 0.11268135 0.10030771
0.09889959 0.09889959 0.09889959
0.35497003 0.05142732 0.09459986
0.55518010 0.00000000 0.08716209
0.67843737 0.00000000 0.07594278
0.77661711 0.00000000 0.05761145
0.86576591 0.00000000 0.02073442
0.93532719 0.00000000 0.00000000
0.97819599 0.00000000 0.00000000
0.00000000 0.29897543 0.07258284
0.00000000 0.29279821 0.07099970
0.28110682 0.27350961 0.06625030
0.52245600 0.23832432 0.05833462
0.66344480 0.17977317 0.04725268
0.76950101 0.02718781 0.02892135
0.86281633 0.00000000 0.00000000
0.93429687 0.00000000 0.00000000
0.97794735 0.00000000 0.00000000
0.00000000 0.47367457 0.02476601
0.00000000 0.47004563 0.02318287
0.08257126 0.45874757 0.01843347
0.45121929 0.43841409 0.01051779
0.63472287 0.40767438 0.00000000
0.75664379 0.35110526 0.00000000
0.85766695 0.19720425 0.00000000
0.93253072 0.00000000 0.00000000
0.97752388 0.00000000 0.00000000
0.00000000 0.60284225 0.00000000
0.00000000 0.60104432 0.00000000
0.00000000 0.59553431 0.00000000
0.30530043 0.58594072 0.00000000
0.58355259 0.57155858 0.00000000
0.73614420 0.54489105 0.00000000
0.84992002 0.47592548 0.00000000
0.92995017 0.23498704 0.00000000
0.97691145 0.00000000 0.00000000
0.00000000 0.70994564 0.00000000
0.00000000 0.70904300 0.00000000
0.00000000 0.70630010 0.00000000
0.00000000 0.70160811 0.00000000
0.44240930 0.69477160 0.00000000
0.69345969 0.68271113 0.00000000
0.83549759 0.65506334 0.00000000
0.92538237 0.57881541 0.00000000
0.97584615 0.15459447 0.00000000
0.00000000 0.81154066 0.00000000
0.00000000 0.81114214 0.00000000
0.00000000 0.80993766 0.00000000
0.00000000 0.80789997 0.00000000
0.00000000 0.80498174 0.00000000
0.53517239 0.79997843 0.00000000
0.79818876 0.78918535 0.00000000
0.91488337 0.76390637 0.00000000
0.97349021 0.69007968 0.00000000
0.00000000 0.89630666 0.00000000
0.00000000 0.89615309 0.00000000
0.00000000 0.89569038 0.00000000
0.00000000 0.89491246 0.00000000
0.00000000 0.89380900 0.00000000
0.00000000 0.89194590 0.00000000
0.64281281 0.88804841 0.00000000
0.88640356 0.87954259 0.00000000
0.96774282 0.85912141 0.00000000
0.00000000 0.95650129 0.00000000
0.00000000 0.95645349 0.00000000
0.00000000 0.95630967 0.00000000
0.00000000 0.95606864 0.00000000
0.00000000 0.95572835 0.00000000
0.00000000 0.95515805 0.00000000
0.00000000 0.95398215 0.00000000
0.75154612 0.95149495 0.00000000
0.95035604 0.94594625 0.00000000
0.00000000 0.00000000 0.28833431
0.13293742 0.00000000 0.28771129
0.36837848 0.00000000 0.28583483
0.56122241 0.00000000 0.28268230
0.68133504 0.00000000 0.27821454
0.77802513 0.00000000 0.27067873
0.86635808 0.00000000 0.25492068
0.93553569 0.00000000 0.22030072
0.97824645 0.00000000 0.13111606
0.00000000 0.10617670 0.28455193
0.07327808 0.09181482 0.28392138
0.34631690 0.04366953 0.28202207
0.55128942 0.00000000 0.27883059
0.67659310 0.00000000 0.27430635
0.77572649 0.00000000 0.26667177
0.86539281 0.00000000 0.25069172
0.93519610 0.00000000 0.21549562
0.97816430 0.00000000 0.12387210
0.00000000 0.29601136 0.27292133
0.00000000 0.28977643 0.27226655
0.27029369 0.27029369 0.27029369
0.51780673 0.23468900 0.26697665
0.66140921 0.17516772 0.26227011
0.76855650 0.01943002 0.25431582
0.86243022 0.00000000 0.23761288
0.93416301 0.00000000 0.20051080
0.97791513 0.00000000 0.10018094
0.00000000 0.47193283 0.25248209
0.00000000 0.46827185 0.25178037
0.05591571 0.45687100 0.24966486
0.44451102 0.43636539 0.24610371
0.63228052 0.40547204 0.24104131
0.75559647 0.34855799 0.23245887
0.85725752 0.19293338 0.21431550
0.93239205 0.00000000 0.17326552
0.97749077 0.00000000 0.05331302
0.00000000 0.60197761 0.22115061
0.00000000 0.60017050 0.22036385
0.00000000 0.59463190 0.21798922
0.29529575 0.58498683 0.21398246
0.58023820 0.57052337 0.20826535
0.73491771 0.54369104 0.19851187
0.84947404 0.47420338 0.17760361
0.92980436 0.23130673 0.12828972
0.97687707 0.00000000 0.00000000
0.00000000 0.70951108 0.15892021
0.00000000 0.70860566 0.15789462
0.00000000 0.70585423 0.15478738
0.00000000 0.70114738 0.14950271
0.43545906 0.69428858 0.14186475
0.69179369 0.68218693 0.12853604
0.83497869 0.65443527 0.09833359
0.92522359 0.57782186 0.02487203
0.97580955 0.14941163 0.00000000
0.00000000 0.81134867 0.00000000
0.00000000 0.81094943 0.00000000
0.00000000 0.80974280 0.00000000
0.00000000 0.80770141 0.00000000
0.00000000 0.80477782 0.00000000
0.53083055 0.79976510 0.00000000
0.79744910 0.78895081 0.00000000
0.91469306 0.76361687 0.00000000
0.97344870 0.68958092 0.00000000
0.00000000 0.89623264 0.00000000
0.00000000 0.89607891 0.00000000
0.00000000 0.89561572 0.00000000
0.00000000 0.89483698 0.00000000
0.00000000 0.89373235 0.00000000
0.00000000 0.89186727 0.00000000
0.64049063 0.88796553 0.00000000
0.88611478 0.87945003 0.00000000
0.96768917 0.85900329 0.00000000
0.00000000 0.95647825 0.00000000
0.00000000 0.95643041 0.00000000
0.00000000 0.95628650 0.00000000
0.00000000 0.95604531 0.00000000
0.00000000 0.95570478 0.00000000
0.00000000 0.95513409 0.00000000
0.00000000 0.95395740 0.00000000
0.75045604 0.95146847 0.00000000
0.95026310 0.94591582 0.00000000
0.00000000 0.00000000 0.45855331
0.09722710 0.00000000 0.45817140
0.35436642 0.00000000 0.45702133
0.55490844 0.00000000 0.45508995
0.67830805 0.00000000 0.45235479
0.77655452 0.00000000 0.44774825
0.86573965 0.00000000 0.43817494
0.93531796 0.00000000 0.41816458
0.97819376 0.00000000 0.37474129
0.00000000 0.09473695 0.45623525
0.02925854 0.07900236 0.45584894
0.33141974 0.03073988 0.45468560
0.54461506 0.00000000 0.45273177
0.67346842 0.00000000 0.44996455
0.77422735 0.00000000 0.44530320
0.86476735 0.00000000 0.43564666
0.93497685 0.00000000 0.41551555
0.97811132 0.00000000 0.37179054
0.00000000 0.29100991 0.44911808
0.00000000 0.28467533 0.44871803
0.25135753 0.26485641 0.44751315
0.50979621 0.22852018 0.44548912
0.65795614 0.16727450 0.44262151
0.76696602 0.00650037 0.43781195
0.86178287 0.00000000 0.42797264
0.93393911 0.00000000 0.40746658
0.97786129 0.00000000 0.36279957
0.00000000 0.46899577 0.43671428
0.00000000 0.46528024 0.43629535
0.01189618 0.45370429 0.43503617
0.43292943 0.43292943 0.43292943
0.62812686 0.40177512 0.42996274
0.75383158 0.34427271 0.42501022
0.85657094 0.18564043 0.41486994
0.93216010 0.00000000 0.39369274
0.97743545 0.00000000 0.34731977
0.00000000 0.60052674 0.41863649
0.00000000 0.59870414 0.41819960
0.00000000 0.59311730 0.41688621
0.27789449 0.58338536 0.41468810
0.57457162 0.56878454 0.41159130
0.73284828 0.54167350 0.40641768
0.84872594 0.47129975 0.39580891
0.92956044 0.22505896 0.37357897
0.97681961 0.00000000 0.32447576
0.00000000 0.70878384 0.38691018
0.00000000 0.70787375 0.38643814
0.00000000 0.70510800 0.38501863
0.00000000 0.70037619 0.38264142
0.42362297 0.69347997 0.37928904
0.68897432 0.68130917 0.37367971
0.83410772 0.65338286 0.36214176
0.92495793 0.57615343 0.33779281
0.97574839 0.14046697 0.28296975
0.00000000 0.81102792 0.31390089
0.00000000 0.81062749 0.31332477
0.00000000 0.80941724 0.31159046
0.00000000 0.80736968 0.30867989
0.00000000 0.80443712 0.30456190
0.52336283 0.79940866 0.29763500
0.79620547 0.78855885 0.28323255
0.91437454 0.76313288 0.25204466
0.97337933 0.68874590 0.17597008
0.00000000 0.89610911 0.06287452
0.00000000 0.89595512 0.06129138
0.00000000 0.89549111 0.05654198
0.00000000 0.89471101 0.04862631
0.00000000 0.89360443 0.03754436
0.00000000 0.89173602 0.01921303
0.63654426 0.88782719 0.00000000
0.88563102 0.87929554 0.00000000
0.96759951 0.85880609 0.00000000
0.00000000 0.95643981 0.00000000
0.00000000 0.95639192 0.00000000
0.00000000 0.95624784 0.00000000
0.00000000 0.95600638 0.00000000
0.00000000 0.95566547 0.00000000
0.00000000 0.95509414 0.00000000
0.00000000 0.95391610 0.00000000
0.74861853 0.95142430 0.00000000
0.95010770 0.94586506 0.00000000
0.00000000 0.00000000 0.58921357
0.03619989 0.00000000 0.58902295
0.33381053 0.00000000 0.58844984
0.54568378 0.00000000 0.58749044
0.67396544 0.00000000 0.58613833
0.77446499 0.00000000 0.58387847
0.86486628 0.00000000 0.57924202
0.93501149 0.00000000 0.56952879
0.97811968 0.00000000 0.54823280
0.00000000 0.07698835 0.58805889
0.00000000 0.06090086 0.58786701
0.30943803 0.01263838 0.58729007
0.53484527 0.00000000 0.58632423
0.66898308 0.00000000 0.58496302
0.77209688 0.00000000 0.58268781
0.86388398 0.00000000 0.57801941
0.93466823 0.00000000 0.56823710
0.97803684 0.00000000 0.54677915
0.00000000 0.28387326 0.58454821
0.00000000 0.27739133 0.58435241
0.22252696 0.25707305 0.58376372
0.49798862 0.21963735 0.58277813
0.65298997 0.15571786 0.58138894
0.76470439 0.00000000 0.57906658
0.86086843 0.00000000 0.57429993
0.93362394 0.00000000 0.56430509
0.97778559 0.00000000 0.54234793
0.00000000 0.46481021 0.57853586
0.00000000 0.46101582 0.57833324
0.00000000 0.44918646 0.57772398
0.41616563 0.42807301 0.57670385
0.62212928 0.39654268 0.57526570
0.75131908 0.33818684 0.57286083
0.85560081 0.17502904 0.56792211
0.93183357 0.00000000 0.55755438
0.97735768 0.00000000 0.53471797
0.00000000 0.59847460 0.56975876
0.00000000 0.59662993 0.56954586
0.00000000 0.59097430 0.56890560
0.25173962 0.58111840 0.56783337
0.56632138 0.56632138 0.56632138
0.72989656 0.53881143 0.56379193
0.84766839 0.46716249 0.55859312
0.92921704 0.21605637 0.54766025
0.97673884 0.00000000 0.52348299
0.00000000 0.70775940 0.55422184
0.00000000 0.70684270 0.55398974
0.00000000 0.70405669 0.55329165
0.00000000 0.69928956 0.55212219
0.40647991 0.69234037 0.55047226
0.68493453 0.68007159 0.54770988
0.83287536 0.65189758 0.54202365
0.92458384 0.57379085 0.53002678
0.97566241 0.12721126 0.50329795
0.00000000 0.81057725 0.51830403
0.00000000 0.81017515 0.51802243
0.00000000 0.80895981 0.51717514
0.00000000 0.80690355 0.51575453
0.00000000 0.80395835 0.51374773
0.51238626 0.79890773 0.51038115
0.79444115 0.78800787 0.50342428
0.91392582 0.76245212 0.48862344
0.97328180 0.68756888 0.45499802
0.00000000 0.89593581 0.41703805
0.00000000 0.89578144 0.41659950
0.00000000 0.89531630 0.41528111
0.00000000 0.89453428 0.41307458
0.00000000 0.89342497 0.40996576
0.00000000 0.89155189 0.40477171
0.63085265 0.88763309 0.39411954
0.88494857 0.87907874 0.37179158
0.96747345 0.85852927 0.32243057
0.00000000 0.95638592 0.00000000
0.00000000 0.95633795 0.00000000
0.00000000 0.95619365 0.00000000
0.00000000 0.95595181 0.00000000
0.00000000 0.95561036 0.00000000
0.00000000 0.95503812 0.00000000
0.00000000 0.95385820 0.00000000
0.74600143 0.95136238 0.00000000
0.94988910 0.94579388 0.00000000
0.00000000 0.00000000 0.69799286
0.00000000 0.00000000 0.69789658
0.29690686 0.00000000 0.69760734
0.52933230 0.00000000 0.69712400
0.66649811 0.00000000 0.69644461
0.77092741 0.00000000 0.69531376
0.86340181 0.00000000 0.69301194
0.93450030 0.00000000 0.68826896
0.97799635 0.00000000 0.67824164
0.00000000 0.04704552 0.69741026
0.00000000 0.03095803 0.69731359
0.26950817 0.00000000 0.69702319
0.51747097 0.00000000 0.69653789
0.66126310 0.00000000 0.69585575
0.76848891 0.00000000 0.69472030
0.86240263 0.00000000 0.69240905
0.93415346 0.00000000 0.68764628
0.97791284 0.00000000 0.67757559
0.00000000 0.27169736 0.69564829
0.00000000 0.26494897 0.69555044
0.16627214 0.24372071 0.69525650
0.47673567 0.20423982 0.69476527
0.64441569 0.13505104 0.69407475
0.76087061 0.00000000 0.69292532
0.85933458 0.00000000 0.69058534
0.93309819 0.00000000 0.68576235
0.97765956 0.00000000 0.67555961
0.00000000 0.45768977 0.69266351
0.00000000 0.45375813 0.69256364
0.00000000 0.44148742 0.69226362
0.38686902 0.41991741 0.69176221
0.61170606 0.38773597 0.69105736
0.74705233 0.32788604 0.68988394
0.85397274 0.15627958 0.68749471
0.93128882 0.00000000 0.68256840
0.97722820 0.00000000 0.67213885
0.00000000 0.59502519 0.68838002
0.00000000 0.59314296 0.68827720
0.00000000 0.58737023 0.68796831
0.20227575 0.57730307 0.68745204
0.55178275 0.56217110 0.68672623
0.72486834 0.53397797 0.68551776
0.84589230 0.46012607 0.68305653
0.92864405 0.20043228 0.67797903
0.97660437 0.00000000 0.66721701
0.00000000 0.70604843 0.68101045
0.00000000 0.70512062 0.68090241
0.00000000 0.70230054 0.68057780
0.00000000 0.69747399 0.68003523
0.37644778 0.69043562 0.67927232
0.67800178 0.67800178 0.67800178
0.83080271 0.64940957 0.67541293
0.92395946 0.56981238 0.67006713
0.97551926 0.10291363 0.65871336
0.00000000 0.80982764 0.66499394
0.00000000 0.80942274 0.66487389
0.00000000 0.80819889 0.66451317
0.00000000 0.80612812 0.66391009
0.00000000 0.80316182 0.66306181
0.49272557 0.79807417 0.66164832
0.79146143 0.78709070 0.65876525
0.91317632 0.76131783 0.65279902
0.97311942 0.68560111 0.64006847
0.00000000 0.89564822 0.62673257
0.00000000 0.89549322 0.62657991
0.00000000 0.89502619 0.62612109
0.00000000 0.89424099 0.62535352
0.00000000 0.89312712 0.62427289
0.00000000 0.89124627 0.62246967
0.62098024 0.88731090 0.61878156
0.88380617 0.87871882 0.61110547
0.96726353 0.85806945 0.59451960
0.00000000 0.95629659 0.50614739
0.00000000 0.95624850 0.50584730
0.00000000 0.95610382 0.50494422
0.00000000 0.95586134 0.50342964
0.00000000 0.95551900 0.50128907
0.00000000 0.95494526 0.49769545
0.00000000 0.95376223 0.49025877
0.74155374 0.95125973 0.47438776
0.94952480 0.94567587 0.43808346
0.00000000 0.00000000 0.80170534
0.00000000 0.00000000 0.80166251
0.20583728 0.00000000 0.80153391
0.49141007 0.00000000 0.80131925
0.65028627 0.00000000 0.80101804
0.76348583 0.00000000 0.80051799
0.86037869 0.00000000 0.79950521
0.93345568 0.00000000 0.79743972
0.97774522 0.00000000 0.79316673
0.00000000 0.00000000 0.80144635
0.00000000 0.00000000 0.80140342
0.16666564 0.00000000 0.80127452
0.47687446 0.00000000 0.80105936
0.64447019 0.00000000 0.80075744
0.76089470 0.00000000 0.80025622
0.85934416 0.00000000 0.79924107
0.93310146 0.00000000 0.79717068
0.97766034 0.00000000 0.79288737
0.00000000 0.24559288 0.80066574
0.00000000 0.23819970 0.80062251
0.00000000 0.21472939 0.80049271
0.42599070 0.16995083 0.80027604
0.62564244 0.08471153 0.79997199
0.75278568 0.00000000 0.79946723
0.85616606 0.00000000 0.79844488
0.93202365 0.00000000 0.79635968
0.97740294 0.00000000 0.79204518
0.00000000 0.44256219 0.79935250
0.00000000 0.43834357 0.79930876
0.00000000 0.42543679 0.79917742
0.32022379 0.40301754 0.79895819
0.58856492 0.36940260 0.79865055
0.73802175 0.30618634 0.79813980
0.85060650 0.11228779 0.79710526
0.93017518 0.00000000 0.79499499
0.97696455 0.00000000 0.79062767
0.00000000 0.58786988 0.79748776
0.00000000 0.58590790 0.79744328
0.00000000 0.57988623 0.79730975
0.04858298 0.56936905 0.79708685
0.51850909 0.55352113 0.79677405
0.71415957 0.52385857 0.79625472
0.84221477 0.44518491 0.79520273
0.92747230 0.16553131 0.79305652
0.97633056 0.00000000 0.78861343
0.00000000 0.70254311 0.79433399
0.00000000 0.70159224 0.79428826
0.00000000 0.69870140 0.79415096
0.00000000 0.69375141 0.79392176
0.30767771 0.68652759 0.79360012
0.66301262 0.67374988 0.79306606
0.82649907 0.64428310 0.79198411
0.92268190 0.56153002 0.78977620
0.97522778 0.04400318 0.78520295
0.00000000 0.80830376 0.78771337
0.00000000 0.80789313 0.78766494
0.00000000 0.80665189 0.78751951
0.00000000 0.80455139 0.78727673
0.00000000 0.80154190 0.78693599
0.44601296 0.79637841 0.78637015
0.78522349 0.78522349 0.78522349
0.91164059 0.75900445 0.78288226
0.97278878 0.68156188 0.77802728
0.00000000 0.89506612 0.77314229
0.00000000 0.89490986 0.77308754
0.00000000 0.89443900 0.77292314
0.00000000 0.89364732 0.77264864
0.00000000 0.89252421 0.77226330
0.00000000 0.89062760 0.77162318
0.59915211 0.88665857 0.77032521
0.88145558 0.87798980 0.76767167
0.96683595 0.85713717 0.76215448
0.00000000 0.95611618 0.73729772
0.00000000 0.95606784 0.73722515
0.00000000 0.95592240 0.73700720
0.00000000 0.95567865 0.73664317
0.00000000 0.95533450 0.73613184
0.00000000 0.95475772 0.73528171
0.00000000 0.95356839 0.73355495
0.73212611 0.95105238 0.73001261
0.94878159 0.94543748 0.72259366
0.00000000 0.00000000 0.88895454
0.00000000 0.00000000 0.88893784
0.00000000 0.00000000 0.88888771
0.38671822 0.00000000 0.88880408
0.61165268 0.00000000 0.88868685
0.74703081 0.00000000 0.88849252
0.85396459 0.00000000 0.88810005
0.93128610 0.00000000 0.88730427
0.97722755 0.00000000 0.88567754
0.00000000 0.00000000 0.88885359
0.00000000 0.00000000 0.88883686
0.00000000 0.00000000 0.88878666
0.36572262 0.00000000 0.88870292
0.60425668 0.00000000 0.88858553
0.74407945 0.00000000 0.88839094
0.85285271 0.00000000 0.88799794
0.93091639 0.00000000 0.88720107
0.97713987 0.00000000 0.88557210
0.00000000 0.18399829 0.88854990
0.00000000 0.17452302 0.88853311
0.00000000 0.14334015 0.88848271
0.29437571 0.07593595 0.88839863
0.57993538 0.00000000 0.88828075
0.73480625 0.00000000 0.88808537
0.84943361 0.00000000 0.88769076
0.92979115 0.00000000 0.88689061
0.97687396 0.00000000 0.88525490
0.00000000 0.40972383 0.88804101
0.00000000 0.40516639 0.88802410
0.00000000 0.39118193 0.88797335
0.11287686 0.36672432 0.88788870
0.53011767 0.32958114 0.88777002
0.71777277 0.25756602 0.88757330
0.84343979 0.00000000 0.88717599
0.92786044 0.00000000 0.88637035
0.97642108 0.00000000 0.88472330
0.00000000 0.57252145 0.88732271
0.00000000 0.57037966 0.88730564
0.00000000 0.56379563 0.88725440
0.00000000 0.55225722 0.88716893
0.42709098 0.53477229 0.88704912
0.68979800 0.50170234 0.88685051
0.83436124 0.41256718 0.88644937
0.92503514 0.06881030 0.88563593
0.97576616 0.00000000 0.88397281
0.00000000 0.69522195 0.88611931
0.00000000 0.69422162 0.88610197
0.00000000 0.69117889 0.88604991
0.00000000 0.68596352 0.88596307
0.08175251 0.67834019 0.88584134
0.62765689 0.66481894 0.88563953
0.81725260 0.63344519 0.88523194
0.92002142 0.54362359 0.88440535
0.97462695 0.00000000 0.88271512
0.00000000 0.80517214 0.88363931
0.00000000 0.80474958 0.88362140
0.00000000 0.80347210 0.88356763
0.00000000 0.80130967 0.88347793
0.00000000 0.79821009 0.88335218
0.32234213 0.79288832 0.88314372
0.77157805 0.78137486 0.88272265
0.90843319 0.75421832 0.88186862
0.97210713 0.67309121 0.88012178
0.00000000 0.89388061 0.87839664
0.00000000 0.89372174 0.87837749
0.00000000 0.89324303 0.87832000
0.00000000 0.89243809 0.87822410
0.00000000 0.89129604 0.87808965
0.00000000 0.88936711 0.87786674
0.54462776 0.88532904 0.87741642
0.87650279 0.87650279 0.87650279
0.96595388 0.85523175 0.87463292
0.00000000 0.95575038 0.86668921
0.00000000 0.95570152 0.86666713
0.00000000 0.95555454 0.86660086
0.00000000 0.95530819 0.86649030
0.00000000 0.95496037 0.86633528
0.00000000 0.95437743 0.86607822
0.00000000 0.95317529 0.86555874
0.71091398 0.95063183 0.86450406
0.94724334 0.94495379 0.86234248
0.00000000 0.00000000 0.95193484
0.00000000 0.00000000 0.95192951
0.00000000 0.00000000 0.95191348
0.00000000 0.00000000 0.95188677
0.49078914 0.00000000 0.95184933
0.70603925 0.00000000 0.95178732
0.83951932 0.00000000 0.95166227
0.92662592 0.00000000 0.95140944
0.97613377 0.00000000 0.95089568
0.00000000 0.00000000 0.95190258
0.00000000 0.00000000 0.95189724
0.00000000 0.00000000 0.95188120
0.00000000 0.00000000 0.95185446
0.47620597 0.00000000 0.95181699
0.70204193 0.00000000 0.95175493
0.83822133 0.00000000 0.95162977
0.92622206 0.00000000 0.95137672
0.97604016 0.00000000 0.95086252
0.00000000 0.00000000 0.95180562
0.00000000 0.00000000 0.95180027
0.00000000 0.00000000 0.95178419
0.00000000 0.00000000 0.95175738
0.42516741 0.00000000 0.95171981
0.68934088 0.00000000 0.95165759
0.83422045 0.00000000 0.95153211
0.92499225 0.00000000 0.95127841
0.97575629 0.00000000 0.95076287
0.00000000 0.33428509 0.95164347
0.00000000 0.32872665 0.95163809
0.00000000 0.31149588 0.95162194
0.00000000 0.28062857 0.95159502
0.31913927 0.23139008 0.95155729
0.66541072 0.12018172 0.95149480
0.82717162 0.00000000 0.95136878
0.92287988 0.00000000 0.95111398
0.97527282 0.00000000 0.95059622
0.00000000 0.53697884 0.95141528
0.00000000 0.53437182 0.95140987
0.00000000 0.52632509 0.95139363
0.00000000 0.51210048 0.95136654
0.04554914 0.49022765 0.95132858
0.62417422 0.44768945 0.95126572
0.81640655 0.33773970 0.95113893
0.91978362 0.00000000 0.95088259
0.97457365 0.00000000 0.95036168
0.00000000 0.67928384 0.95103479
0.00000000 0.67816949 0.95102933
0.00000000 0.67477614 0.95101292
0.00000000 0.66894631 0.95098556
0.00000000 0.66039340 0.95094722
0.52094228 0.64512776 0.95088372
0.79580997 0.60919390 0.95075566
0.91427363 0.50134970 0.95049675
0.97335737 0.00000000 0.94997058
0.00000000 0.79858986 0.95025774
0.00000000 0.79814152 0.95025216
0.00000000 0.79678567 0.95023542
0.00000000 0.79448922 0.95020750
0.00000000 0.79119448 0.95016838
0.00000000 0.78552906 0.95010359
0.73851305 0.77323400 0.94997291
0.90145969 0.74401276 0.94970871
0.97066630 0.65448207 0.94917176
0.00000000 0.89143523 0.94864602
0.00000000 0.89127093 0.94864021
0.00000000 0.89077581 0.94862277
0.00000000 0.88994316 0.94859369
0.00000000 0.88876153 0.94855293
0.00000000 0.88676500 0.94848543
0.35009419 0.88258244 0.94834929
0.86552209 0.87342587 0.94807402
0.96408663 0.85127252 0.94751450
0.00000000 0.95500266 0.94519475
0.00000000 0.95495275 0.94518843
0.00000000 0.95480260 0.94516946
0.00000000 0.95455093 0.94513783
0.00000000 0.95419558 0.94509351
0.00000000 0.95359997 0.94502010
0.00000000 0.95237154 0.94487203
0.65553667 0.94977169 0.94457259
0.94396381 0.94396381 0.94396381
