sample/src/main/assets/lut/LinearTransformation/BT709_to_PQ.cube
TITLE "BT709_to_PQ"
LUT_3D_SIZE 5
# Crated by Francesco Bucciantini
0.000001 0.000001 0.000001
0.231027 0.111306 0.062976
0.344273 0.185116 0.113036
0.466649 0.274868 0.179321
0.602964 0.385494 0.267447
0.189912 0.257809 0.121600
0.260684 0.263083 0.129271
0.353910 0.278944 0.149964
0.469651 0.320712 0.195789
0.603826 0.402603 0.273442
0.291848 0.377466 0.199707
0.320565 0.378972 0.202282
0.380989 0.383924 0.210440
0.479252 0.400156 0.234656
0.606703 0.445653 0.291234
0.405655 0.504394 0.293384
0.415583 0.504841 0.294245
0.443561 0.506347 0.297111
0.508364 0.511665 0.306859
0.616596 0.529845 0.336844
0.535973 0.643593 0.407469
0.538972 0.643719 0.407736
0.548578 0.644144 0.408638
0.577810 0.645680 0.411861
0.647833 0.651353 0.423306
0.093279 0.053828 0.255903
0.235576 0.117705 0.257212
0.345596 0.187285 0.261514
0.467049 0.275602 0.275618
0.603078 0.385725 0.315295
0.197397 0.258698 0.262710
0.263920 0.263920 0.263920
0.355110 0.279645 0.267911
0.470039 0.321159 0.281102
0.603939 0.402797 0.318894
0.294144 0.377715 0.282536
0.322257 0.379218 0.283506
0.381904 0.384158 0.286724
0.479607 0.400355 0.297573
0.606813 0.445781 0.330181
0.406372 0.504467 0.331605
0.416234 0.504915 0.332178
0.444059 0.506420 0.334100
0.508634 0.511734 0.340797
0.616697 0.529903 0.362801
0.536183 0.643614 0.421136
0.539176 0.643739 0.421370
0.548765 0.644164 0.422161
0.577953 0.645700 0.424992
0.647908 0.651372 0.435136
0.158989 0.098523 0.375127
0.249404 0.135393 0.375495
0.349960 0.194212 0.376734
0.468395 0.278048 0.381125
0.603463 0.386502 0.396312
0.218482 0.261652 0.377087
0.274098 0.266706 0.377448
0.359077 0.281984 0.378663
0.471348 0.322657 0.382972
0.604321 0.403454 0.397902
0.301537 0.378557 0.383468
0.327786 0.380047 0.383806
0.384947 0.384947 0.384947
0.480803 0.401028 0.389000
0.607185 0.446216 0.403124
0.408771 0.504717 0.403808
0.418415 0.505164 0.404085
0.445731 0.506665 0.405020
0.509548 0.511968 0.408357
0.617037 0.530101 0.420177
0.536892 0.643684 0.457442
0.539866 0.643809 0.457608
0.549397 0.644234 0.458167
0.578437 0.645769 0.460180
0.648165 0.651438 0.467528
0.241086 0.159044 0.501755
0.286688 0.176055 0.501864
0.364398 0.215220 0.502233
0.473162 0.286438 0.503568
0.604857 0.389286 0.508516
0.267916 0.271649 0.502338
0.303707 0.276175 0.502447
0.372322 0.290032 0.502814
0.475987 0.327929 0.504142
0.605704 0.405815 0.509065
0.324390 0.381567 0.504298
0.345603 0.383013 0.504404
0.395322 0.387774 0.504765
0.485055 0.403445 0.506069
0.608533 0.447783 0.510906
0.417066 0.505624 0.511152
0.425995 0.506066 0.511252
0.451609 0.507555 0.511590
0.512815 0.512815 0.512815
0.618270 0.530818 0.517365
0.539438 0.643939 0.533916
0.542344 0.644064 0.533997
0.551670 0.644488 0.534272
0.580184 0.646019 0.535266
0.649096 0.651676 0.538978
0.344715 0.241157 0.640771
0.362255 0.247519 0.640802
0.405770 0.266158 0.640906
0.489609 0.312823 0.641283
0.610017 0.399255 0.642711
0.354311 0.301974 0.640935
0.370345 0.305237 0.640966
0.411095 0.315536 0.641070
0.492035 0.345738 0.641446
0.610826 0.414351 0.642872
0.381294 0.392287 0.641491
0.393753 0.393589 0.641521
0.427355 0.397886 0.641624
0.499884 0.412173 0.641999
0.613528 0.453556 0.643417
0.443727 0.509013 0.643491
0.450703 0.509442 0.643520
0.471436 0.510886 0.643622
0.524445 0.515989 0.643990
0.622851 0.533511 0.645383
0.548640 0.644907 0.650806
0.551314 0.645031 0.650834
0.559931 0.645451 0.650929
0.586605 0.646970 0.651274
0.652579 0.652579 0.652579
