sample/src/main/assets/lut/LinearTransformation/BT709_to_PQ.cube
TITLE "BT709_to_PQ"
LUT_3D_SIZE 33
# Crated by Francesco Bucciantini
0.000001 0.000001 0.000001
0.050463 0.017604 0.008185
0.089743 0.034771 0.017136
0.121708 0.050267 0.025742
0.148935 0.064382 0.033925
0.172787 0.077373 0.041704
0.194087 0.089433 0.049116
0.213374 0.100707 0.056196
0.231027 0.111306 0.062976
0.247321 0.121319 0.069485
0.262464 0.130817 0.075748
0.276619 0.139856 0.081785
0.289916 0.148487 0.087615
0.303035 0.157132 0.093519
0.316472 0.166117 0.099719
0.330220 0.175445 0.106222
0.344273 0.185116 0.113036
0.358623 0.195133 0.120166
0.373262 0.205496 0.127617
0.388181 0.216204 0.135395
0.403372 0.227256 0.143504
0.418824 0.238652 0.151948
0.434528 0.250387 0.160731
0.450473 0.262461 0.169854
0.466649 0.274868 0.179321
0.483044 0.287605 0.189133
0.499647 0.300667 0.199290
0.516446 0.314047 0.209792
0.533430 0.327740 0.220640
0.550586 0.341739 0.231831
0.567902 0.356037 0.243365
0.585366 0.370625 0.255238
0.602964 0.385494 0.267447
0.037723 0.059553 0.019911
0.060566 0.061416 0.021696
0.094141 0.066534 0.026253
0.124217 0.073877 0.032247
0.150579 0.082466 0.038815
0.173957 0.091624 0.045534
0.194966 0.100947 0.052213
0.214062 0.110207 0.058762
0.231581 0.119286 0.065145
0.247777 0.128123 0.071348
0.262847 0.136693 0.077368
0.276946 0.144987 0.083210
0.290198 0.153010 0.088881
0.303279 0.161130 0.094646
0.316683 0.169644 0.100721
0.330403 0.178551 0.107113
0.344431 0.187848 0.113826
0.358759 0.197531 0.120865
0.373380 0.207598 0.128235
0.388283 0.218044 0.135941
0.403459 0.228864 0.143986
0.418899 0.240055 0.152372
0.434592 0.251611 0.161104
0.450529 0.263526 0.170182
0.466696 0.275795 0.179609
0.483085 0.288410 0.189385
0.499682 0.301365 0.199510
0.516476 0.314652 0.209985
0.533456 0.328264 0.220808
0.550608 0.342192 0.231978
0.567921 0.356428 0.243493
0.585381 0.370962 0.255349
0.602978 0.385785 0.267544
0.069256 0.103910 0.038905
0.081142 0.104640 0.039727
0.105468 0.106774 0.042065
0.131178 0.110157 0.045607
0.155282 0.114576 0.049996
0.177356 0.119801 0.054927
0.197545 0.125617 0.060173
0.216089 0.131841 0.065579
0.233220 0.138326 0.071044
0.249131 0.144959 0.076503
0.263986 0.151656 0.081913
0.277918 0.158355 0.087250
0.291037 0.165013 0.092497
0.304008 0.171909 0.097888
0.317315 0.179290 0.103622
0.330950 0.187152 0.109701
0.344904 0.195493 0.116131
0.359168 0.204307 0.122914
0.373732 0.213587 0.130053
0.388586 0.223324 0.137551
0.403721 0.233508 0.145409
0.419124 0.244131 0.153628
0.434786 0.255181 0.162211
0.450695 0.266646 0.171156
0.466839 0.278517 0.180464
0.483207 0.290781 0.190135
0.499787 0.303427 0.200168
0.516566 0.316443 0.210561
0.533532 0.329817 0.221311
0.550673 0.343537 0.232417
0.567977 0.357592 0.243876
0.585429 0.371967 0.255683
0.603018 0.386653 0.267834
0.095712 0.139361 0.055861
0.102975 0.139764 0.056356
0.120342 0.140959 0.057806
0.141289 0.142902 0.060105
0.162465 0.145528 0.063111
0.182692 0.148757 0.066673
0.201659 0.152502 0.070648
0.219359 0.156675 0.074918
0.235881 0.161194 0.079386
0.251342 0.165983 0.083977
0.265852 0.170976 0.088637
0.279515 0.176117 0.093323
0.292420 0.181359 0.098007
0.305210 0.186916 0.102885
0.318358 0.192995 0.108136
0.331854 0.199604 0.113767
0.345687 0.206752 0.119781
0.359845 0.214441 0.126181
0.374317 0.222668 0.132969
0.389091 0.231428 0.140147
0.404155 0.240715 0.147714
0.419498 0.250516 0.155671
0.435108 0.260820 0.164017
0.450971 0.271613 0.172750
0.467076 0.282879 0.181869
0.483410 0.294602 0.191370
0.499961 0.306767 0.201252
0.516715 0.319356 0.211511
0.533660 0.332352 0.222143
0.550782 0.345739 0.233144
0.568069 0.359501 0.244510
0.585508 0.373621 0.256236
0.603086 0.388082 0.268315
0.118689 0.169217 0.071192
0.123617 0.169477 0.071532
0.136380 0.170250 0.072534
0.153225 0.171521 0.074156
0.171420 0.173262 0.076331
0.189569 0.175441 0.078983
0.207076 0.178018 0.082030
0.223724 0.180951 0.085394
0.239471 0.184197 0.089007
0.254344 0.187710 0.092806
0.268400 0.191452 0.096742
0.281704 0.195383 0.100773
0.294322 0.199469 0.104864
0.306867 0.203880 0.109186
0.319800 0.208793 0.113900
0.333107 0.214231 0.119015
0.346773 0.220217 0.124539
0.360785 0.226765 0.130478
0.375130 0.233887 0.136836
0.389793 0.241588 0.143614
0.404761 0.249869 0.150813
0.420020 0.258726 0.158432
0.435557 0.268150 0.166470
0.451357 0.278130 0.174925
0.467407 0.288651 0.183791
0.483694 0.299697 0.193066
0.500204 0.311249 0.202745
0.516923 0.323287 0.212822
0.533838 0.335791 0.223293
0.550934 0.348741 0.234151
0.568199 0.362114 0.245390
0.585619 0.375891 0.257004
0.603180 0.390050 0.268984
0.139105 0.195159 0.085225
0.142689 0.195341 0.085476
0.152398 0.195887 0.086219
0.166006 0.196788 0.087432
0.181500 0.198032 0.089082
0.197579 0.199602 0.091126
0.213533 0.201478 0.093517
0.229014 0.203639 0.096206
0.243871 0.206060 0.099145
0.258056 0.208717 0.102289
0.271570 0.211583 0.105600
0.284442 0.214636 0.109041
0.296710 0.217851 0.112581
0.308956 0.221368 0.116369
0.321622 0.225338 0.120550
0.334693 0.229796 0.125141
0.348152 0.234773 0.130153
0.361981 0.240297 0.135599
0.376166 0.246392 0.141485
0.390689 0.253076 0.147817
0.405534 0.260361 0.154597
0.420687 0.268255 0.161827
0.436131 0.276758 0.169504
0.451851 0.285867 0.177627
0.467832 0.295572 0.186192
0.484058 0.305859 0.195192
0.500516 0.316714 0.204623
0.517190 0.328114 0.214478
0.534067 0.340040 0.224748
0.551130 0.352468 0.235428
0.568366 0.365375 0.246508
0.585762 0.378735 0.257981
0.603302 0.392526 0.269837
0.157538 0.218177 0.098196
0.160274 0.218313 0.098389
0.167892 0.218721 0.098966
0.179013 0.219396 0.099914
0.192200 0.220331 0.101212
0.206355 0.221518 0.102837
0.220775 0.222945 0.104759
0.235049 0.224601 0.106946
0.248956 0.226470 0.109368
0.262387 0.228538 0.111991
0.275298 0.230789 0.114786
0.287680 0.233209 0.117725
0.299547 0.235780 0.120784
0.311446 0.238620 0.124091
0.323803 0.241857 0.127780
0.336597 0.245531 0.131873
0.349811 0.249679 0.136388
0.363424 0.254336 0.141342
0.377417 0.259536 0.146748
0.391773 0.265308 0.152616
0.406472 0.271675 0.158953
0.421496 0.278657 0.165762
0.436828 0.286264 0.173045
0.452451 0.294505 0.180800
0.468348 0.303377 0.189025
0.484502 0.312875 0.197713
0.500896 0.322988 0.206859
0.517516 0.333700 0.216455
0.534345 0.344991 0.226493
0.551368 0.356839 0.236963
0.568570 0.369219 0.247856
0.585935 0.382105 0.259161
0.603450 0.395471 0.270869
0.174380 0.238913 0.110277
0.176545 0.239019 0.110432
0.182679 0.239336 0.110895
0.191893 0.239861 0.111658
0.203161 0.240592 0.112710
0.215601 0.241522 0.114035
0.228575 0.242645 0.115613
0.241660 0.243954 0.117425
0.254600 0.245439 0.119447
0.267244 0.247091 0.121659
0.279511 0.248900 0.124037
0.291363 0.250857 0.126561
0.302790 0.252949 0.129210
0.314306 0.255276 0.132100
0.326316 0.257948 0.135351
0.338800 0.261005 0.138992
0.351736 0.264485 0.143044
0.365101 0.268429 0.147532
0.378876 0.272876 0.152472
0.393039 0.277860 0.157880
0.407568 0.283415 0.163769
0.422444 0.289570 0.170146
0.437647 0.296347 0.177016
0.453156 0.303762 0.184382
0.468955 0.311826 0.192240
0.485023 0.320542 0.200589
0.501344 0.329905 0.209422
0.517900 0.339908 0.218731
0.534674 0.350535 0.228507
0.551649 0.361766 0.238741
0.568810 0.373579 0.249421
0.586140 0.385948 0.260535
0.603625 0.398844 0.272073
0.189912 0.257809 0.121600
0.191672 0.257893 0.121728
0.196719 0.258148 0.122110
0.204457 0.258570 0.122740
0.214146 0.259157 0.123611
0.225092 0.259907 0.124713
0.236741 0.260815 0.126034
0.248695 0.261875 0.127558
0.260684 0.263083 0.129271
0.272533 0.264432 0.131156
0.284138 0.265915 0.133198
0.295436 0.267526 0.135380
0.306397 0.269258 0.137686
0.317502 0.271193 0.140219
0.329137 0.273427 0.143090
0.341281 0.275997 0.146330
0.353910 0.278944 0.149964
0.367003 0.282307 0.154021
0.380534 0.286127 0.158523
0.394480 0.290445 0.163491
0.408819 0.295299 0.168943
0.423527 0.300724 0.174891
0.438583 0.306752 0.181345
0.453964 0.313408 0.188310
0.469651 0.320712 0.195789
0.485622 0.328678 0.203780
0.501858 0.337310 0.212279
0.518341 0.346607 0.221279
0.535052 0.356562 0.230772
0.551973 0.367160 0.240747
0.569086 0.378383 0.251192
0.586376 0.390206 0.262094
0.603826 0.402603 0.273442
0.204342 0.275185 0.132269
0.205804 0.275255 0.132377
0.210031 0.275463 0.132697
0.216612 0.275810 0.133228
0.225003 0.276294 0.133963
0.234663 0.276911 0.134896
0.245124 0.277660 0.136018
0.256025 0.278538 0.137318
0.267101 0.279539 0.138787
0.278171 0.280661 0.140411
0.289111 0.281899 0.142180
0.299844 0.283247 0.144080
0.310323 0.284701 0.146100
0.320997 0.286332 0.148331
0.332236 0.288222 0.150876
0.344017 0.290408 0.153764
0.356318 0.292926 0.157027
0.369114 0.295816 0.160695
0.382380 0.299119 0.164794
0.396090 0.302877 0.169349
0.410219 0.307132 0.174384
0.424741 0.311923 0.179917
0.439634 0.317288 0.185961
0.454872 0.323260 0.192527
0.470434 0.329867 0.199621
0.486296 0.337131 0.207246
0.502438 0.345066 0.215398
0.518839 0.353681 0.224074
0.535478 0.362974 0.233266
0.552338 0.372939 0.242964
0.569399 0.383562 0.253155
0.586643 0.394824 0.263828
0.604054 0.406701 0.274968
0.217830 0.291282 0.142365
0.219065 0.291340 0.142457
0.222660 0.291515 0.142730
0.228320 0.291805 0.143184
0.235641 0.292210 0.143814
0.244199 0.292728 0.144615
0.253607 0.293357 0.145581
0.263543 0.294096 0.146704
0.273760 0.294940 0.147977
0.284077 0.295888 0.149391
0.294364 0.296935 0.150936
0.304532 0.298079 0.152604
0.314523 0.299317 0.154384
0.324756 0.300708 0.156360
0.335584 0.302326 0.158624
0.346987 0.304204 0.161208
0.358941 0.306375 0.164144
0.371422 0.308878 0.167463
0.384404 0.311754 0.171196
0.397859 0.315043 0.175372
0.411760 0.318789 0.180017
0.426082 0.323033 0.185155
0.440796 0.327818 0.190803
0.455878 0.333181 0.196979
0.471302 0.339157 0.203691
0.487045 0.345776 0.210946
0.503082 0.353060 0.218746
0.519392 0.361025 0.227088
0.535953 0.369679 0.235967
0.552745 0.379024 0.245374
0.569747 0.389052 0.255299
0.586941 0.399749 0.265727
0.604308 0.411096 0.276644
0.230501 0.306284 0.151955
0.231560 0.306334 0.152034
0.234656 0.306482 0.152271
0.239574 0.306729 0.152663
0.246008 0.307074 0.153210
0.253624 0.307515 0.153906
0.262102 0.308051 0.154747
0.271163 0.308681 0.155728
0.280583 0.309403 0.156842
0.290185 0.310214 0.158083
0.299840 0.311112 0.159445
0.309453 0.312095 0.160919
0.318957 0.313160 0.162498
0.328745 0.314360 0.164257
0.339155 0.315759 0.166281
0.350167 0.317387 0.168601
0.361761 0.319276 0.171250
0.373912 0.321462 0.174260
0.386594 0.323982 0.177664
0.399779 0.326878 0.181493
0.413438 0.330191 0.185778
0.427543 0.333966 0.190545
0.442066 0.338245 0.195817
0.456979 0.343070 0.201616
0.472254 0.348481 0.207955
0.487866 0.354512 0.214844
0.503790 0.361195 0.222291
0.520001 0.368552 0.230295
0.536476 0.376599 0.238854
0.553193 0.385345 0.247962
0.570131 0.394790 0.257607
0.587269 0.404928 0.267778
0.604588 0.415743 0.278460
0.242458 0.320341 0.161093
0.243376 0.320383 0.161162
0.246072 0.320511 0.161369
0.250384 0.320724 0.161714
0.256077 0.321021 0.162192
0.262886 0.321401 0.162803
0.270547 0.321864 0.163543
0.278821 0.322408 0.164407
0.287505 0.323032 0.165391
0.296437 0.323734 0.166490
0.305487 0.324512 0.167698
0.314561 0.325365 0.169009
0.323586 0.326291 0.170419
0.332931 0.327337 0.171993
0.342919 0.328558 0.173811
0.353535 0.329982 0.175903
0.364760 0.331638 0.178301
0.376570 0.333560 0.181037
0.388940 0.335784 0.184147
0.401841 0.338348 0.187662
0.415245 0.341293 0.191616
0.429121 0.344664 0.196038
0.443440 0.348504 0.200957
0.458171 0.352856 0.206396
0.473287 0.357763 0.212374
0.488759 0.363265 0.218907
0.504560 0.369397 0.226004
0.520663 0.376189 0.233671
0.537045 0.383666 0.241907
0.553681 0.391841 0.250708
0.570549 0.400724 0.260067
0.587627 0.410314 0.269972
0.604894 0.420603 0.280408
0.254305 0.334176 0.170230
0.255105 0.334213 0.170291
0.257460 0.334323 0.170473
0.261249 0.334507 0.170776
0.266292 0.334764 0.171197
0.272377 0.335094 0.171735
0.279289 0.335495 0.172387
0.286825 0.335967 0.173151
0.294807 0.336508 0.174021
0.303084 0.337118 0.174996
0.311536 0.337795 0.176069
0.320067 0.338538 0.177238
0.328605 0.339346 0.178496
0.337494 0.340259 0.179906
0.347043 0.341327 0.181539
0.357241 0.342575 0.183424
0.368073 0.344029 0.185592
0.379518 0.345722 0.188076
0.391551 0.347685 0.190910
0.404144 0.349956 0.194129
0.417268 0.352574 0.197768
0.430892 0.355582 0.201858
0.444985 0.359022 0.206431
0.459515 0.362940 0.211515
0.474453 0.367380 0.217133
0.489768 0.372385 0.223305
0.505431 0.377994 0.230045
0.521414 0.384244 0.237362
0.537691 0.391163 0.245260
0.554236 0.398776 0.253738
0.571025 0.407096 0.262791
0.588034 0.416132 0.272409
0.605242 0.425881 0.282580
0.266488 0.348314 0.179711
0.267184 0.348346 0.179764
0.269239 0.348441 0.179924
0.272561 0.348600 0.180189
0.277012 0.348823 0.180560
0.282427 0.349107 0.181033
0.288632 0.349454 0.181607
0.295457 0.349863 0.182280
0.302749 0.350332 0.183049
0.310373 0.350861 0.183911
0.318217 0.351449 0.184862
0.326189 0.352095 0.185900
0.334216 0.352798 0.187020
0.342623 0.353593 0.188278
0.351702 0.354525 0.189739
0.361450 0.355616 0.191430
0.371853 0.356890 0.193381
0.382895 0.358374 0.195625
0.394553 0.360101 0.198196
0.406801 0.362105 0.201128
0.419609 0.364422 0.204458
0.432947 0.367093 0.208219
0.446782 0.370161 0.212446
0.461083 0.373669 0.217170
0.475816 0.377663 0.222418
0.490949 0.382189 0.228215
0.506452 0.387288 0.234579
0.522296 0.393001 0.241525
0.538450 0.399364 0.249060
0.554888 0.406406 0.257187
0.571584 0.414150 0.265905
0.588513 0.422610 0.275207
0.605652 0.431793 0.285082
0.279004 0.362747 0.189536
0.279609 0.362774 0.189583
0.281398 0.362857 0.189723
0.284304 0.362994 0.189956
0.288221 0.363186 0.190280
0.293021 0.363432 0.190696
0.298565 0.363732 0.191201
0.304714 0.364085 0.191793
0.311336 0.364491 0.192470
0.318315 0.364950 0.193231
0.325549 0.365459 0.194072
0.332951 0.366020 0.194991
0.340453 0.366630 0.195985
0.348355 0.367321 0.197104
0.356938 0.368133 0.198406
0.366204 0.369083 0.199917
0.376144 0.370195 0.201666
0.386746 0.371494 0.203684
0.397991 0.373008 0.206004
0.409855 0.374769 0.208662
0.422310 0.376812 0.211692
0.435325 0.379174 0.215132
0.448868 0.381896 0.219016
0.462906 0.385022 0.223379
0.477404 0.388596 0.228253
0.492329 0.392664 0.233665
0.507647 0.397272 0.239639
0.523328 0.402463 0.246195
0.539340 0.408276 0.253344
0.555654 0.414749 0.261095
0.572242 0.421909 0.269450
0.589077 0.429780 0.278405
0.606135 0.438374 0.287953
0.291848 0.377466 0.199707
0.292373 0.377490 0.199748
0.293929 0.377561 0.199871
0.296466 0.377679 0.200074
0.299903 0.377845 0.200359
0.304143 0.378057 0.200723
0.309074 0.378316 0.201166
0.314585 0.378621 0.201686
0.320565 0.378972 0.202282
0.326916 0.379369 0.202952
0.333545 0.379810 0.203694
0.340376 0.380295 0.204506
0.347342 0.380824 0.205385
0.354724 0.381424 0.206377
0.362789 0.382129 0.207533
0.371544 0.382955 0.208879
0.380989 0.383924 0.210440
0.391117 0.385057 0.212247
0.401911 0.386381 0.214332
0.413352 0.387923 0.216729
0.425415 0.389717 0.219473
0.438069 0.391797 0.222601
0.451282 0.394202 0.226150
0.465022 0.396974 0.230157
0.479252 0.400156 0.234656
0.493937 0.403794 0.239679
0.509043 0.407934 0.245253
0.524536 0.412621 0.251404
0.540383 0.417900 0.258149
0.556553 0.423810 0.265501
0.573015 0.430388 0.273466
0.589740 0.437662 0.282045
0.606703 0.445653 0.291234
0.305015 0.392463 0.210224
0.305470 0.392484 0.210259
0.306821 0.392545 0.210367
0.309031 0.392647 0.210545
0.312040 0.392790 0.210794
0.315772 0.392973 0.211113
0.320140 0.393196 0.211501
0.325056 0.393459 0.211957
0.330428 0.393762 0.212480
0.336173 0.394105 0.213069
0.342212 0.394486 0.213721
0.348475 0.394905 0.214437
0.354903 0.395363 0.215213
0.361755 0.395883 0.216090
0.369286 0.396493 0.217114
0.377509 0.397211 0.218308
0.386431 0.398052 0.219697
0.396051 0.399039 0.221309
0.406359 0.400192 0.223174
0.417339 0.401539 0.225326
0.428969 0.403109 0.227798
0.441222 0.404934 0.230628
0.454066 0.407051 0.233854
0.467469 0.409498 0.237512
0.481395 0.412318 0.241640
0.495808 0.415554 0.246274
0.510670 0.419253 0.251444
0.525948 0.423462 0.257181
0.541604 0.428226 0.263506
0.557606 0.433589 0.270439
0.573921 0.439592 0.277990
0.590519 0.446271 0.286166
0.607371 0.453653 0.294966
0.318498 0.407729 0.221085
0.318892 0.407747 0.221116
0.320065 0.407800 0.221210
0.321987 0.407887 0.221366
0.324614 0.408010 0.221583
0.327889 0.408168 0.221862
0.331744 0.408360 0.222202
0.336109 0.408587 0.222601
0.340911 0.408848 0.223059
0.346079 0.409143 0.223576
0.351547 0.409472 0.224149
0.357255 0.409835 0.224778
0.363149 0.410230 0.225461
0.369469 0.410679 0.226234
0.376455 0.411208 0.227139
0.384130 0.411829 0.228195
0.392507 0.412559 0.229426
0.401591 0.413415 0.230859
0.411379 0.414418 0.232521
0.421861 0.415591 0.234444
0.433019 0.416961 0.236662
0.444830 0.418557 0.239210
0.457265 0.420413 0.242126
0.470292 0.422565 0.245448
0.483875 0.425052 0.249214
0.497978 0.427917 0.253463
0.512563 0.431206 0.258230
0.527592 0.434964 0.263548
0.543029 0.439238 0.269444
0.558838 0.444076 0.275942
0.574983 0.449520 0.283059
0.591433 0.455612 0.290808
0.608155 0.462387 0.299191
0.332292 0.423254 0.232291
0.332633 0.423269 0.232318
0.333649 0.423314 0.232400
0.335318 0.423390 0.232535
0.337607 0.423496 0.232725
0.340472 0.423631 0.232969
0.343863 0.423797 0.233265
0.347723 0.423992 0.233614
0.351994 0.424217 0.234015
0.356620 0.424471 0.234468
0.361544 0.424755 0.234970
0.366714 0.425067 0.235522
0.372084 0.425408 0.236122
0.377876 0.425796 0.236802
0.384317 0.426252 0.237598
0.391434 0.426789 0.238530
0.399249 0.427421 0.239619
0.407774 0.428162 0.240888
0.417013 0.429032 0.242363
0.426964 0.430051 0.244075
0.437613 0.431243 0.246056
0.448942 0.432635 0.248339
0.460926 0.434257 0.250962
0.473535 0.436142 0.253963
0.486735 0.438327 0.257381
0.500489 0.440853 0.261255
0.514758 0.443763 0.265623
0.529505 0.447101 0.270522
0.544691 0.450916 0.275984
0.560277 0.455253 0.282038
0.576226 0.460161 0.288707
0.592503 0.465683 0.296007
0.609075 0.471859 0.303949
0.346390 0.439027 0.243838
0.346685 0.439040 0.243862
0.347563 0.439079 0.243933
0.349010 0.439144 0.244051
0.351001 0.439235 0.244217
0.353502 0.439352 0.244429
0.356474 0.439494 0.244688
0.359874 0.439662 0.244993
0.363657 0.439855 0.245343
0.367776 0.440074 0.245738
0.372186 0.440318 0.246178
0.376843 0.440587 0.246661
0.381707 0.440881 0.247187
0.386982 0.441215 0.247784
0.392881 0.441609 0.248483
0.399438 0.442072 0.249303
0.406682 0.442618 0.250263
0.414631 0.443259 0.251383
0.423299 0.444012 0.252689
0.432688 0.444895 0.254207
0.442794 0.445929 0.255969
0.453604 0.447139 0.258006
0.465096 0.448552 0.260355
0.477245 0.450198 0.263052
0.490019 0.452111 0.266136
0.503383 0.454329 0.269649
0.517298 0.456892 0.273629
0.531724 0.459843 0.278116
0.546623 0.463230 0.283145
0.561953 0.467098 0.288750
0.577677 0.471495 0.294959
0.593755 0.476470 0.301796
0.610153 0.482065 0.309275
0.360783 0.455039 0.255725
0.361038 0.455050 0.255745
0.361797 0.455084 0.255807
0.363050 0.455139 0.255910
0.364777 0.455217 0.256054
0.366955 0.455317 0.256239
0.369553 0.455440 0.256465
0.372538 0.455584 0.256731
0.375875 0.455750 0.257036
0.379527 0.455938 0.257381
0.383456 0.456148 0.257765
0.387627 0.456379 0.258187
0.392007 0.456632 0.258648
0.396781 0.456920 0.259170
0.402151 0.457259 0.259783
0.408154 0.457658 0.260503
0.414824 0.458128 0.261346
0.422189 0.458682 0.262332
0.430268 0.459332 0.263484
0.439073 0.460096 0.264827
0.448606 0.460991 0.266388
0.458861 0.462041 0.268198
0.469823 0.463268 0.270292
0.481471 0.464701 0.272705
0.493776 0.466370 0.275475
0.506707 0.468310 0.278643
0.520224 0.470558 0.282249
0.534290 0.473156 0.286334
0.548864 0.476148 0.290937
0.563903 0.479580 0.296094
0.579368 0.483499 0.301840
0.595217 0.487953 0.308202
0.611414 0.492991 0.315203
0.375465 0.471278 0.267947
0.375684 0.471288 0.267965
0.376340 0.471317 0.268019
0.377422 0.471364 0.268109
0.378919 0.471431 0.268234
0.380811 0.471517 0.268395
0.383076 0.471622 0.268591
0.385688 0.471746 0.268822
0.388620 0.471888 0.269089
0.391844 0.472050 0.269389
0.395329 0.472230 0.269724
0.399046 0.472428 0.270093
0.402968 0.472646 0.270495
0.407265 0.472893 0.270951
0.412122 0.473184 0.271488
0.417583 0.473528 0.272118
0.423686 0.473933 0.272857
0.430464 0.474410 0.273723
0.437946 0.474970 0.274736
0.446150 0.475630 0.275919
0.455086 0.476404 0.277298
0.464756 0.477311 0.278901
0.475152 0.478375 0.280760
0.486260 0.479618 0.282909
0.498055 0.481070 0.285385
0.510508 0.482761 0.288228
0.523585 0.484727 0.291477
0.537247 0.487004 0.295176
0.551455 0.489636 0.299363
0.566164 0.492665 0.304081
0.581334 0.496140 0.309365
0.596921 0.500107 0.315249
0.612886 0.504616 0.321761
0.390425 0.487734 0.280502
0.390614 0.487742 0.280518
0.391179 0.487766 0.280564
0.392114 0.487807 0.280642
0.393409 0.487865 0.280751
0.395049 0.487938 0.280891
0.397019 0.488028 0.281061
0.399298 0.488134 0.281263
0.401866 0.488256 0.281494
0.404700 0.488395 0.281756
0.407778 0.488549 0.282047
0.411074 0.488720 0.282368
0.414568 0.488906 0.282719
0.418413 0.489118 0.283117
0.422782 0.489369 0.283585
0.427719 0.489664 0.284136
0.433267 0.490012 0.284783
0.439466 0.490422 0.285541
0.446349 0.490905 0.286430
0.453942 0.491473 0.287470
0.462264 0.492140 0.288684
0.471326 0.492924 0.290098
0.481126 0.493843 0.291742
0.491657 0.494920 0.293649
0.502902 0.496179 0.295852
0.514836 0.497649 0.298391
0.527428 0.499361 0.301305
0.540643 0.501350 0.304635
0.554440 0.503655 0.308424
0.568778 0.506318 0.312713
0.583613 0.509384 0.317542
0.598902 0.512899 0.322950
0.614602 0.516912 0.328969
0.405655 0.504394 0.293384
0.405818 0.504401 0.293398
0.406305 0.504422 0.293438
0.407111 0.504457 0.293506
0.408229 0.504506 0.293600
0.409648 0.504569 0.293722
0.411357 0.504646 0.293870
0.413341 0.504736 0.294044
0.415583 0.504841 0.294245
0.418066 0.504960 0.294473
0.420773 0.505092 0.294726
0.423683 0.505238 0.295006
0.426781 0.505398 0.295311
0.430204 0.505580 0.295657
0.434111 0.505795 0.296066
0.438548 0.506048 0.296546
0.443561 0.506347 0.297111
0.449193 0.506699 0.297774
0.455484 0.507114 0.298551
0.462466 0.507603 0.299462
0.470166 0.508177 0.300528
0.478601 0.508853 0.301772
0.487781 0.509646 0.303221
0.497705 0.510576 0.304906
0.508364 0.511665 0.306859
0.519738 0.512939 0.309117
0.531803 0.514425 0.311717
0.544525 0.516157 0.314700
0.557868 0.518169 0.318109
0.571790 0.520500 0.321987
0.586249 0.523193 0.326375
0.601199 0.526292 0.331315
0.616596 0.529845 0.336844
0.421145 0.521247 0.306589
0.421285 0.521253 0.306600
0.421704 0.521270 0.306635
0.422399 0.521300 0.306694
0.423363 0.521342 0.306776
0.424589 0.521396 0.306881
0.426069 0.521462 0.307009
0.427791 0.521540 0.307161
0.429743 0.521629 0.307335
0.431911 0.521731 0.307533
0.434283 0.521844 0.307753
0.436842 0.521969 0.307995
0.439576 0.522106 0.308261
0.442609 0.522262 0.308562
0.446084 0.522446 0.308917
0.450050 0.522663 0.309335
0.454553 0.522920 0.309827
0.459639 0.523222 0.310405
0.465351 0.523578 0.311085
0.471729 0.523997 0.311881
0.478806 0.524491 0.312814
0.486607 0.525072 0.313905
0.495150 0.525755 0.315179
0.504442 0.526557 0.316663
0.514483 0.527497 0.318387
0.525260 0.528598 0.320386
0.536756 0.529885 0.322696
0.548943 0.531388 0.325356
0.561786 0.533138 0.328408
0.575247 0.535171 0.331895
0.589285 0.537526 0.335859
0.603854 0.540246 0.340344
0.618908 0.543377 0.345392
0.436886 0.538280 0.320109
0.437006 0.538285 0.320119
0.437366 0.538301 0.320150
0.437964 0.538326 0.320200
0.438794 0.538362 0.320271
0.439852 0.538408 0.320362
0.441131 0.538465 0.320474
0.442622 0.538531 0.320605
0.444317 0.538608 0.320756
0.446205 0.538694 0.320927
0.448276 0.538791 0.321118
0.450518 0.538898 0.321328
0.452920 0.539016 0.321558
0.455595 0.539149 0.321820
0.458672 0.539306 0.322129
0.462198 0.539492 0.322492
0.466220 0.539712 0.322920
0.470785 0.539971 0.323423
0.475940 0.540276 0.324015
0.481729 0.540636 0.324710
0.488190 0.541059 0.325524
0.495357 0.541558 0.326479
0.503253 0.542145 0.327595
0.511897 0.542835 0.328898
0.521295 0.543644 0.330415
0.531445 0.544594 0.332179
0.542335 0.545706 0.334223
0.553944 0.547006 0.336584
