sample/src/main/assets/lut/LinearTransformation/BT709_to_PQ.cube
TITLE "BT709_to_PQ"
LUT_3D_SIZE 9
# Crated by Francesco Bucciantini
0.000001 0.000001 0.000001
0.148935 0.064382 0.033925
0.231027 0.111306 0.062976
0.289916 0.148487 0.087615
0.344273 0.185116 0.113036
0.403372 0.227256 0.143504
0.466649 0.274868 0.179321
0.533430 0.327740 0.220640
0.602964 0.385494 0.267447
0.118689 0.169217 0.071192
0.171420 0.173262 0.076331
0.239471 0.184197 0.089007
0.294322 0.199469 0.104864
0.346773 0.220217 0.124539
0.404761 0.249869 0.150813
0.467407 0.288651 0.183791
0.533838 0.335791 0.223293
0.603180 0.390050 0.268984
0.189912 0.257809 0.121600
0.214146 0.259157 0.123611
0.260684 0.263083 0.129271
0.306397 0.269258 0.137686
0.353910 0.278944 0.149964
0.408819 0.295299 0.168943
0.469651 0.320712 0.195789
0.535052 0.356562 0.230772
0.603826 0.402603 0.273442
0.242458 0.320341 0.161093
0.256077 0.321021 0.162192
0.287505 0.323032 0.165391
0.323586 0.326291 0.170419
0.364760 0.331638 0.178301
0.415245 0.341293 0.191616
0.473287 0.357763 0.212374
0.537045 0.383666 0.241907
0.604894 0.420603 0.280408
0.291848 0.377466 0.199707
0.299903 0.377845 0.200359
0.320565 0.378972 0.202282
0.347342 0.380824 0.205385
0.380989 0.383924 0.210440
0.425415 0.389717 0.219473
0.479252 0.400156 0.234656
0.540383 0.417900 0.258149
0.606703 0.445653 0.291234
0.346390 0.439027 0.243838
0.351001 0.439235 0.244217
0.363657 0.439855 0.245343
0.381707 0.440881 0.247187
0.406682 0.442618 0.250263
0.442794 0.445929 0.255969
0.490019 0.452111 0.266136
0.546623 0.463230 0.283145
0.610153 0.482065 0.309275
0.405655 0.504394 0.293384
0.408229 0.504506 0.293600
0.415583 0.504841 0.294245
0.426781 0.505398 0.295311
0.443561 0.506347 0.297111
0.470166 0.508177 0.300528
0.508364 0.511665 0.306859
0.557868 0.518169 0.318109
0.616596 0.529845 0.336844
0.469075 0.572842 0.348072
0.470483 0.572902 0.348194
0.474599 0.573081 0.348556
0.481122 0.573378 0.349157
0.491463 0.573887 0.350181
0.509171 0.574874 0.352150
0.537115 0.576777 0.355885
0.576970 0.580401 0.362795
0.628190 0.587153 0.375042
0.535973 0.643593 0.407469
0.536730 0.643624 0.407536
0.538972 0.643719 0.407736
0.542608 0.643875 0.408069
0.548578 0.644144 0.408638
0.559374 0.644666 0.409741
0.577810 0.645680 0.411861
0.606775 0.647634 0.415880
0.647833 0.651353 0.423306
0.052711 0.028491 0.167760
0.152349 0.068603 0.168761
0.232188 0.112974 0.171681
0.290508 0.149406 0.176299
0.344605 0.185664 0.183598
0.403555 0.227577 0.196075
0.466749 0.275052 0.215814
0.533484 0.327844 0.244323
0.602993 0.385552 0.281970
0.124110 0.169898 0.172975
0.173906 0.173906 0.173906
0.240520 0.184751 0.176628
0.294886 0.199923 0.180951
0.347097 0.220566 0.187825
0.404942 0.250114 0.199674
0.467507 0.288809 0.218628
0.533891 0.335887 0.246326
0.603209 0.390105 0.283278
0.191854 0.258032 0.186689
0.215572 0.259377 0.187462
0.261504 0.263293 0.189734
0.306892 0.269454 0.193375
0.354212 0.279120 0.199244
0.408993 0.295445 0.209566
0.469748 0.320824 0.226526
0.535105 0.356639 0.252066
0.603854 0.402652 0.287091
0.243472 0.320453 0.205118
0.256942 0.321132 0.205727
0.288113 0.323141 0.207523
0.323998 0.326397 0.210430
0.365030 0.331738 0.215182
0.415408 0.341384 0.223723
0.473381 0.357839 0.238205
0.537097 0.383724 0.260857
0.604922 0.420644 0.293111
0.292427 0.377529 0.229209
0.300434 0.377907 0.229660
0.320991 0.379034 0.230998
0.347664 0.380884 0.233182
0.381219 0.383982 0.236801
0.425563 0.389772 0.243449
0.479340 0.400206 0.255101
0.540434 0.417942 0.274144
0.606730 0.445685 0.302600
0.346715 0.439062 0.262409
0.351311 0.439269 0.262714
0.363930 0.439889 0.263624
0.381935 0.440914 0.265119
0.406860 0.442651 0.267628
0.442920 0.445961 0.272331
0.490100 0.452141 0.280858
0.546670 0.463257 0.295495
0.610180 0.482088 0.318732
0.405835 0.504412 0.304503
0.408404 0.504524 0.304694
0.415746 0.504860 0.305266
0.426927 0.505416 0.306212
0.443686 0.506365 0.307813
0.470263 0.508195 0.310864
0.508431 0.511682 0.316551
0.557911 0.518185 0.326758
0.616621 0.529859 0.344010
0.469173 0.572852 0.354482
0.470580 0.572912 0.354595
0.474692 0.573090 0.354935
0.481210 0.573388 0.355498
0.491543 0.573897 0.356458
0.509238 0.574883 0.358305
0.537167 0.576786 0.361818
0.577006 0.580410 0.368338
0.628213 0.587162 0.379958
0.536025 0.643598 0.411060
0.536783 0.643630 0.411125
0.539023 0.643724 0.411318
0.542657 0.643881 0.411640
0.548625 0.644149 0.412189
0.559417 0.644671 0.413255
0.577845 0.645685 0.415304
0.606803 0.647639 0.419194
0.647851 0.651358 0.426393
0.093279 0.053828 0.255903
0.161667 0.079240 0.256232
0.235576 0.117705 0.257212
0.292260 0.152089 0.258821
0.345596 0.187285 0.261514
0.404105 0.228531 0.266546
0.467049 0.275602 0.275618
0.533645 0.328154 0.291057
0.603078 0.385725 0.315295
0.137969 0.171903 0.257656
0.180889 0.175804 0.257978
0.243593 0.186391 0.258938
0.296557 0.201268 0.260515
0.348063 0.221605 0.263157
0.405484 0.250844 0.268099
0.467804 0.289281 0.277021
0.534052 0.336172 0.292241
0.603294 0.390270 0.316208
0.197397 0.258698 0.262710
0.219705 0.260033 0.263014
0.263920 0.263920 0.263920
0.308362 0.270039 0.265411
0.355110 0.279645 0.267911
0.409515 0.295884 0.272600
0.470039 0.321159 0.281102
0.535263 0.356870 0.295703
0.603939 0.402797 0.318894
0.246441 0.320788 0.270534
0.259486 0.321465 0.270813
0.289912 0.323467 0.271643
0.325225 0.326712 0.273009
0.365835 0.332036 0.275306
0.415898 0.341653 0.279630
0.473663 0.358067 0.287519
0.537253 0.383900 0.301198
0.605006 0.420766 0.323207
0.294144 0.377715 0.282536
0.302009 0.378093 0.282780
0.322257 0.379218 0.283506
0.348625 0.381065 0.284704
0.381904 0.384158 0.286724
0.426007 0.389937 0.290544
0.479607 0.400355 0.297573
0.540585 0.418067 0.309928
0.606813 0.445781 0.330181
0.347685 0.439164 0.302192
0.352236 0.439371 0.302388
0.364744 0.439991 0.302975
0.382615 0.441015 0.303944
0.407392 0.442749 0.305584
0.443296 0.446057 0.308708
0.490340 0.452232 0.314523
0.546813 0.463338 0.324940
0.610260 0.482156 0.342493
0.406372 0.504467 0.331605
0.408928 0.504579 0.331748
0.416234 0.504915 0.332178
0.427365 0.505471 0.332890
0.444059 0.506420 0.334100
0.470553 0.508249 0.336420
0.508634 0.511734 0.340797
0.558039 0.518234 0.348815
0.616697 0.529903 0.362801
0.469466 0.572881 0.371528
0.470869 0.572941 0.371623
0.474970 0.573120 0.371909
0.481471 0.573417 0.372384
0.491780 0.573926 0.373193
0.509440 0.574912 0.374756
0.537323 0.576814 0.377739
0.577114 0.580438 0.383321
0.628281 0.587187 0.393406
0.536183 0.643614 0.421136
0.536939 0.643645 0.421195
0.539176 0.643739 0.421370
0.542805 0.643896 0.421662
0.548765 0.644164 0.422161
0.559543 0.644687 0.423128
0.577953 0.645700 0.424992
0.606885 0.647654 0.428539
0.647908 0.651372 0.435136
0.126137 0.075693 0.318188
0.174871 0.092883 0.318353
0.240934 0.124830 0.318848
0.295109 0.156335 0.319667
0.347226 0.189910 0.321056
0.405014 0.230096 0.323711
0.467546 0.276510 0.328693
0.533913 0.328670 0.337735
0.603220 0.386011 0.353275
0.155969 0.175126 0.319073
0.191234 0.178861 0.319237
0.248480 0.189047 0.319727
0.299277 0.203461 0.320538
0.349652 0.223307 0.321914
0.406382 0.252047 0.324546
0.468298 0.290062 0.329486
0.534319 0.336646 0.338457
0.603436 0.390545 0.353890
0.205831 0.259797 0.321680
0.226156 0.261116 0.321839
0.267805 0.264956 0.322316
0.310761 0.271006 0.323105
0.356589 0.280513 0.324445
0.410377 0.296611 0.327008
0.470523 0.321713 0.331826
0.535527 0.357253 0.340590
0.604080 0.403040 0.355713
0.251171 0.321345 0.325871
0.263568 0.322018 0.326023
0.292834 0.324008 0.326479
0.327235 0.327235 0.327235
0.367163 0.332531 0.328518
0.416709 0.342101 0.330976
0.474130 0.358446 0.335602
0.537512 0.384192 0.344044
0.605145 0.420970 0.358678
0.296936 0.378026 0.332659
0.304575 0.378403 0.332801
0.324330 0.379524 0.333226
0.350205 0.381366 0.333931
0.383035 0.384449 0.335128
0.426742 0.390213 0.337423
0.480049 0.400603 0.341756
0.540836 0.418276 0.349699
0.606950 0.445941 0.363567
0.349280 0.439334 0.344677
0.353759 0.439541 0.344803
0.366087 0.440160 0.345178
0.383738 0.441182 0.345801
0.408273 0.442914 0.346860
0.443919 0.446217 0.348896
0.490740 0.452382 0.352756
0.547050 0.463473 0.359882
0.610393 0.482269 0.372472
0.407262 0.504559 0.364579
0.409796 0.504671 0.364681
0.417042 0.505006 0.364988
0.428091 0.505562 0.365497
0.444677 0.506510 0.366364
0.471034 0.508337 0.368037
0.508972 0.511820 0.371225
0.558253 0.518315 0.377173
0.616822 0.529976 0.387861
0.469952 0.572930 0.394719
0.471349 0.572990 0.394795
0.475431 0.573169 0.395022
0.481906 0.573466 0.395399
0.492175 0.573974 0.396043
0.509775 0.574961 0.397290
0.537582 0.576862 0.399682
0.577294 0.580483 0.404199
0.628394 0.587230 0.412484
0.536444 0.643640 0.436012
0.537199 0.643671 0.436063
0.539430 0.643765 0.436215
0.543051 0.643922 0.436468
0.548998 0.644190 0.436900
0.559755 0.644712 0.437740
0.578131 0.645726 0.439361
0.607022 0.647678 0.442457
0.648003 0.651396 0.448252
0.158989 0.098523 0.375127
0.193102 0.110173 0.375220
0.249404 0.135393 0.375495
0.299801 0.163061 0.375953
0.349960 0.194212 0.376734
0.406556 0.232716 0.378243
0.468395 0.278048 0.381125
0.534371 0.329548 0.386527
0.603463 0.386502 0.396312
0.178854 0.180342 0.375621
0.206245 0.183827 0.375713
0.256265 0.193398 0.375987
0.303766 0.207085 0.376443
0.352320 0.226149 0.377220
0.407903 0.254074 0.378721
0.469141 0.291387 0.381590
0.534775 0.337455 0.386968
0.603678 0.391014 0.396712
0.218482 0.261652 0.377087
0.236166 0.262943 0.377177
0.274098 0.266706 0.377448
0.314739 0.272641 0.377897
0.359077 0.281984 0.378663
0.411841 0.297845 0.380143
0.471348 0.322657 0.382972
0.535978 0.357908 0.388278
0.604321 0.403454 0.397902
0.258727 0.322293 0.379484
0.270159 0.322959 0.379572
0.297640 0.324930 0.379836
0.330589 0.328126 0.380274
0.369401 0.333374 0.381023
0.418086 0.342865 0.382468
0.474928 0.359092 0.385233
0.537955 0.384691 0.390425
0.605384 0.421318 0.399856
0.301537 0.378557 0.383468
0.308820 0.378932 0.383552
0.327786 0.380047 0.383806
0.352858 0.381879 0.384228
0.384947 0.384947 0.384947
0.427992 0.390683 0.386338
0.480803 0.401028 0.389000
0.541266 0.418634 0.394006
0.607185 0.446216 0.403124
0.351958 0.439626 0.390822
0.356319 0.439833 0.390901
0.368349 0.440449 0.391137
0.385637 0.441469 0.391529
0.409767 0.443196 0.392198
0.444980 0.446490 0.393493
0.491423 0.452640 0.395975
0.547456 0.463705 0.400656
0.610621 0.482464 0.409221
0.408771 0.504717 0.403808
0.411268 0.504829 0.403877
0.418415 0.505164 0.404085
0.429325 0.505719 0.404430
0.445731 0.506665 0.405020
0.471855 0.508490 0.406162
0.509548 0.511968 0.408357
0.558620 0.518454 0.412513
0.617037 0.530101 0.420177
0.470782 0.573015 0.425220
0.472168 0.573074 0.425277
0.476219 0.573253 0.425445
0.482647 0.573550 0.425726
0.492849 0.574058 0.426205
0.510347 0.575043 0.427136
0.538025 0.576943 0.428930
0.577602 0.580562 0.432346
0.628587 0.587304 0.438714
0.536892 0.643684 0.457442
0.537643 0.643715 0.457484
0.539866 0.643809 0.457608
0.543473 0.643966 0.457814
0.549397 0.644234 0.458167
0.560116 0.644756 0.458853
0.578437 0.645769 0.460180
0.607257 0.647721 0.462726
0.648165 0.651438 0.467528
0.197279 0.126183 0.436525
0.219616 0.133693 0.436576
0.263868 0.152033 0.436727
0.308330 0.174586 0.436978
0.355090 0.201976 0.437409
0.409503 0.237606 0.438245
0.470033 0.280977 0.439858
0.535260 0.331240 0.442939
0.603937 0.387453 0.448709
0.209785 0.189577 0.436796
0.229243 0.192664 0.436846
0.269712 0.201240 0.436997
0.311954 0.213717 0.437248
0.357331 0.231430 0.437677
0.410812 0.257900 0.438511
0.470767 0.293920 0.440120
0.535661 0.339014 0.443194
0.604151 0.391923 0.448950
0.238631 0.265166 0.437604
0.252826 0.266406 0.437654
0.285240 0.270027 0.437803
0.322057 0.275750 0.438052
0.363763 0.284790 0.438478
0.414642 0.300208 0.439306
0.472941 0.324475 0.440903
0.536854 0.359173 0.443954
0.604791 0.404260 0.449669
0.271828 0.324118 0.438937
0.281771 0.324771 0.438986
0.306361 0.326705 0.439134
0.336819 0.329844 0.439380
0.373632 0.335001 0.439800
0.420723 0.344340 0.440617
0.476469 0.360343 0.442194
0.538815 0.385660 0.445209
0.605850 0.421995 0.450858
0.309915 0.379586 0.441185
0.316594 0.379957 0.441233
0.334195 0.381061 0.441378
0.357842 0.382875 0.441618
0.388581 0.385913 0.442030
0.430392 0.391596 0.442830
0.482262 0.401853 0.444374
0.542100 0.419328 0.447327
0.607643 0.446749 0.452866
0.356988 0.440194 0.445442
0.361135 0.440399 0.445488
0.372625 0.441013 0.445627
0.389246 0.442027 0.445858
0.412624 0.443745 0.446254
0.447022 0.447022 0.447022
0.492745 0.453141 0.448506
0.548245 0.464157 0.451346
0.611065 0.482842 0.456683
0.411655 0.505025 0.453290
0.414084 0.505136 0.453333
0.421044 0.505470 0.453462
0.431694 0.506024 0.453676
0.447758 0.506967 0.454043
0.473441 0.508787 0.454756
0.510665 0.512255 0.456136
0.559332 0.518725 0.458780
0.617456 0.530344 0.463761
0.472384 0.573179 0.467113
0.473749 0.573238 0.467150
0.477742 0.573417 0.467263
0.484081 0.573713 0.467452
0.494153 0.574220 0.467774
0.511456 0.575204 0.468400
0.538884 0.577101 0.469614
0.578201 0.580715 0.471945
0.628965 0.587449 0.476355
0.537760 0.643770 0.489814
0.538506 0.643802 0.489844
0.540711 0.643896 0.489936
0.544291 0.644052 0.490088
0.550172 0.644320 0.490348
0.560819 0.644842 0.490855
0.579031 0.645854 0.491839
0.607715 0.647805 0.493735
0.648481 0.651518 0.497344
0.241086 0.159044 0.501755
0.254908 0.163697 0.501782
0.286688 0.176055 0.501864
0.323033 0.192896 0.502000
0.364398 0.215220 0.502233
0.415026 0.246407 0.502687
0.473162 0.286438 0.503568
0.536976 0.334462 0.505269
0.604857 0.389286 0.508516
0.248619 0.204898 0.501901
0.261361 0.207437 0.501928
0.291249 0.214599 0.502010
0.326142 0.225273 0.502146
0.366439 0.240867 0.502378
0.416266 0.264921 0.502832
0.473875 0.298676 0.503712
0.537370 0.341989 0.505411
0.605069 0.393677 0.508654
0.267916 0.271649 0.502338
0.278281 0.272802 0.502366
0.303707 0.276175 0.502447
0.334904 0.281528 0.502582
0.372322 0.290032 0.502814
0.419902 0.304658 0.503266
0.475987 0.327929 0.504142
0.538546 0.361600 0.505834
0.605704 0.405815 0.509065
0.292918 0.327585 0.503064
0.300884 0.328215 0.503091
0.321352 0.330081 0.503172
0.347938 0.333112 0.503306
0.381414 0.338100 0.503536
0.425689 0.347159 0.503985
0.479416 0.362741 0.504856
0.540477 0.387525 0.506537
0.606754 0.423305 0.509746
0.324390 0.381567 0.504298
0.330149 0.381930 0.504324
0.345603 0.383013 0.504404
0.366905 0.384792 0.504537
0.395322 0.387774 0.504765
0.434925 0.393355 0.505208
0.485055 0.403445 0.506069
0.543713 0.420672 0.507731
0.608533 0.447783 0.510906
0.366126 0.441295 0.506668
0.369914 0.441498 0.506694
0.380482 0.442105 0.506772
0.395944 0.443108 0.506902
0.417985 0.444809 0.507125
0.450899 0.448053 0.507559
0.495280 0.454114 0.508401
0.549769 0.465034 0.510028
0.611927 0.483578 0.513137
0.417066 0.505624 0.511152
0.419372 0.505734 0.511177
0.425995 0.506066 0.511252
0.436172 0.506617 0.511377
0.451609 0.507555 0.511590
0.476472 0.509365 0.512007
0.512815 0.512815 0.512815
0.560710 0.519252 0.514377
0.618270 0.530818 0.517365
0.475445 0.573499 0.519408
0.476772 0.573558 0.519431
0.480655 0.573736 0.519500
0.486828 0.574032 0.519616
0.496655 0.574537 0.519814
0.513590 0.575519 0.520200
0.540545 0.577410 0.520949
0.579362 0.581014 0.522399
0.629698 0.587730 0.525175
0.539438 0.643939 0.533916
0.540172 0.643970 0.533937
0.542344 0.644064 0.533997
0.545871 0.644220 0.534098
0.551670 0.644488 0.534272
0.562178 0.645009 0.534609
0.580184 0.646019 0.535266
0.608604 0.647967 0.536537
0.649096 0.651676 0.538978
0.290319 0.197342 0.570096
0.298504 0.200136 0.570110
0.319446 0.207961 0.570154
0.346497 0.219492 0.570227
0.380389 0.236111 0.570351
0.425027 0.261354 0.570594
0.479019 0.296243 0.571066
0.540252 0.340459 0.571983
0.606631 0.392772 0.573753
0.294706 0.228254 0.570174
0.302525 0.230161 0.570188
0.322673 0.235630 0.570232
0.348941 0.244018 0.570304
0.382130 0.256725 0.570429
0.426154 0.277204 0.570671
0.479695 0.307313 0.571143
0.540635 0.347550 0.572060
0.606840 0.397018 0.573828
0.306735 0.283092 0.570407
0.313637 0.284107 0.570422
0.331745 0.287087 0.570465
0.355927 0.291847 0.570538
0.387178 0.299477 0.570662
0.429462 0.312779 0.570904
0.481695 0.334336 0.571375
0.541775 0.366175 0.572289
0.607465 0.408785 0.574054
0.323867 0.334013 0.570796
0.329657 0.334603 0.570810
0.345183 0.336349 0.570853
0.366568 0.339192 0.570925
0.395068 0.343883 0.571049
0.434752 0.352440 0.571290
0.484948 0.367265 0.571760
0.543650 0.391072 0.572671
0.608498 0.425816 0.574429
0.347562 0.385326 0.571459
0.352119 0.385676 0.571473
0.364641 0.386719 0.571516
0.382528 0.388435 0.571588
0.407324 0.391312 0.571711
0.443248 0.396707 0.571950
0.490310 0.406484 0.572417
0.546795 0.423248 0.573323
0.610249 0.449773 0.575071
0.381862 0.443411 0.572742
0.385106 0.443610 0.572756
0.394255 0.444205 0.572799
0.407878 0.445189 0.572870
0.427716 0.446856 0.572991
0.458084 0.450038 0.573228
0.500066 0.455990 0.573689
0.552687 0.466726 0.574585
0.613592 0.485001 0.576313
0.426880 0.506783 0.575207
0.428979 0.506893 0.575221
0.435032 0.507221 0.575263
0.444400 0.507766 0.575332
0.458747 0.508694 0.575451
0.482155 0.510485 0.575682
0.516895 0.513900 0.576133
0.563353 0.520275 0.577009
0.619843 0.531737 0.578700
0.481182 0.574121 0.579868
0.482439 0.574180 0.579881
0.486124 0.574357 0.579921
0.491998 0.574651 0.579987
0.501382 0.575154 0.580101
0.517641 0.576130 0.580323
0.543716 0.578011 0.580756
0.581595 0.581595 0.581595
0.631117 0.588277 0.583218
0.542642 0.644268 0.588438
0.543354 0.644299 0.588450
0.545465 0.644393 0.588487
0.548893 0.644548 0.588549
0.554537 0.644815 0.588654
0.564786 0.645335 0.588859
0.582400 0.646342 0.589260
0.610320 0.648284 0.590037
0.650288 0.651982 0.591540
0.344715 0.241157 0.640771
0.349404 0.242793 0.640779
0.362255 0.247519 0.640802
0.380539 0.254857 0.640840
0.405770 0.266158 0.640906
0.442153 0.284770 0.641034
0.489609 0.312823 0.641283
0.546380 0.351201 0.641768
0.610017 0.399255 0.642711
0.347204 0.260713 0.640812
0.351777 0.262018 0.640820
0.364340 0.265820 0.640843
0.382277 0.271812 0.640881
0.407128 0.281238 0.640947
0.443109 0.297219 0.641075
0.490221 0.322178 0.641324
0.546742 0.357575 0.641809
0.610220 0.403244 0.642751
0.354311 0.301974 0.640935
0.358571 0.302800 0.640943
0.370345 0.305237 0.640966
0.387318 0.309163 0.641004
0.411095 0.315536 0.641070
0.445927 0.326865 0.641197
0.492035 0.345738 0.641446
0.547821 0.374544 0.641931
0.610826 0.414351 0.642872
0.365119 0.345452 0.641140
0.368945 0.345976 0.641148
0.379611 0.347530 0.641171
0.395198 0.350067 0.641209
0.417384 0.354272 0.641274
0.450461 0.361999 0.641401
0.494992 0.375547 0.641650
0.549595 0.397661 0.642134
0.611828 0.430554 0.643073
0.381294 0.392287 0.641491
0.384557 0.392614 0.641498
0.393753 0.393589 0.641521
0.407439 0.395192 0.641559
0.427355 0.397886 0.641624
0.457814 0.402951 0.641751
0.499884 0.412173 0.641999
0.552575 0.428102 0.642481
0.613528 0.453556 0.643417
0.406918 0.447426 0.642172
0.409461 0.447618 0.642179
0.416730 0.448190 0.642202
0.427811 0.449138 0.642240
0.444438 0.450744 0.642304
0.470848 0.453812 0.642431
0.508841 0.459559 0.642677
0.558171 0.469956 0.643156
0.616774 0.487727 0.644087
0.443727 0.509013 0.643491
0.445515 0.509121 0.643498
0.450703 0.509442 0.643520
0.458817 0.509976 0.643558
0.471436 0.510886 0.643622
0.492453 0.512641 0.643746
0.524445 0.515989 0.643990
0.568338 0.522245 0.644464
0.622851 0.533511 0.645383
0.491569 0.575327 0.646022
0.492710 0.575386 0.646030
0.496063 0.575561 0.646051
0.501429 0.575851 0.646088
0.510054 0.576349 0.646150
0.525141 0.577314 0.646272
0.549658 0.579175 0.646510
0.585831 0.582722 0.646973
0.633837 0.589337 0.647872
0.548640 0.644907 0.650806
0.549315 0.644938 0.650813
0.551314 0.645031 0.650834
0.554566 0.645186 0.650869
0.559931 0.645451 0.650929
0.569708 0.645968 0.651046
0.586605 0.646970 0.651274
0.613596 0.648901 0.651717
0.652579 0.652579 0.652579
