sample/src/main/assets/lut/LinearTransformation/HLG_BT2020_to_Linear_BT709.cube
TITLE "HLG_BT2020_to_Linear_BT709"
LUT_3D_SIZE 5
# HLG BT2020 HDR to Linear BT709 SDR by Francesco Bucciantini
0.00000000 0.00000000 0.00000000
0.36495763 0.00000000 0.00000000
0.67081687 0.00000000 0.00000000
0.85827486 0.00000000 0.00000000
0.97540671 0.00000000 0.00000000
0.00000000 0.29162324 0.00000000
0.28216623 0.27167804 0.00000000
0.65269133 0.20197269 0.00000000
0.85460088 0.00000000 0.00000000
0.97507117 0.00000000 0.00000000
0.00000000 0.59321478 0.00000000
0.00000000 0.58727382 0.00000000
0.58156980 0.56813687 0.00000000
0.84260138 0.49738212 0.00000000
0.97402655 0.00000000 0.00000000
0.00000000 0.80456124 0.00000000
0.00000000 0.80324413 0.00000000
0.00000000 0.79919646 0.00000000
0.79622858 0.78653919 0.00000000
0.97063930 0.71541873 0.00000000
0.00000000 0.95327174 0.00000000
0.00000000 0.95310982 0.00000000
0.00000000 0.95261976 0.00000000
0.00000000 0.95115797 0.00000000
0.94933346 0.94461540 0.00000000
0.00000000 0.00000000 0.28941698
0.35568480 0.00000000 0.28656839
0.66868198 0.00000000 0.27786412
0.85782751 0.00000000 0.25105180
0.97536544 0.00000000 0.09800407
0.00000000 0.29032511 0.27329511
0.27029369 0.27029369 0.27029369
0.65029031 0.20018453 0.26110524
0.85413478 0.00000000 0.23261671
0.97502914 0.00000000 0.05858335
0.00000000 0.59282283 0.21883062
0.00000000 0.58686819 0.21518145
0.57787908 0.56768472 0.20390969
0.84207092 0.49672117 0.16779937
0.97398212 0.00000000 0.00000000
0.00000000 0.80447343 0.00000000
0.00000000 0.80315528 0.00000000
0.00000000 0.79910432 0.00000000
0.79540051 0.78643628 0.00000000
0.97058706 0.71523951 0.00000000
0.00000000 0.95326091 0.00000000
0.00000000 0.95309894 0.00000000
0.00000000 0.95260873 0.00000000
0.00000000 0.95114650 0.00000000
0.94922851 0.94460193 0.00000000
0.00000000 0.00000000 0.59053636
0.32636966 0.00000000 0.58966982
0.66209335 0.00000000 0.58704397
0.85647184 0.00000000 0.57918100
0.97524109 0.00000000 0.54325796
0.00000000 0.28639860 0.58567934
0.23150461 0.26610206 0.58478822
0.64286119 0.19473996 0.58208728
0.85272193 0.00000000 0.57399411
0.97490247 0.00000000 0.53691148
0.00000000 0.59164162 0.57024478
0.00000000 0.58564563 0.56927198
0.56632138 0.56632138 0.56632138
0.84046168 0.49472475 0.55746080
0.97384823 0.00000000 0.51646601
0.00000000 0.80420960 0.51606264
0.00000000 0.80288828 0.51475648
0.00000000 0.79882744 0.51078350
0.79287952 0.78612698 0.49874837
0.97042961 0.71470047 0.44078413
0.00000000 0.95322839 0.00000000
0.00000000 0.95306628 0.00000000
0.00000000 0.95257564 0.00000000
0.00000000 0.95111210 0.00000000
0.94891201 0.94456148 0.00000000
0.00000000 0.00000000 0.80265033
0.22231246 0.00000000 0.80245604
0.64120050 0.00000000 0.80187110
0.85241208 0.00000000 0.80015360
0.97487483 0.00000000 0.79292233
0.00000000 0.27470029 0.80156938
0.05835064 0.25357332 0.80137319
0.61910286 0.17816936 0.80078252
0.84848790 0.00000000 0.79904808
0.97452938 0.00000000 0.79174364
0.00000000 0.58816250 0.79826228
0.00000000 0.58204343 0.79806020
0.52782062 0.56229954 0.79745178
0.83562724 0.48880440 0.79566485
0.97345386 0.00000000 0.78813345
0.00000000 0.80343929 0.78806500
0.00000000 0.80210869 0.78784407
0.00000000 0.79801891 0.78717876
0.78522349 0.78522349 0.78522349
0.96996577 0.71312210 0.77696208
0.00000000 0.95313374 0.73480571
0.00000000 0.95297121 0.73446735
0.00000000 0.95247929 0.73344712
0.00000000 0.95101193 0.73043759
0.94797772 0.94444371 0.71753020
0.00000000 0.00000000 0.95237873
0.00000000 0.00000000 0.95235460
0.51240139 0.00000000 0.95228212
0.83389765 0.00000000 0.95207070
0.97331558 0.00000000 0.95120275
0.00000000 0.22194893 0.95224483
0.00000000 0.19611584 0.95222062
0.46386033 0.09306886 0.95214788
0.82911807 0.00000000 0.95193569
0.97294101 0.00000000 0.95106461
0.00000000 0.57332994 0.95184025
0.00000000 0.56666399 0.95181577
0.23399690 0.54504460 0.95174224
0.81327254 0.46285052 0.95152775
0.97177465 0.00000000 0.95064718
0.00000000 0.80026612 0.95063935
0.00000000 0.79889689 0.95061409
0.00000000 0.79468644 0.95053821
0.74803893 0.78149452 0.95031684
0.96798942 0.70654779 0.94940792
0.00000000 0.95274817 0.94536784
0.00000000 0.95258393 0.94533906
0.00000000 0.95208683 0.94525259
0.00000000 0.95060389 0.94500030
0.94396381 0.94396381 0.94396381
