sample/src/main/assets/lut/LinearTransformation/HLG_BT2020_to_Linear_BT709.cube
TITLE "HLG_BT2020_to_Linear_BT709"
LUT_3D_SIZE 9
# HLG BT2020 HDR to Linear BT709 SDR by Francesco Bucciantini
0.00000000 0.00000000 0.00000000
0.14962874 0.00000000 0.00000000
0.36495763 0.00000000 0.00000000
0.55129371 0.00000000 0.00000000
0.67081687 0.00000000 0.00000000
0.76825269 0.00000000 0.00000000
0.85827486 0.00000000 0.00000000
0.92983540 0.00000000 0.00000000
0.97540671 0.00000000 0.00000000
0.00000000 0.11032981 0.00000000
0.10526192 0.09964144 0.00000000
0.34601474 0.06327292 0.00000000
0.54235712 0.00119086 0.00000000
0.66648070 0.00000000 0.00000000
0.76612624 0.00000000 0.00000000
0.85737041 0.00000000 0.00000000
0.92951073 0.00000000 0.00000000
0.97532340 0.00000000 0.00000000
0.00000000 0.29162324 0.00000000
0.00000000 0.28675489 0.00000000
0.28216623 0.27167804 0.00000000
0.51264198 0.24473309 0.00000000
0.65269133 0.20197269 0.00000000
0.75951942 0.10728493 0.00000000
0.85460088 0.00000000 0.00000000
0.92852454 0.00000000 0.00000000
0.97507117 0.00000000 0.00000000
0.00000000 0.46306262 0.00000000
0.00000000 0.46011478 0.00000000
0.12775501 0.45100479 0.00000000
0.44994858 0.43492345 0.00000000
0.62665454 0.41119894 0.00000000
0.74767816 0.36868435 0.00000000
0.84978828 0.26441463 0.00000000
0.92683918 0.00000000 0.00000000
0.97464293 0.00000000 0.00000000
0.00000000 0.59321478 0.00000000
0.00000000 0.59174853 0.00000000
0.00000000 0.58727382 0.00000000
0.32866183 0.57955096 0.00000000
0.58156980 0.56813687 0.00000000
0.72905669 0.54749919 0.00000000
0.84260138 0.49738212 0.00000000
0.92438811 0.34267322 0.00000000
0.97402655 0.00000000 0.00000000
0.00000000 0.70147558 0.00000000
0.00000000 0.70073678 0.00000000
0.00000000 0.69849740 0.00000000
0.00000000 0.69468646 0.00000000
0.46690539 0.68917839 0.00000000
0.69132998 0.67959113 0.00000000
0.82939074 0.65824157 0.00000000
0.92008183 0.60395420 0.00000000
0.97296208 0.38602103 0.00000000
0.00000000 0.80456124 0.00000000
0.00000000 0.80423343 0.00000000
0.00000000 0.80324413 0.00000000
0.00000000 0.80157543 0.00000000
0.00000000 0.79919646 0.00000000
0.56494955 0.79514730 0.00000000
0.79622858 0.78653919 0.00000000
0.91033255 0.76704951 0.00000000
0.97063930 0.71541873 0.00000000
0.00000000 0.89109097 0.00000000
0.00000000 0.89096360 0.00000000
0.00000000 0.89058015 0.00000000
0.00000000 0.88993663 0.00000000
0.00000000 0.88902621 0.00000000
0.00000000 0.88749543 0.00000000
0.67422923 0.88431876 0.00000000
0.88483955 0.87750408 0.00000000
0.96512146 0.86177801 0.00000000
0.00000000 0.95327174 0.00000000
0.00000000 0.95323133 0.00000000
0.00000000 0.95310982 0.00000000
0.00000000 0.95290642 0.00000000
0.00000000 0.95261976 0.00000000
0.00000000 0.95214066 0.00000000
0.00000000 0.95115797 0.00000000
0.78072829 0.94910151 0.00000000
0.94933346 0.94461540 0.00000000
0.00000000 0.00000000 0.10914750
0.14465955 0.00000000 0.10762098
0.36266075 0.00000000 0.10295648
0.55020921 0.00000000 0.09487539
0.67028593 0.00000000 0.08281657
0.76799106 0.00000000 0.06162298
0.85816324 0.00000000 0.01947433
0.92979526 0.00000000 0.00000000
0.97539640 0.00000000 0.00000000
0.00000000 0.10963416 0.10050801
0.09889959 0.09889959 0.09889959
0.34359709 0.06244056 0.09397562
0.54121840 0.00035850 0.08540917
0.66593451 0.00000000 0.07254811
0.76586005 0.00000000 0.05159629
0.85725765 0.00000000 0.00944764
0.92947034 0.00000000 0.00000000
0.97531305 0.00000000 0.00000000
0.00000000 0.29129920 0.07141918
0.00000000 0.28642584 0.06960973
0.27924075 0.27133255 0.06418139
0.51130759 0.24435417 0.05513416
0.65209449 0.20152687 0.04246804
0.75923876 0.10657667 0.02151622
0.85448458 0.00000000 0.00000000
0.92848339 0.00000000 0.00000000
0.97506067 0.00000000 0.00000000
0.00000000 0.46286635 0.02128572
0.00000000 0.45991562 0.01947628
0.12217797 0.45079649 0.01404794
0.44811442 0.43470234 0.00500071
0.62595274 0.41096520 0.00000000
0.74737025 0.36842436 0.00000000
0.84966569 0.26406067 0.00000000
0.92679672 0.00000000 0.00000000
0.97463219 0.00000000 0.00000000
0.00000000 0.59311688 0.00000000
0.00000000 0.59164979 0.00000000
0.00000000 0.58717250 0.00000000
0.32612296 0.57944507 0.00000000
0.58065435 0.56802394 0.00000000
0.72870237 0.54737262 0.00000000
0.84246904 0.49721709 0.00000000
0.92434371 0.34239438 0.00000000
0.97401545 0.00000000 0.00000000
0.00000000 0.70142618 0.00000000
0.00000000 0.70068712 0.00000000
0.00000000 0.69844696 0.00000000
0.00000000 0.69463468 0.00000000
0.46521905 0.68912463 0.00000000
0.69086709 0.67953380 0.00000000
0.82923932 0.65817565 0.00000000
0.92003393 0.60386224 0.00000000
0.97295038 0.38577236 0.00000000
0.00000000 0.80453929 0.00000000
0.00000000 0.80421142 0.00000000
0.00000000 0.80322193 0.00000000
0.00000000 0.80155289 0.00000000
0.00000000 0.79917344 0.00000000
0.56394403 0.79512343 0.00000000
0.79602213 0.78651347 0.00000000
0.91027631 0.76701926 0.00000000
0.97062625 0.71537395 0.00000000
0.00000000 0.89108244 0.00000000
0.00000000 0.89095505 0.00000000
0.00000000 0.89057156 0.00000000
0.00000000 0.88992796 0.00000000
0.00000000 0.88901744 0.00000000
0.00000000 0.88748648 0.00000000
0.67371008 0.88430943 0.00000000
0.88475861 0.87749390 0.00000000
0.96510517 0.86176572 0.00000000
0.00000000 0.95326903 0.00000000
0.00000000 0.95322862 0.00000000
0.00000000 0.95310710 0.00000000
0.00000000 0.95290368 0.00000000
0.00000000 0.95261700 0.00000000
0.00000000 0.95213787 0.00000000
0.00000000 0.95115510 0.00000000
0.78049231 0.94909849 0.00000000
0.94930725 0.94461203 0.00000000
0.00000000 0.00000000 0.28941698
0.12894995 0.00000000 0.28870723
0.35568480 0.00000000 0.28656839
0.54691660 0.00000000 0.28297106
0.66868198 0.00000000 0.27786412
0.76720280 0.00000000 0.26922559
0.85782751 0.00000000 0.25105180
0.92967465 0.00000000 0.21047874
0.97536544 0.00000000 0.09800407
0.00000000 0.10753000 0.28546386
0.07790264 0.09665335 0.28474516
0.33624538 0.05994351 0.28257913
0.53775955 0.00000000 0.27893530
0.66428422 0.00000000 0.27376060
0.76505805 0.00000000 0.26500259
0.85691849 0.00000000 0.24655551
0.92934899 0.00000000 0.20523867
0.97528195 0.00000000 0.08873147
0.00000000 0.29032511 0.27329511
0.00000000 0.28543663 0.27254753
0.27029369 0.27029369 0.27029369
0.50724775 0.24321433 0.26649947
0.65029031 0.20018453 0.26110524
0.75839302 0.10443374 0.25195883
0.85413478 0.00000000 0.23261671
0.92835975 0.00000000 0.18881302
0.97502914 0.00000000 0.05858335
0.00000000 0.46227639 0.25185658
0.00000000 0.45931696 0.25105266
0.10431202 0.45017030 0.24862726
0.44251127 0.43403834 0.24453830
0.62382923 0.41026318 0.23871176
0.74644214 0.36764334 0.22879440
0.84929694 0.26299624 0.20764406
0.92666912 0.00000000 0.15854889
0.97459992 0.00000000 0.00844990
0.00000000 0.59282283 0.21883062
0.00000000 0.59135323 0.21792314
0.00000000 0.58686819 0.21518145
0.31839276 0.57912702 0.21054582
0.57787908 0.56768472 0.20390969
0.72763384 0.54699239 0.19252447
0.84207092 0.49672117 0.16779937
0.92421027 0.34155659 0.10687224
0.97398212 0.00000000 0.00000000
0.00000000 0.70127785 0.15234276
0.00000000 0.70053803 0.15113233
0.00000000 0.69829554 0.14745734
0.00000000 0.69447924 0.14117893
0.46007361 0.68896323 0.13203641
0.68946959 0.67936166 0.11585769
0.82878368 0.65797774 0.07752469
0.91988999 0.60358607 0.00000000
0.97291521 0.38502542 0.00000000
0.00000000 0.80447343 0.00000000
0.00000000 0.80414536 0.00000000
0.00000000 0.80315528 0.00000000
0.00000000 0.80148523 0.00000000
0.00000000 0.79910432 0.00000000
0.56089329 0.79505180 0.00000000
0.79540051 0.78643628 0.00000000
0.91010731 0.76692846 0.00000000
0.97058706 0.71523951 0.00000000
0.00000000 0.89105683 0.00000000
0.00000000 0.89092940 0.00000000
0.00000000 0.89054579 0.00000000
0.00000000 0.88990196 0.00000000
0.00000000 0.88899111 0.00000000
0.00000000 0.88745961 0.00000000
0.67214192 0.88428141 0.00000000
0.88451527 0.87746335 0.00000000
0.96505624 0.86172884 0.00000000
0.00000000 0.95326091 0.00000000
0.00000000 0.95322048 0.00000000
0.00000000 0.95309894 0.00000000
0.00000000 0.95289548 0.00000000
0.00000000 0.95260873 0.00000000
0.00000000 0.95212950 0.00000000
0.00000000 0.95114650 0.00000000
0.77978158 0.94908943 0.00000000
0.94922851 0.94460193 0.00000000
0.00000000 0.00000000 0.46004368
0.09933024 0.00000000 0.45961033
0.34375829 0.00000000 0.45830466
0.54129430 0.00000000 0.45610968
0.66597087 0.00000000 0.45299628
0.76587776 0.00000000 0.44773941
0.85726515 0.00000000 0.43677389
0.92947303 0.00000000 0.41374795
0.97531373 0.00000000 0.36311923
0.00000000 0.10396362 0.45763056
0.04159069 0.09283793 0.45719201
0.32364340 0.05578175 0.45587061
0.53184775 0.00000000 0.45364901
0.66149397 0.00000000 0.45049744
0.76370977 0.00000000 0.44517506
0.85635035 0.00000000 0.43411422
0.92914611 0.00000000 0.41094071
0.97523000 0.00000000 0.35992884
0.00000000 0.28869497 0.45021416
0.00000000 0.28378100 0.44975930
0.25476286 0.26855428 0.44838862
0.50028510 0.24130423 0.44608355
0.64723688 0.19793078 0.44281228
0.75697076 0.10079958 0.43731354
0.85354876 0.00000000 0.42603617
0.92815303 0.00000000 0.40240339
0.97497646 0.00000000 0.35019091
0.00000000 0.46128926 0.43725266
0.00000000 0.45831524 0.43677441
0.06953812 0.44912238 0.43533650
0.43292943 0.43292943 0.43292943
0.62022824 0.40909050 0.42953699
0.74488042 0.36633807 0.42386617
0.84867909 0.26121364 0.41222440
0.92645579 0.00000000 0.38776572
0.97454602 0.00000000 0.33336142
0.00000000 0.59233164 0.41830358
0.00000000 0.59085785 0.41780381
0.00000000 0.58635983 0.41630093
0.30510519 0.57859566 0.41378415
0.57315440 0.56711792 0.41023508
0.72583412 0.54635692 0.40429706
0.84140368 0.49589181 0.39208461
0.92398717 0.34015591 0.36632004
0.97392644 0.00000000 0.30835828
0.00000000 0.70103030 0.38494712
0.00000000 0.70028920 0.38440487
0.00000000 0.69804282 0.38277366
0.00000000 0.69421979 0.38003986
0.45119608 0.68869385 0.37618021
0.68711061 0.67907432 0.36971021
0.82801969 0.65764733 0.35635252
0.91964928 0.60312479 0.32791817
0.97285647 0.38377738 0.26228327
0.00000000 0.80436358 0.30752727
0.00000000 0.80403518 0.30685605
0.00000000 0.80304411 0.30483418
0.00000000 0.80137237 0.30143663
0.00000000 0.79898904 0.29662000
0.55569128 0.79493230 0.28849127
0.79435686 0.78630750 0.27147357
0.90982464 0.76677697 0.23397293
0.97052159 0.71501516 0.13613845
0.00000000 0.89101415 0.02379939
0.00000000 0.89088664 0.02198994
0.00000000 0.89050280 0.01656160
0.00000000 0.88985860 0.00751437
0.00000000 0.88894722 0.00000000
0.00000000 0.88741481 0.00000000
0.66949191 0.88423470 0.00000000
0.88410799 0.87741240 0.00000000
0.96497450 0.86166735 0.00000000
0.00000000 0.95324736 0.00000000
0.00000000 0.95320692 0.00000000
0.00000000 0.95308534 0.00000000
0.00000000 0.95288180 0.00000000
0.00000000 0.95259495 0.00000000
0.00000000 0.95211553 0.00000000
0.00000000 0.95113217 0.00000000
0.77858751 0.94907431 0.00000000
0.94909694 0.94458508 0.00000000
0.00000000 0.00000000 0.59053636
0.04933580 0.00000000 0.59032013
0.32636966 0.00000000 0.58966982
0.53312453 0.00000000 0.58858053
0.66209335 0.00000000 0.58704397
0.76399858 0.00000000 0.58447213
0.85647184 0.00000000 0.57918100
0.92918945 0.00000000 0.56803087
0.97524109 0.00000000 0.54325796
0.00000000 0.09883805 0.58933477
0.00000000 0.08733507 0.58911703
0.30518753 0.04995528 0.58846220
0.52324435 0.00000000 0.58736529
0.65750143 0.00000000 0.58581792
0.76179732 0.00000000 0.58322783
0.85554887 0.00000000 0.57789849
0.92886076 0.00000000 0.56666492
0.97515702 0.00000000 0.54169164
0.00000000 0.28639860 0.58567934
0.00000000 0.28144830 0.58545698
0.23150461 0.26610206 0.58478822
0.49009757 0.23860785 0.58366789
0.64286119 0.19473996 0.58208728
0.75495241 0.09557168 0.57944103
0.85272193 0.00000000 0.57399411
0.92786228 0.00000000 0.56250346
0.97490247 0.00000000 0.53691148
0.00000000 0.45989914 0.57941170
0.00000000 0.45690446 0.57918125
0.01870140 0.44764620 0.57848807
0.41914883 0.43137219 0.57732669
0.61505202 0.40744319 0.57568780
0.74266222 0.36450314 0.57294307
0.84780713 0.25869974 0.56728970
0.92615572 0.00000000 0.55534675
0.97447029 0.00000000 0.52866110
0.00000000 0.59164162 0.57024478
0.00000000 0.59016191 0.57000208
0.00000000 0.58564563 0.56927198
0.28555178 0.57784906 0.56804848
0.56632138 0.56632138 0.56632138
0.72327403 0.54546355 0.56342741
0.84046168 0.49472475 0.55746080
0.92367333 0.33818575 0.54482931
0.97384823 0.00000000 0.51646601
0.00000000 0.70068301 0.55396615
0.00000000 0.69994012 0.55370047
0.00000000 0.69768827 0.55290110
0.00000000 0.69385579 0.55156097
0.43810157 0.68831588 0.54966812
0.68374363 0.67867112 0.54649340
0.82694034 0.65718357 0.53993588
0.91931063 0.60247690 0.52599817
0.97277394 0.38202347 0.49440953
0.00000000 0.80420960 0.51606264
0.00000000 0.80388075 0.51573694
0.00000000 0.80288828 0.51475648
0.00000000 0.80121418 0.51311110
0.00000000 0.79882744 0.51078350
0.54814886 0.79476479 0.50687013
0.79287952 0.78612698 0.49874837
0.90942679 0.76656459 0.48130629
0.97042961 0.71470047 0.44078413
0.00000000 0.89095434 0.40744718
0.00000000 0.89082673 0.40693426
0.00000000 0.89044258 0.40539169
0.00000000 0.88979785 0.40280784
0.00000000 0.88888572 0.39916290
0.00000000 0.88735204 0.39306097
0.66570311 0.88416926 0.38049697
0.88353416 0.87734101 0.35392008
0.96485965 0.86158119 0.29368393
0.00000000 0.95322839 0.00000000
0.00000000 0.95318793 0.00000000
0.00000000 0.95306628 0.00000000
0.00000000 0.95286264 0.00000000
0.00000000 0.95257564 0.00000000
0.00000000 0.95209597 0.00000000
0.00000000 0.95111210 0.00000000
0.77689554 0.94905315 0.00000000
0.94891201 0.94456148 0.00000000
0.00000000 0.00000000 0.69914463
0.00000000 0.00000000 0.69903544
0.29552603 0.00000000 0.69870741
0.51877450 0.00000000 0.69815902
0.65545879 0.00000000 0.69738778
0.76082651 0.00000000 0.69610296
0.85514396 0.00000000 0.69348344
0.92871698 0.00000000 0.68806751
0.97512029 0.00000000 0.67653416
0.00000000 0.08998368 0.69853858
0.00000000 0.07756660 0.69842894
0.27216519 0.04031736 0.69809953
0.50809422 0.00000000 0.69754883
0.65066503 0.00000000 0.69677433
0.75856835 0.00000000 0.69548405
0.85420721 0.00000000 0.69285330
0.92838534 0.00000000 0.68741369
0.97503566 0.00000000 0.67582780
0.00000000 0.28256288 0.69670510
0.00000000 0.27755080 0.69659407
0.18788607 0.26200092 0.69626046
0.47199217 0.23408890 0.69570273
0.63535038 0.18936677 0.69491831
0.75154204 0.08652549 0.69361143
0.85133757 0.00000000 0.69094648
0.92737784 0.00000000 0.68543476
0.97477941 0.00000000 0.67368872
0.00000000 0.45757845 0.69359698
0.00000000 0.45454904 0.69348356
0.00000000 0.44518075 0.69314275
0.39531458 0.42878392 0.69257296
0.60612244 0.40470378 0.69177152
0.73890881 0.36144822 0.69043613
0.84634666 0.25449326 0.68771248
0.92565569 0.00000000 0.68207686
0.97434437 0.00000000 0.67005531
0.00000000 0.59049413 0.68913166
0.00000000 0.58900456 0.68901473
0.00000000 0.58445776 0.68866339
0.25022947 0.57660708 0.68807595
0.55441414 0.56499594 0.68724959
0.71893182 0.54397619 0.68587246
0.83888297 0.49277877 0.68306281
0.92315029 0.33490274 0.67724549
0.97371816 0.00000000 0.66481906
0.00000000 0.70010669 0.68143566
0.00000000 0.69936082 0.68131251
0.00000000 0.69709988 0.68094247
0.00000000 0.69325169 0.68032368
0.41534272 0.68768853 0.67945307
0.67800178 0.67800178 0.67800178
0.82512943 0.65641342 0.67503921
0.91874609 0.60139973 0.66889830
0.97263670 0.37910493 0.65574818
0.00000000 0.80395442 0.66464857
0.00000000 0.80362480 0.66451104
0.00000000 0.80263003 0.66409772
0.00000000 0.80095202 0.66340637
0.00000000 0.79855962 0.66243327
0.53494975 0.79448717 0.66081007
0.79039316 0.78582776 0.65749246
0.90876320 0.76621246 0.65059765
0.97027663 0.71417835 0.63574876
0.00000000 0.89085531 0.62418167
0.00000000 0.89072753 0.62400446
0.00000000 0.89034286 0.62347166
0.00000000 0.88969726 0.62257984
0.00000000 0.88878389 0.62132315
0.00000000 0.88724810 0.61922324
0.65922408 0.88406088 0.61491688
0.88257550 0.87722279 0.60590374
0.96466862 0.86143849 0.58618617
0.00000000 0.95319699 0.49242551
0.00000000 0.95315649 0.49205733
0.00000000 0.95303474 0.49094862
0.00000000 0.95283092 0.48908670
0.00000000 0.95254367 0.48644997
0.00000000 0.95206360 0.48200934
0.00000000 0.95107887 0.47276263
0.77404341 0.94901812 0.45275843
0.94860420 0.94452241 0.40709853
0.00000000 0.00000000 0.80265033
0.00000000 0.00000000 0.80260179
0.22231246 0.00000000 0.80245604
0.48616365 0.00000000 0.80221269
0.64120050 0.00000000 0.80187110
0.75419249 0.00000000 0.80130375
0.85241208 0.00000000 0.80015360
0.92775360 0.00000000 0.79780346
0.97487483 0.00000000 0.79292233
0.00000000 0.07059446 0.80238108
0.00000000 0.05817805 0.80233242
0.19158920 0.02092882 0.80218631
0.47346951 0.00000000 0.80194237
0.63595064 0.00000000 0.80159995
0.75181209 0.00000000 0.80103122
0.85144661 0.00000000 0.79987824
0.92741589 0.00000000 0.79752227
0.97478907 0.00000000 0.79262879
0.00000000 0.27470029 0.80156938
0.00000000 0.26955704 0.80152037
0.05835064 0.25357332 0.80137319
0.42993439 0.22476350 0.80112746
0.61910286 0.17816936 0.80078252
0.74439548 0.06697625 0.80020960
0.84848790 0.00000000 0.79904808
0.92638990 0.00000000 0.79667449
0.97452938 0.00000000 0.79174364
0.00000000 0.45282794 0.80020328
0.00000000 0.44972642 0.80015366
0.00000000 0.44013425 0.80000466
0.34253328 0.42352956 0.79975590
0.58660303 0.39913706 0.79940671
0.73102130 0.35522642 0.79882668
0.84333812 0.24584033 0.79765071
0.92463580 0.00000000 0.79524726
0.97408849 0.00000000 0.79025308
0.00000000 0.58816250 0.79826228
0.00000000 0.58665272 0.79821180
0.00000000 0.58204343 0.79806020
0.16113361 0.57408184 0.79780709
0.52782062 0.56229954 0.79745178
0.70976365 0.54094721 0.79686158
0.83562724 0.48880440 0.79566485
0.92208317 0.32820467 0.79321856
0.97345386 0.00000000 0.78813345
0.00000000 0.69894031 0.79497634
0.00000000 0.69818838 0.79492437
0.00000000 0.69590894 0.79476830
0.00000000 0.69202880 0.79450772
0.36537170 0.68641837 0.79414191
0.66574534 0.67664620 0.79353420
0.82138675 0.65485253 0.79230181
0.91759379 0.59921201 0.78978184
0.97235783 0.37316678 0.78454021
0.00000000 0.80343929 0.78806500
0.00000000 0.80310813 0.78800981
0.00000000 0.80210869 0.78784407
0.00000000 0.80042274 0.78756732
0.00000000 0.79801891 0.78717876
0.50519834 0.79392662 0.78653315
0.78522349 0.78522349 0.78522349
0.90740724 0.76550104 0.78254374
0.96996577 0.71312210 0.77696208
0.00000000 0.89065568 0.77278916
0.00000000 0.89052755 0.77272640
0.00000000 0.89014184 0.77253792
0.00000000 0.88949448 0.77222313
0.00000000 0.88857860 0.77178106
0.00000000 0.88703857 0.77104626
0.64531635 0.88384240 0.76955454
0.88061045 0.87698444 0.76649762
0.96428028 0.86115069 0.76010990
0.00000000 0.95313374 0.73480571
0.00000000 0.95309317 0.73472120
0.00000000 0.95297121 0.73446735
0.00000000 0.95276704 0.73404320
0.00000000 0.95247929 0.73344712
0.00000000 0.95199838 0.73245527
0.00000000 0.95101193 0.73043759
0.76809452 0.94894755 0.72628525
0.94797772 0.94444371 0.71753020
0.00000000 0.00000000 0.88966219
0.00000000 0.00000000 0.88964328
0.00000000 0.00000000 0.88958652
0.40046292 0.00000000 0.88949183
0.60804760 0.00000000 0.88935905
0.73971023 0.00000000 0.88913889
0.84665692 0.00000000 0.88869403
0.92576165 0.00000000 0.88779101
0.97437102 0.00000000 0.88594094
0.00000000 0.03159065 0.88955734
0.00000000 0.01917424 0.88953841
0.00000000 0.00000000 0.88948157
0.38322038 0.00000000 0.88938674
0.60161104 0.00000000 0.88925377
0.73704744 0.00000000 0.88903331
0.84562931 0.00000000 0.88858781
0.92541128 0.00000000 0.88768350
0.97428292 0.00000000 0.88583077
0.00000000 0.25823775 0.88924191
0.00000000 0.25279846 0.88922289
0.00000000 0.23582771 0.88916581
0.32628873 0.20493394 0.88907058
0.58071407 0.15378336 0.88893705
0.72872546 0.02797243 0.88871564
0.84247766 0.00000000 0.88826825
0.92434660 0.00000000 0.88736005
0.97401617 0.00000000 0.88549930
0.00000000 0.44292254 0.88871320
0.00000000 0.43967354 0.88869405
0.00000000 0.42977662 0.88863656
0.20181546 0.41275893 0.88854065
0.53925363 0.38770182 0.88840617
0.71361720 0.34238373 0.88818319
0.83698297 0.22757710 0.88773259
0.92252565 0.00000000 0.88681788
0.97356327 0.00000000 0.88494363
0.00000000 0.58337520 0.88796668
0.00000000 0.58182329 0.88794733
0.00000000 0.57708358 0.88788927
0.00000000 0.56889034 0.88779240
0.45949984 0.55674989 0.88765657
0.68931514 0.53469949 0.88743134
0.82873346 0.48055716 0.88697621
0.91987414 0.31432607 0.88605225
0.97291134 0.00000000 0.88415886
0.00000000 0.69656505 0.88671529
0.00000000 0.69580069 0.88669562
0.00000000 0.69348325 0.88663659
0.00000000 0.68953744 0.88653809
0.23695078 0.68382980 0.88639999
0.63770573 0.67388180 0.88617098
0.81342523 0.65166474 0.88570819
0.91520613 0.59472454 0.88476861
0.97178536 0.36093591 0.88284292
0.00000000 0.80239568 0.88413363
0.00000000 0.80206139 0.88411328
0.00000000 0.80105245 0.88405222
0.00000000 0.79935036 0.88395033
0.00000000 0.79692324 0.88380746
0.42704233 0.79279057 0.88357056
0.77408205 0.78399837 0.88309177
0.90459121 0.76405740 0.88211953
0.96932750 0.71097289 0.88012624
0.00000000 0.89025245 0.87866374
0.00000000 0.89012362 0.87864193
0.00000000 0.88973578 0.87857644
0.00000000 0.88908486 0.87846717
0.00000000 0.88816392 0.87831394
0.00000000 0.88661530 0.87805983
0.61307004 0.88340099 0.87754618
0.87650279 0.87650279 0.87650279
0.96348245 0.86056886 0.87436207
0.00000000 0.95300616 0.86638807
0.00000000 0.95296545 0.86636275
0.00000000 0.95284307 0.86628673
0.00000000 0.95263818 0.86615989
0.00000000 0.95234944 0.86598199
0.00000000 0.95186684 0.86568690
0.00000000 0.95087693 0.86509017
0.75518509 0.94880520 0.86387702
0.94668737 0.94428496 0.86138377
0.00000000 0.00000000 0.95237873
0.00000000 0.00000000 0.95237270
0.00000000 0.00000000 0.95235460
0.09504626 0.00000000 0.95232442
0.51240139 0.00000000 0.95228212
0.70477050 0.00000000 0.95221205
0.83389765 0.00000000 0.95207070
0.92152254 0.00000000 0.95178471
0.97331558 0.00000000 0.95120275
0.00000000 0.00000000 0.95234530
0.00000000 0.00000000 0.95233926
0.00000000 0.00000000 0.95232115
0.03684573 0.00000000 0.95229094
0.50134945 0.00000000 0.95224861
0.70133169 0.00000000 0.95217847
0.83272405 0.00000000 0.95203699
0.92114458 0.00000000 0.95175075
0.97322259 0.00000000 0.95116827
0.00000000 0.22194893 0.95224483
0.00000000 0.21573294 0.95223878
0.00000000 0.19611584 0.95222062
0.00000000 0.15930701 0.95219033
0.46386033 0.09306886 0.95214788
0.69049588 0.00000000 0.95207756
0.82911807 0.00000000 0.95193569
0.91999560 0.00000000 0.95164868
0.97294101 0.00000000 0.95106461
0.00000000 0.42196708 0.95207678
0.00000000 0.41855544 0.95207070
0.00000000 0.40815164 0.95205246
0.00000000 0.39020730 0.95202203
0.38486423 0.36364263 0.95197939
0.67046073 0.31505885 0.95190876
0.82280712 0.18643997 0.95176625
0.91802882 0.00000000 0.95147794
0.97246291 0.00000000 0.95089124
0.00000000 0.57332994 0.95184025
0.00000000 0.57168669 0.95183413
0.00000000 0.56666399 0.95181577
0.00000000 0.55796690 0.95178515
0.23399690 0.54504460 0.95174224
0.63713889 0.52146023 0.95167116
0.81327254 0.46285052 0.95152775
0.91516117 0.28452643 0.95123762
0.97177465 0.00000000 0.95064718
0.00000000 0.69166608 0.95144569
0.00000000 0.69087560 0.95143951
0.00000000 0.68847837 0.95142095
0.00000000 0.68439452 0.95139001
0.00000000 0.67848233 0.95134666
0.56078834 0.66816364 0.95127483
0.79537925 0.64505039 0.95112992
0.91010154 0.58532782 0.95083672
0.97058572 0.33504350 0.95024006
0.00000000 0.80026612 0.95063935
0.00000000 0.79992538 0.95063304
0.00000000 0.79889689 0.95061409
0.00000000 0.79716155 0.95058249
0.00000000 0.79468644 0.95053821
0.16596819 0.79047051 0.95046485
0.74803893 0.78149452 0.95031684
0.89854138 0.76110159 0.95001738
0.96798942 0.70654779 0.94940792
0.00000000 0.88943455 0.94896457
0.00000000 0.88930429 0.94895798
0.00000000 0.88891215 0.94893820
0.00000000 0.88825396 0.94890522
0.00000000 0.88732270 0.94885900
0.00000000 0.88575656 0.94878243
0.52087883 0.88250532 0.94862794
0.86755188 0.87552507 0.94831535
0.96180754 0.85938660 0.94767905
0.00000000 0.95274817 0.94536784
0.00000000 0.95270718 0.94536065
0.00000000 0.95258393 0.94533906
0.00000000 0.95237761 0.94530305
0.00000000 0.95208683 0.94525259
0.00000000 0.95160083 0.94516899
0.00000000 0.95060389 0.94500030
0.72449841 0.94851729 0.94465892
0.94396381 0.94396381 0.94396381
