sample/src/main/assets/lut/LinearTransformation/HLG_BT2020_to_Linear_BT709.cube
TITLE "HLG_BT2020_to_Linear_BT709"
LUT_3D_SIZE 33
# HLG BT2020 HDR to Linear BT709 SDR by Francesco Bucciantini
0.00000000 0.00000000 0.00000000
0.01034588 0.00000000 0.00000000
0.04138350 0.00000000 0.00000000
0.09291391 0.00000000 0.00000000
0.14962874 0.00000000 0.00000000
0.20492774 0.00000000 0.00000000
0.25912403 0.00000000 0.00000000
0.31242016 0.00000000 0.00000000
0.36495763 0.00000000 0.00000000
0.41684068 0.00000000 0.00000000
0.46729337 0.00000000 0.00000000
0.51197657 0.00000000 0.00000000
0.55129371 0.00000000 0.00000000
0.58618761 0.00000000 0.00000000
0.61738141 0.00000000 0.00000000
0.64544099 0.00000000 0.00000000
0.67081687 0.00000000 0.00000000
0.69513974 0.00000000 0.00000000
0.71963521 0.00000000 0.00000000
0.74407904 0.00000000 0.00000000
0.76825269 0.00000000 0.00000000
0.79194754 0.00000000 0.00000000
0.81496777 0.00000000 0.00000000
0.83713216 0.00000000 0.00000000
0.85827486 0.00000000 0.00000000
0.87824542 0.00000000 0.00000000
0.89690815 0.00000000 0.00000000
0.91414121 0.00000000 0.00000000
0.92983540 0.00000000 0.00000000
0.94389277 0.00000000 0.00000000
0.95622539 0.00000000 0.00000000
0.96675397 0.00000000 0.00000000
0.97540671 0.00000000 0.00000000
0.00000000 0.00705866 0.00000000
0.00668451 0.00628263 0.00000000
0.03772214 0.00395456 0.00000000
0.08948055 0.00007443 0.00000000
0.14713883 0.00000000 0.00000000
0.20298409 0.00000000 0.00000000
0.25753549 0.00000000 0.00000000
0.31108035 0.00000000 0.00000000
0.36380139 0.00000000 0.00000000
0.41582527 0.00000000 0.00000000
0.46644660 0.00000000 0.00000000
0.51130265 0.00000000 0.00000000
0.55074776 0.00000000 0.00000000
0.58573870 0.00000000 0.00000000
0.61700759 0.00000000 0.00000000
0.64512630 0.00000000 0.00000000
0.67054943 0.00000000 0.00000000
0.69491255 0.00000000 0.00000000
0.71944400 0.00000000 0.00000000
0.74391955 0.00000000 0.00000000
0.76812085 0.00000000 0.00000000
0.79183952 0.00000000 0.00000000
0.81488005 0.00000000 0.00000000
0.83706157 0.00000000 0.00000000
0.85821860 0.00000000 0.00000000
0.87820103 0.00000000 0.00000000
0.89687352 0.00000000 0.00000000
0.91411455 0.00000000 0.00000000
0.92981516 0.00000000 0.00000000
0.94387770 0.00000000 0.00000000
0.95621443 0.00000000 0.00000000
0.96674624 0.00000000 0.00000000
0.97540151 0.00000000 0.00000000
0.00000000 0.02823464 0.00000000
0.00000000 0.02745862 0.00000000
0.02673805 0.02513054 0.00000000
0.07846743 0.02125041 0.00000000
0.13947750 0.01581823 0.00000000
0.19705925 0.00883400 0.00000000
0.25271714 0.00029771 0.00000000
0.30702845 0.00000000 0.00000000
0.36031130 0.00000000 0.00000000
0.41276426 0.00000000 0.00000000
0.46388469 0.00000000 0.00000000
0.50926654 0.00000000 0.00000000
0.54910005 0.00000000 0.00000000
0.58438500 0.00000000 0.00000000
0.61588108 0.00000000 0.00000000
0.64417847 0.00000000 0.00000000
0.66974428 0.00000000 0.00000000
0.69422884 0.00000000 0.00000000
0.71886875 0.00000000 0.00000000
0.74343993 0.00000000 0.00000000
0.76772450 0.00000000 0.00000000
0.79151486 0.00000000 0.00000000
0.81461647 0.00000000 0.00000000
0.83684951 0.00000000 0.00000000
0.85804961 0.00000000 0.00000000
0.87806772 0.00000000 0.00000000
0.89676954 0.00000000 0.00000000
0.91403447 0.00000000 0.00000000
0.92975442 0.00000000 0.00000000
0.94383246 0.00000000 0.00000000
0.95618152 0.00000000 0.00000000
0.96672306 0.00000000 0.00000000
0.97538592 0.00000000 0.00000000
0.00000000 0.06352794 0.00000000
0.00000000 0.06275192 0.00000000
0.00843123 0.06042384 0.00000000
0.06016061 0.05654371 0.00000000
0.12599338 0.05111153 0.00000000
0.18684895 0.04412730 0.00000000
0.24450221 0.03559102 0.00000000
0.30016322 0.02550268 0.00000000
0.35442133 0.01386229 0.00000000
0.40761223 0.00066986 0.00000000
0.45954111 0.00000000 0.00000000
0.50582430 0.00000000 0.00000000
0.54632050 0.00000000 0.00000000
0.58210529 0.00000000 0.00000000
0.61398654 0.00000000 0.00000000
0.64258617 0.00000000 0.00000000
0.66839289 0.00000000 0.00000000
0.69308216 0.00000000 0.00000000
0.71790469 0.00000000 0.00000000
0.74263665 0.00000000 0.00000000
0.76706107 0.00000000 0.00000000
0.79097172 0.00000000 0.00000000
0.81417571 0.00000000 0.00000000
0.83649506 0.00000000 0.00000000
0.85776724 0.00000000 0.00000000
0.87784505 0.00000000 0.00000000
0.89659590 0.00000000 0.00000000
0.91390078 0.00000000 0.00000000
0.92965302 0.00000000 0.00000000
0.94375696 0.00000000 0.00000000
0.95612661 0.00000000 0.00000000
0.96668438 0.00000000 0.00000000
0.97535989 0.00000000 0.00000000
0.00000000 0.11032981 0.00000000
0.00000000 0.10968133 0.00000000
0.00000000 0.10772093 0.00000000
0.03453106 0.10440213 0.00000000
0.10526192 0.09964144 0.00000000
0.17175665 0.09330764 0.00000000
0.23258074 0.08520200 0.00000000
0.29030215 0.07491330 0.00000000
0.34601474 0.06327292 0.00000000
0.40028992 0.05008048 0.00000000
0.45329910 0.03533599 0.00000000
0.50089949 0.01903945 0.00000000
0.54235712 0.00119086 0.00000000
0.57886310 0.00000000 0.00000000
0.61129768 0.00000000 0.00000000
0.64033003 0.00000000 0.00000000
0.66648070 0.00000000 0.00000000
0.69146158 0.00000000 0.00000000
0.71654367 0.00000000 0.00000000
0.74150374 0.00000000 0.00000000
0.76612624 0.00000000 0.00000000
0.79020699 0.00000000 0.00000000
0.81355557 0.00000000 0.00000000
0.83599666 0.00000000 0.00000000
0.85737041 0.00000000 0.00000000
0.87753226 0.00000000 0.00000000
0.89635208 0.00000000 0.00000000
0.91371312 0.00000000 0.00000000
0.92951073 0.00000000 0.00000000
0.94365103 0.00000000 0.00000000
0.95604958 0.00000000 0.00000000
0.96663012 0.00000000 0.00000000
0.97532340 0.00000000 0.00000000
0.00000000 0.15688810 0.00000000
0.00000000 0.15638111 0.00000000
0.00000000 0.15485269 0.00000000
0.00157878 0.15228004 0.00000000
0.07399991 0.14862329 0.00000000
0.15069304 0.14382247 0.00000000
0.21643688 0.13779247 0.00000000
0.27715643 0.13041486 0.00000000
0.33491237 0.12152460 0.00000000
0.39067815 0.11088761 0.00000000
0.44498188 0.09816014 0.00000000
0.49437793 0.08280923 0.00000000
0.53713309 0.06471880 0.00000000
0.57460495 0.04531816 0.00000000
0.60777624 0.02436546 0.00000000
0.63738200 0.00186071 0.00000000
0.66398674 0.00000000 0.00000000
0.68935135 0.00000000 0.00000000
0.71477406 0.00000000 0.00000000
0.74003268 0.00000000 0.00000000
0.76491384 0.00000000 0.00000000
0.78921627 0.00000000 0.00000000
0.81275294 0.00000000 0.00000000
0.83535211 0.00000000 0.00000000
0.85685760 0.00000000 0.00000000
0.87712831 0.00000000 0.00000000
0.89603737 0.00000000 0.00000000
0.91347100 0.00000000 0.00000000
0.92932722 0.00000000 0.00000000
0.94351446 0.00000000 0.00000000
0.95595030 0.00000000 0.00000000
0.96656020 0.00000000 0.00000000
0.97527637 0.00000000 0.00000000
0.00000000 0.20251798 0.00000000
0.00000000 0.20210327 0.00000000
0.00000000 0.20085494 0.00000000
0.00000000 0.19876015 0.00000000
0.03372490 0.19579682 0.00000000
0.12155350 0.19193249 0.00000000
0.19521821 0.18712249 0.00000000
0.26028448 0.18130736 0.00000000
0.32085248 0.17440884 0.00000000
0.37860782 0.16632396 0.00000000
0.43441301 0.15691596 0.00000000
0.48609938 0.14599974 0.00000000
0.53054210 0.13331766 0.00000000
0.56925767 0.11849598 0.00000000
0.60337028 0.10095980 0.00000000
0.63370429 0.07950598 0.00000000
0.66088288 0.05544918 0.00000000
0.68673050 0.02831456 0.00000000
0.71258039 0.00000000 0.00000000
0.73821222 0.00000000 0.00000000
0.76341577 0.00000000 0.00000000
0.78799377 0.00000000 0.00000000
0.81176370 0.00000000 0.00000000
0.83455856 0.00000000 0.00000000
0.85622681 0.00000000 0.00000000
0.87663181 0.00000000 0.00000000
0.89565082 0.00000000 0.00000000
0.91317379 0.00000000 0.00000000
0.92910206 0.00000000 0.00000000
0.94334695 0.00000000 0.00000000
0.95582856 0.00000000 0.00000000
0.96647448 0.00000000 0.00000000
0.97521873 0.00000000 0.00000000
0.00000000 0.24738998 0.00000000
0.00000000 0.24704003 0.00000000
0.00000000 0.24598759 0.00000000
0.00000000 0.24422473 0.00000000
0.00000000 0.24173798 0.00000000
0.07924005 0.23850776 0.00000000
0.16743919 0.23450766 0.00000000
0.23900386 0.22970333 0.00000000
0.30345625 0.22405099 0.00000000
0.36384390 0.21749525 0.00000000
0.42156879 0.20996608 0.00000000
0.47584468 0.20137453 0.00000000
0.52244146 0.19160624 0.00000000
0.56272442 0.18051180 0.00000000
0.59801186 0.16789125 0.00000000
0.62924787 0.15346839 0.00000000
0.65713293 0.13684474 0.00000000
0.68357218 0.11618362 0.00000000
0.70994299 0.08786959 0.00000000
0.73602811 0.04927522 0.00000000
0.76162181 0.00344044 0.00000000
0.78653223 0.00000000 0.00000000
0.81058277 0.00000000 0.00000000
0.83361243 0.00000000 0.00000000
0.85547556 0.00000000 0.00000000
0.87604106 0.00000000 0.00000000
0.89519126 0.00000000 0.00000000
0.91282069 0.00000000 0.00000000
0.92883471 0.00000000 0.00000000
0.94314816 0.00000000 0.00000000
0.95568414 0.00000000 0.00000000
0.96637281 0.00000000 0.00000000
0.97515037 0.00000000 0.00000000
0.00000000 0.29162324 0.00000000
0.00000000 0.29132114 0.00000000
0.00000000 0.29041312 0.00000000
0.00000000 0.28889398 0.00000000
0.00000000 0.28675489 0.00000000
0.02431959 0.28398314 0.00000000
0.13017830 0.28056179 0.00000000
0.21220995 0.27646914 0.00000000
0.28216623 0.27167804 0.00000000
0.34605934 0.26615497 0.00000000
0.40624978 0.25985874 0.00000000
0.46331621 0.25273884 0.00000000
0.51264198 0.24473309 0.00000000
0.55487913 0.23576438 0.00000000
0.59161373 0.22573611 0.00000000
0.62395049 0.21452536 0.00000000
0.65269133 0.20197269 0.00000000
0.67984286 0.18699847 0.00000000
0.70683748 0.16780942 0.00000000
0.73346279 0.14248870 0.00000000
0.75951942 0.10728493 0.00000000
0.78482279 0.05473380 0.00000000
0.80920392 0.00000000 0.00000000
0.83250940 0.00000000 0.00000000
0.85460088 0.00000000 0.00000000
0.87535402 0.00000000 0.00000000
0.89465731 0.00000000 0.00000000
0.91241077 0.00000000 0.00000000
0.92852454 0.00000000 0.00000000
0.94291765 0.00000000 0.00000000
0.95551675 0.00000000 0.00000000
0.96625501 0.00000000 0.00000000
0.97507117 0.00000000 0.00000000
0.00000000 0.33530552 0.00000000
0.00000000 0.33504016 0.00000000
0.00000000 0.33424288 0.00000000
0.00000000 0.33291008 0.00000000
0.00000000 0.33103567 0.00000000
0.00000000 0.32861095 0.00000000
0.07588103 0.32562439 0.00000000
0.17795019 0.32206138 0.00000000
0.25612924 0.31790387 0.00000000
0.32479095 0.31312991 0.00000000
0.38817159 0.30771303 0.00000000
0.44810762 0.30162149 0.00000000
0.50089296 0.29481721 0.00000000
0.54555837 0.28725443 0.00000000
0.58406472 0.27887792 0.00000000
0.61773389 0.26962051 0.00000000
0.64750141 0.25939967 0.00000000
0.67550124 0.24742600 0.00000000
0.70323404 0.23247081 0.00000000
0.73049494 0.21350719 0.00000000
0.75709352 0.18890477 0.00000000
0.78285486 0.15575257 0.00000000
0.80761976 0.10762534 0.00000000
0.83124435 0.03229924 0.00000000
0.85359923 0.00000000 0.00000000
0.87456827 0.00000000 0.00000000
0.89404733 0.00000000 0.00000000
0.91194291 0.00000000 0.00000000
0.92817082 0.00000000 0.00000000
0.94265494 0.00000000 0.00000000
0.95532607 0.00000000 0.00000000
0.96612087 0.00000000 0.00000000
0.97498099 0.00000000 0.00000000
0.00000000 0.37850408 0.00000000
0.00000000 0.37826778 0.00000000
0.00000000 0.37755800 0.00000000
0.00000000 0.37637216 0.00000000
0.00000000 0.37470588 0.00000000
0.00000000 0.37255293 0.00000000
0.00631511 0.36990513 0.00000000
0.13217412 0.36675216 0.00000000
0.22394837 0.36308139 0.00000000
0.29936032 0.35887762 0.00000000
0.36694368 0.35412275 0.00000000
0.42985214 0.34879541 0.00000000
0.48685957 0.34287038 0.00000000
0.53454979 0.33631799 0.00000000
0.57522334 0.32910326 0.00000000
0.61050006 0.32118481 0.00000000
0.64149311 0.31251346 0.00000000
0.67049680 0.30245663 0.00000000
0.69909658 0.29006254 0.00000000
0.72709901 0.27464144 0.00000000
0.75432614 0.25519510 0.00000000
0.78061588 0.23018170 0.00000000
0.80582158 0.19696900 0.00000000
0.82981129 0.15022250 0.00000000
0.85246652 0.07420825 0.00000000
0.87368102 0.00000000 0.00000000
0.89335942 0.00000000 0.00000000
0.91141583 0.00000000 0.00000000
0.92777268 0.00000000 0.00000000
0.94235946 0.00000000 0.00000000
0.95511172 0.00000000 0.00000000
0.96597014 0.00000000 0.00000000
0.97487969 0.00000000 0.00000000
0.00000000 0.42127206 0.00000000
0.00000000 0.42105929 0.00000000
0.00000000 0.42042032 0.00000000
0.00000000 0.41935324 0.00000000
0.00000000 0.41785481 0.00000000
0.00000000 0.41592041 0.00000000
0.00000000 0.41354401 0.00000000
0.06392285 0.41071807 0.00000000
0.18306613 0.40743338 0.00000000
0.26871915 0.40367897 0.00000000
0.34201398 0.39944190 0.00000000
0.40867624 0.39470700 0.00000000
0.47008785 0.38945666 0.00000000
0.52157496 0.38367039 0.00000000
0.56490864 0.37732446 0.00000000
0.60212607 0.37039131 0.00000000
0.63457989 0.36283887 0.00000000
0.66476792 0.35413484 0.00000000
0.69438160 0.34349456 0.00000000
0.72324449 0.33039978 0.00000000
0.75119603 0.31413810 0.00000000
0.77809114 0.29368785 0.00000000
0.80379927 0.26749218 0.00000000
0.82820326 0.23294937 0.00000000
0.85119800 0.18498667 0.00000000
0.87268907 0.11007116 0.00000000
0.89259142 0.00000000 0.00000000
0.91082810 0.00000000 0.00000000
0.92732917 0.00000000 0.00000000
0.94203056 0.00000000 0.00000000
0.95487328 0.00000000 0.00000000
0.96580254 0.00000000 0.00000000
0.97476707 0.00000000 0.00000000
0.00000000 0.46306262 0.00000000
0.00000000 0.46287964 0.00000000
0.00000000 0.46232969 0.00000000
0.00000000 0.46140976 0.00000000
0.00000000 0.46011478 0.00000000
0.00000000 0.45843753 0.00000000
0.00000000 0.45636850 0.00000000
0.00000000 0.45389578 0.00000000
0.12775501 0.45100479 0.00000000
0.23110768 0.44767803 0.00000000
0.31256739 0.44389476 0.00000000
0.38417030 0.43963813 0.00000000
0.44994858 0.43492345 0.00000000
0.50626356 0.42974039 0.00000000
0.55288715 0.42407204 0.00000000
0.59245685 0.41789896 0.00000000
0.62665454 0.41119894 0.00000000
0.65823942 0.40351028 0.00000000
0.68903671 0.39416169 0.00000000
0.71889508 0.38273745 0.00000000
0.74767816 0.36868435 0.00000000
0.77526347 0.35124355 0.00000000
0.80154108 0.32933009 0.00000000
0.82641230 0.30129781 0.00000000
0.84978828 0.26441463 0.00000000
0.87158876 0.21341800 0.00000000
0.89174087 0.13466030 0.00000000
0.91017808 0.00000000 0.00000000
0.92683918 0.00000000 0.00000000
0.94166753 0.00000000 0.00000000
0.95461029 0.00000000 0.00000000
0.96561776 0.00000000 0.00000000
0.97464293 0.00000000 0.00000000
0.00000000 0.50083027 0.00000000
0.00000000 0.50067913 0.00000000
0.00000000 0.50022498 0.00000000
0.00000000 0.49946571 0.00000000
0.00000000 0.49839770 0.00000000
0.00000000 0.49701587 0.00000000
0.00000000 0.49531352 0.00000000
0.00000000 0.49328230 0.00000000
0.04336551 0.49091202 0.00000000
0.18314398 0.48819056 0.00000000
0.27732069 0.48510363 0.00000000
0.35568284 0.48163453 0.00000000
0.42588990 0.47776389 0.00000000
0.48811306 0.47346929 0.00000000
0.53885343 0.46872486 0.00000000
0.58129507 0.46350070 0.00000000
0.61758342 0.45776229 0.00000000
0.65081924 0.45108855 0.00000000
0.68299874 0.44284484 0.00000000
0.71400759 0.43269092 0.00000000
0.74374310 0.42027909 0.00000000
0.77211287 0.40500716 0.00000000
0.79903348 0.38604697 0.00000000
0.82442925 0.36221245 0.00000000
0.84823119 0.33169957 0.00000000
0.87037596 0.29150264 0.00000000
0.89080503 0.23579234 0.00000000
0.90946391 0.14921010 0.00000000
0.92630151 0.00000000 0.00000000
0.94126957 0.00000000 0.00000000
0.95432220 0.00000000 0.00000000
0.96541547 0.00000000 0.00000000
0.97450707 0.00000000 0.00000000
0.00000000 0.53474220 0.00000000
0.00000000 0.53461577 0.00000000
0.00000000 0.53423596 0.00000000
0.00000000 0.53360121 0.00000000
0.00000000 0.53270892 0.00000000
0.00000000 0.53155539 0.00000000
0.00000000 0.53013580 0.00000000
0.00000000 0.52844410 0.00000000
0.00000000 0.52647301 0.00000000
0.11643458 0.52421387 0.00000000
0.23404598 0.52165650 0.00000000
0.32223791 0.51878914 0.00000000
0.39819310 0.51559819 0.00000000
0.46642329 0.51206806 0.00000000
0.52240059 0.50818090 0.00000000
0.56838629 0.50391632 0.00000000
0.60719852 0.49925099 0.00000000
0.64239395 0.49385058 0.00000000
0.67619122 0.48721786 0.00000000
0.70853055 0.47901528 0.00000000
0.73935624 0.46878236 0.00000000
0.76861611 0.45587257 0.00000000
0.79626087 0.43935418 0.00000000
0.82224369 0.41850747 0.00000000
0.84651977 0.39225661 0.00000000
0.86904603 0.35856354 0.00000000
0.88978080 0.31398736 0.00000000
0.90868356 0.25169485 0.00000000
0.92571480 0.15263168 0.00000000
0.94083578 0.00000000 0.00000000
0.95400845 0.00000000 0.00000000
0.96519529 0.00000000 0.00000000
0.97435923 0.00000000 0.00000000
0.00000000 0.56538197 0.00000000
0.00000000 0.56527505 0.00000000
0.00000000 0.56495391 0.00000000
0.00000000 0.56441740 0.00000000
0.00000000 0.56366358 0.00000000
0.00000000 0.56268971 0.00000000
0.00000000 0.56149223 0.00000000
0.00000000 0.56006669 0.00000000
0.00000000 0.55840773 0.00000000
0.01420901 0.55650900 0.00000000
0.17818894 0.55436310 0.00000000
0.28226055 0.55196149 0.00000000
0.36617378 0.54929436 0.00000000
0.44018904 0.54635054 0.00000000
0.50297382 0.54311731 0.00000000
0.55339710 0.53958028 0.00000000
0.59528604 0.53572310 0.00000000
0.63282262 0.53127430 0.00000000
0.66852111 0.52583425 0.00000000
0.70240241 0.51914358 0.00000000
0.73447683 0.51085499 0.00000000
0.76474617 0.50049209 0.00000000
0.79320534 0.48738151 0.00000000
0.81984372 0.47053462 0.00000000
0.84464613 0.44842710 0.00000000
0.86759375 0.41924741 0.00000000
0.88866472 0.38156194 0.00000000
0.90783475 0.33133487 0.00000000
0.92507755 0.26010001 0.00000000
0.94036518 0.14154009 0.00000000
0.95366839 0.00000000 0.00000000
0.96495680 0.00000000 0.00000000
0.97419915 0.00000000 0.00000000
0.00000000 0.59321478 0.00000000
0.00000000 0.59312351 0.00000000
0.00000000 0.59284938 0.00000000
0.00000000 0.59239155 0.00000000
0.00000000 0.59174853 0.00000000
0.00000000 0.59091826 0.00000000
0.00000000 0.58989806 0.00000000
0.00000000 0.58868459 0.00000000
0.00000000 0.58727382 0.00000000
0.00000000 0.58566100 0.00000000
0.09673089 0.58384064 0.00000000
0.23290004 0.58180637 0.00000000
0.32866183 0.57955096 0.00000000
0.40933042 0.57706619 0.00000000
0.47979371 0.57434279 0.00000000
0.53588130 0.57137027 0.00000000
0.58156980 0.56813687 0.00000000
0.62192822 0.56441816 0.00000000
0.65987424 0.55988654 0.00000000
0.69554918 0.55433703 0.00000000
0.72905669 0.54749919 0.00000000
0.76047156 0.53900875 0.00000000
0.78984627 0.52836239 0.00000000
0.81721581 0.51484221 0.00000000
0.84260138 0.49738212 0.00000000
0.86601326 0.47431393 0.00000000
0.88745295 0.44283657 0.00000000
0.90691495 0.40017015 0.00000000
0.92438811 0.34267322 0.00000000
0.93985670 0.25919797 0.00000000
0.95330132 0.10746725 0.00000000
0.96469955 0.00000000 0.00000000
0.97402655 0.00000000 0.00000000
0.00000000 0.62001605 0.00000000
0.00000000 0.61993813 0.00000000
0.00000000 0.61970416 0.00000000
0.00000000 0.61931348 0.00000000
0.00000000 0.61876497 0.00000000
0.00000000 0.61805708 0.00000000
0.00000000 0.61718778 0.00000000
0.00000000 0.61615454 0.00000000
0.00000000 0.61495435 0.00000000
0.00000000 0.61358365 0.00000000
0.00000000 0.61203831 0.00000000
0.16334718 0.61031361 0.00000000
0.28082598 0.60840418 0.00000000
0.37151744 0.60630394 0.00000000
0.44992068 0.60400607 0.00000000
0.51392127 0.60150290 0.00000000
0.56469372 0.59878588 0.00000000
0.60871409 0.59566864 0.00000000
0.64950789 0.59188101 0.00000000
0.68741161 0.58725929 0.00000000
0.72267160 0.58159019 0.00000000
0.75546895 0.57459078 0.00000000
0.78593654 0.56587750 0.00000000
0.81417100 0.55491608 0.00000000
0.84024123 0.54093686 0.00000000
0.86419475 0.52278245 0.00000000
0.88606236 0.49861164 0.00000000
0.90586172 0.46526267 0.00000000
0.92360007 0.41748490 0.00000000
0.93927634 0.35124679 0.00000000
0.95288282 0.25207199 0.00000000
0.96440649 0.04302765 0.00000000
0.97382999 0.00000000 0.00000000
0.00000000 0.64714488 0.00000000
0.00000000 0.64707894 0.00000000
0.00000000 0.64688096 0.00000000
0.00000000 0.64655045 0.00000000
0.00000000 0.64608657 0.00000000
0.00000000 0.64548817 0.00000000
0.00000000 0.64475373 0.00000000
0.00000000 0.64388137 0.00000000
0.00000000 0.64286885 0.00000000
0.00000000 0.64171354 0.00000000
0.00000000 0.64041240 0.00000000
0.03404918 0.63896193 0.00000000
0.21189317 0.63735821 0.00000000
0.32096799 0.63559679 0.00000000
0.40900488 0.63367271 0.00000000
0.48398405 0.63158043 0.00000000
0.54228179 0.62931376 0.00000000
0.59149896 0.62671886 0.00000000
0.63620757 0.62357408 0.00000000
0.67709850 0.61974902 0.00000000
0.71465990 0.61507568 0.00000000
0.74924296 0.60933422 0.00000000
0.78110326 0.60223158 0.00000000
0.81042775 0.59336793 0.00000000
0.83735296 0.58218219 0.00000000
0.86197776 0.56785841 0.00000000
0.88437239 0.54915480 0.00000000
0.90458506 0.52406472 0.00000000
0.92264688 0.48906710 0.00000000
0.93857554 0.43722213 0.00000000
0.95237816 0.36120397 0.00000000
0.96405341 0.24334771 0.00000000
0.97359329 0.00000000 0.00000000
0.00000000 0.67437258 0.00000000
0.00000000 0.67431724 0.00000000
0.00000000 0.67415111 0.00000000
0.00000000 0.67387382 0.00000000
0.00000000 0.67348477 0.00000000
0.00000000 0.67298308 0.00000000
0.00000000 0.67236765 0.00000000
0.00000000 0.67163711 0.00000000
0.00000000 0.67078979 0.00000000
0.00000000 0.66982379 0.00000000
0.00000000 0.66873686 0.00000000
0.00000000 0.66752649 0.00000000
0.09039883 0.66618980 0.00000000
0.24882642 0.66472359 0.00000000
0.35416980 0.66312427 0.00000000
0.44118317 0.66138788 0.00000000
0.51148167 0.65951001 0.00000000
0.56848400 0.65736435 0.00000000
0.61879845 0.65476997 0.00000000
0.66382094 0.65162325 0.00000000
0.70447993 0.64779199 0.00000000
0.74141505 0.64310532 0.00000000
0.77507816 0.63733876 0.00000000
0.80579392 0.63019159 0.00000000
0.83379793 0.62125117 0.00000000
0.85926179 0.60993425 0.00000000
0.88231004 0.59538518 0.00000000
0.90303203 0.57628697 0.00000000
0.92149035 0.55047974 0.00000000
0.93772702 0.51409494 0.00000000
0.95176808 0.45923432 0.00000000
0.96362707 0.37272914 0.00000000
0.97330766 0.23258935 0.00000000
0.00000000 0.70147558 0.00000000
0.00000000 0.70142952 0.00000000
0.00000000 0.70129124 0.00000000
0.00000000 0.70106047 0.00000000
0.00000000 0.70073678 0.00000000
0.00000000 0.70031953 0.00000000
0.00000000 0.69980792 0.00000000
0.00000000 0.69920094 0.00000000
0.00000000 0.69849740 0.00000000
0.00000000 0.69769590 0.00000000
0.00000000 0.69679483 0.00000000
0.00000000 0.69579237 0.00000000
0.00000000 0.69468646 0.00000000
0.12617284 0.69347480 0.00000000
0.27582587 0.69215484 0.00000000
0.38042324 0.69072374 0.00000000
0.46690539 0.68917839 0.00000000
0.53655195 0.68741567 0.00000000
0.59537380 0.68528863 0.00000000
0.64636253 0.68271508 0.00000000
0.69132998 0.67959113 0.00000000
0.73144320 0.67578393 0.00000000
0.76748744 0.67112118 0.00000000
0.80000774 0.66537565 0.00000000
0.82939074 0.65824157 0.00000000
0.85591451 0.64929707 0.00000000
0.87978049 0.63794187 0.00000000
0.90113462 0.62328797 0.00000000
0.92008183 0.60395420 0.00000000
0.93669623 0.57764370 0.00000000
0.95102842 0.54016226 0.00000000
0.96311090 0.48269046 0.00000000
0.97296208 0.38602103 0.00000000
0.00000000 0.72823988 0.00000000
0.00000000 0.72820184 0.00000000
0.00000000 0.72808764 0.00000000
0.00000000 0.72789709 0.00000000
0.00000000 0.72762988 0.00000000
0.00000000 0.72728556 0.00000000
0.00000000 0.72686352 0.00000000
0.00000000 0.72636307 0.00000000
0.00000000 0.72578333 0.00000000
0.00000000 0.72512331 0.00000000
0.00000000 0.72438186 0.00000000
0.00000000 0.72355766 0.00000000
0.00000000 0.72264926 0.00000000
0.00000000 0.72165502 0.00000000
0.14210718 0.72057313 0.00000000
0.29274465 0.71940160 0.00000000
0.39911482 0.71813822 0.00000000
0.48965234 0.71669930 0.00000000
0.56257087 0.71496602 0.00000000
0.62272517 0.71287340 0.00000000
0.67396318 0.71033989 0.00000000
0.71851994 0.70726218 0.00000000
0.75779311 0.70350780 0.00000000
0.79270292 0.69890444 0.00000000
0.82387788 0.69322404 0.00000000
0.85175840 0.68615839 0.00000000
0.87665848 0.67728005 0.00000000
0.89880415 0.66597699 0.00000000
0.91835861 0.65133682 0.00000000
0.93543906 0.63192639 0.00000000
