sample/src/main/assets/lut/LinearTransformation/PQ_to_BT709_v2.cube
TITLE "PQ_to_BT709_slope_v2"
LUT_3D_SIZE 9
# Crated by Francesco Bucciantini
0.000000 0.000000 0.000000
0.184872 0.000000 0.000000
0.356901 0.000000 0.000000
0.564812 0.000000 0.000000
0.761839 0.000000 0.000000
0.879999 0.000000 0.000000
0.938892 0.489746 0.406483
0.985704 0.686558 0.600492
0.992550 0.845392 0.785415
0.000000 0.144610 0.000000
0.139158 0.133023 0.000000
0.341251 0.097861 0.000000
0.558311 0.000000 0.000000
0.760243 0.000000 0.000000
0.878768 0.000000 0.000000
0.938868 0.500552 0.407002
0.985701 0.690404 0.600718
0.992550 0.846300 0.785471
0.000000 0.299495 0.000000
0.000000 0.295203 0.000000
0.291835 0.283255 0.000000
0.539925 0.242611 0.000000
0.754863 0.000000 0.000000
0.875475 0.000000 0.000000
0.938801 0.525613 0.408014
0.985695 0.700151 0.601266
0.992549 0.848675 0.785617
0.000000 0.494418 0.000000
0.000000 0.492698 0.000000
0.000000 0.487639 0.000000
0.483244 0.471158 0.000000
0.732226 0.429040 0.000000
0.865344 0.402310 0.076365
0.938612 0.592779 0.417521
0.985674 0.725666 0.602421
0.992548 0.855419 0.786014
0.000000 0.673817 0.000000
0.000000 0.673206 0.000000
0.000000 0.671617 0.000000
0.299411 0.667205 0.000000
0.675228 0.658122 0.023305
0.836197 0.663556 0.304410
0.938036 0.704713 0.428445
0.985619 0.777933 0.614459
0.992544 0.871850 0.786799
0.000000 0.805134 0.292533
0.000000 0.805220 0.293594
0.000000 0.805448 0.296398
0.250564 0.806130 0.304613
0.627819 0.808029 0.325898
0.827942 0.813093 0.376373
0.936473 0.825792 0.476553
0.985453 0.854124 0.624976
0.992535 0.903936 0.794756
0.000000 0.918101 0.459619
0.000000 0.918120 0.460140
0.000000 0.918170 0.461525
0.000000 0.918322 0.465645
0.441570 0.918747 0.476779
0.801479 0.919899 0.503077
0.931833 0.922955 0.561436
0.984996 0.930669 0.674539
0.992508 0.947752 0.804651
0.000000 0.978498 0.657378
0.000000 0.978500 0.657560
0.000000 0.978507 0.658045
0.000000 0.978529 0.659492
0.000000 0.978589 0.663507
0.642278 0.978753 0.674055
0.915567 0.979195 0.699178
0.983509 0.980367 0.752148
0.992433 0.983245 0.834530
0.000000 0.991582 0.825389
0.000000 0.991582 0.825433
0.000000 0.991582 0.825548
0.000000 0.991583 0.825896
0.000000 0.991585 0.826870
0.000000 0.991591 0.829505
0.792763 0.991609 0.836412
0.977070 0.991656 0.853108
0.992202 0.991793 0.888769
0.000000 0.000000 0.143342
0.179951 0.000000 0.141703
0.354988 0.000000 0.137233
0.564005 0.000000 0.122499
0.761643 0.000000 0.080358
0.880113 0.000000 0.106255
0.938907 0.491989 0.425703
0.985706 0.687340 0.608597
0.992550 0.845576 0.787440
0.000000 0.143866 0.133974
0.132207 0.132207 0.132207
0.338973 0.097426 0.127226
0.557405 0.000000 0.112785
0.760049 0.000000 0.067791
0.878889 0.000000 0.108722
0.938883 0.502623 0.426249
0.985703 0.691164 0.608821
0.992550 0.846482 0.787496
0.000000 0.299210 0.106298
0.000000 0.294906 0.104362
0.289233 0.282945 0.099139
0.539708 0.240961 0.090841
0.754850 0.000000 0.049184
0.875584 0.000000 0.116240
0.938816 0.527324 0.427375
0.985696 0.700859 0.609369
0.992549 0.848852 0.787641
0.000000 0.494303 0.000000
0.000000 0.492582 0.000000
0.000000 0.487682 0.000000
0.482321 0.471256 0.000000
0.732041 0.429739 0.000000
0.865548 0.402868 0.181114
0.938624 0.594201 0.434658
0.985675 0.726249 0.610553
0.992548 0.855582 0.788038
0.000000 0.674363 0.000000
0.000000 0.673757 0.000000
0.000000 0.672180 0.000000
0.298100 0.667808 0.026157
0.675356 0.658817 0.139514
0.836421 0.664378 0.331859
0.938058 0.705416 0.447930
0.985620 0.778290 0.621309
0.992544 0.871982 0.788830
0.000000 0.805416 0.322959
0.000000 0.805502 0.323874
0.000000 0.805729 0.326294
0.253085 0.806410 0.333422
0.628243 0.808303 0.352140
0.828022 0.813354 0.397684
0.936497 0.826019 0.491320
0.985455 0.854293 0.632539
0.992535 0.904014 0.796464
0.000000 0.918164 0.475099
0.000000 0.918182 0.475575
0.000000 0.918233 0.476835
0.000000 0.918384 0.480551
0.442631 0.918809 0.490572
0.801586 0.919959 0.514481
0.931850 0.923012 0.571525
0.984999 0.930717 0.679617
0.992508 0.947786 0.806542
0.000000 0.978507 0.662901
0.000000 0.978509 0.663076
0.000000 0.978516 0.663543
0.000000 0.978538 0.664936
0.000000 0.978598 0.668802
0.642663 0.978762 0.678972
0.915591 0.979203 0.703272
0.983511 0.980375 0.754835
0.992433 0.983251 0.835638
0.000000 0.991582 0.826722
0.000000 0.991582 0.826765
0.000000 0.991583 0.826880
0.000000 0.991583 0.827222
0.000000 0.991586 0.828182
0.000000 0.991592 0.830779
0.792879 0.991609 0.837592
0.977073 0.991656 0.854077
0.992202 0.991794 0.889367
0.000000 0.000000 0.297711
0.165955 0.000000 0.297085
0.349817 0.000000 0.295406
0.561849 0.000000 0.290265
0.761114 0.000000 0.275123
0.880404 0.000000 0.277351
0.938947 0.497777 0.470736
0.985710 0.689401 0.628317
0.992550 0.846062 0.792653
0.000000 0.141858 0.294219
0.111308 0.129951 0.293580
0.333405 0.094996 0.291871
0.555156 0.000000 0.286682
0.759513 0.000000 0.270995
0.879192 0.000000 0.278559
0.938922 0.507977 0.471319
0.985707 0.693169 0.628537
0.992550 0.846963 0.792709
0.000000 0.298447 0.284582
0.000000 0.294127 0.283913
0.282117 0.282117 0.282117
0.537579 0.240586 0.276769
0.754688 0.000000 0.261273
0.875920 0.000000 0.281543
0.938857 0.531765 0.472633
0.985700 0.702727 0.629081
0.992549 0.849320 0.792853
0.000000 0.493997 0.252315
0.000000 0.492272 0.251517
0.000000 0.487560 0.249374
0.479770 0.471434 0.245689
0.732618 0.429045 0.254144
0.865990 0.404780 0.307907
0.938658 0.597958 0.476113
0.985680 0.727789 0.630323
0.992548 0.856014 0.793248
0.000000 0.675781 0.230369
0.000000 0.675187 0.231695
0.000000 0.673643 0.235310
0.294419 0.669375 0.247001
0.675676 0.660625 0.282959
0.836859 0.666550 0.388123
0.938117 0.707289 0.493293
0.985624 0.779239 0.638273
0.992545 0.872333 0.794056
0.000000 0.806166 0.387909
0.000000 0.806251 0.388597
0.000000 0.806476 0.390421
0.259638 0.807151 0.395821
0.629354 0.809032 0.410357
0.828237 0.814044 0.447015
0.936542 0.826623 0.522524
0.985461 0.854746 0.651255
0.992535 0.904223 0.800889
0.000000 0.918330 0.509509
0.000000 0.918349 0.509876
0.000000 0.918399 0.510851
0.000000 0.918549 0.513733
0.445439 0.918973 0.521572
0.801870 0.920120 0.540665
0.931895 0.923163 0.595765
0.985003 0.930846 0.692041
0.992509 0.947875 0.811434
0.000000 0.978530 0.676661
0.000000 0.978533 0.676820
0.000000 0.978540 0.677243
0.000000 0.978561 0.678507
0.000000 0.978621 0.682019
0.643685 0.978785 0.691288
0.915654 0.979226 0.713606
0.983516 0.980395 0.761708
0.992433 0.983266 0.838516
0.000000 0.991583 0.830186
0.000000 0.991583 0.830228
0.000000 0.991583 0.830338
0.000000 0.991584 0.830667
0.000000 0.991586 0.831592
0.000000 0.991593 0.834093
0.793188 0.991610 0.840662
0.977083 0.991657 0.856607
0.992202 0.991795 0.890937
0.000000 0.000000 0.492126
0.111726 0.000000 0.491887
0.333544 0.000000 0.491194
0.555207 0.000000 0.489138
0.759524 0.000000 0.483168
0.881245 0.000000 0.475977
0.939061 0.513667 0.560952
0.985722 0.695391 0.675226
0.992551 0.847506 0.806846
0.000000 0.135634 0.490718
0.037800 0.123998 0.490459
0.315799 0.087495 0.489773
0.548243 0.000000 0.487695
0.757901 0.000000 0.481628
0.880051 0.000000 0.475741
0.939037 0.522736 0.561526
0.985719 0.698998 0.675429
0.992551 0.848392 0.806899
0.000000 0.296139 0.486881
0.000000 0.291768 0.486617
0.257941 0.279888 0.485909
0.531740 0.237450 0.483769
0.753452 0.000000 0.477557
0.876837 0.000000 0.475452
0.938973 0.544625 0.562982
0.985713 0.708164 0.675944
0.992550 0.850710 0.807039
0.000000 0.493074 0.474657
0.000000 0.491337 0.474369
0.000000 0.486591 0.473597
0.471253 0.471253 0.471253
0.732079 0.431086 0.467279
0.867014 0.411109 0.479923
0.938779 0.608992 0.566305
0.985692 0.732287 0.677246
0.992549 0.857296 0.807428
0.000000 0.679728 0.454458
0.000000 0.679168 0.454756
0.000000 0.677714 0.455598
0.282399 0.673708 0.458521
0.676450 0.665668 0.469788
0.839281 0.672413 0.520620
0.938260 0.712641 0.582187
0.985634 0.782057 0.680512
0.992545 0.873375 0.808269
0.000000 0.808382 0.514393
0.000000 0.808465 0.514746
0.000000 0.808686 0.515686
0.277997 0.809346 0.518466
0.632593 0.811194 0.526145
0.828877 0.816089 0.545390
0.936590 0.828407 0.594176
0.985480 0.856097 0.696589
0.992536 0.904845 0.813157
0.000000 0.918826 0.589680
0.000000 0.918844 0.589964
0.000000 0.918894 0.590719
0.000000 0.919043 0.592964
0.453700 0.919463 0.599154
0.802706 0.920599 0.614913
0.932032 0.923614 0.651882
0.985013 0.931231 0.722088
0.992510 0.948141 0.824701
0.000000 0.978600 0.711200
0.000000 0.978603 0.711323
0.000000 0.978610 0.711650
0.000000 0.978631 0.712628
0.000000 0.978691 0.715352
0.646713 0.978854 0.722593
0.915844 0.979292 0.740363
0.983532 0.980455 0.780124
0.992433 0.983312 0.846558
0.000000 0.991586 0.839845
0.000000 0.991586 0.839882
0.000000 0.991586 0.839980
0.000000 0.991587 0.840276
0.000000 0.991589 0.841105
0.000000 0.991595 0.843351
0.794108 0.991612 0.849268
0.977110 0.991660 0.863752
0.992203 0.991797 0.895435
0.000000 0.000000 0.697093
0.000000 0.000000 0.696980
0.278190 0.000000 0.696808
0.536842 0.000000 0.696123
0.754907 0.000000 0.694230
0.883396 0.000000 0.687145
0.939385 0.552639 0.704301
0.985755 0.710903 0.755935
0.992553 0.851447 0.838203
0.000000 0.129328 0.696547
0.000000 0.106611 0.696552
0.254796 0.065634 0.696341
0.530922 0.000000 0.695662
0.753216 0.000000 0.693762
0.882258 0.000000 0.686617
0.939361 0.561747 0.704473
0.985752 0.714116 0.756082
0.992553 0.852292 0.838251
0.000000 0.289465 0.695407
0.000000 0.284942 0.695324
0.161743 0.273442 0.695097
0.513606 0.228157 0.694424
0.748581 0.000000 0.692504
0.879199 0.000000 0.685321
0.939297 0.583867 0.704911
0.985746 0.722312 0.756468
0.992552 0.854505 0.838378
0.000000 0.490429 0.691643
0.000000 0.488657 0.691557
0.000000 0.483813 0.691327
0.441137 0.468492 0.690633
0.730541 0.427694 0.687475
0.869868 0.419565 0.682662
0.939103 0.636298 0.706098
0.985726 0.744088 0.757574
0.992551 0.860803 0.838739
0.000000 0.688591 0.677466
0.000000 0.688112 0.677409
0.000000 0.686872 0.677270
0.229614 0.683506 0.676977
0.677151 0.677151 0.677151
0.843634 0.686355 0.685205
0.938559 0.726209 0.710424
0.985670 0.789830 0.759944
0.992548 0.876236 0.839597
0.000000 0.814389 0.684923
0.000000 0.814467 0.685073
0.000000 0.814674 0.685472
0.322118 0.815295 0.686664
0.641674 0.817028 0.689978
0.830665 0.821644 0.698709
0.937131 0.833336 0.725181
0.985521 0.859718 0.771017
0.992538 0.906583 0.841553
0.000000 0.920202 0.716020
0.000000 0.920221 0.716138
0.000000 0.920269 0.716453
0.000000 0.920414 0.717396
0.475588 0.920823 0.720025
0.804995 0.921935 0.727121
0.932415 0.924868 0.744386
0.985026 0.932296 0.778095
0.992513 0.948877 0.853553
0.000000 0.978796 0.776233
0.000000 0.978799 0.776305
0.000000 0.978806 0.776494
0.000000 0.978827 0.777061
0.000000 0.978886 0.778647
0.654949 0.979046 0.782906
0.916368 0.979479 0.793748
0.983578 0.980625 0.819463
0.992434 0.983439 0.865584
0.000000 0.991593 0.862367
0.000000 0.991593 0.862395
0.000000 0.991593 0.862470
0.000000 0.991594 0.862695
0.000000 0.991597 0.863326
0.000000 0.991603 0.865039
0.796667 0.991620 0.869583
0.977189 0.991667 0.880928
0.992205 0.991804 0.906637
0.000000 0.000000 0.849114
0.000000 0.000000 0.849095
0.000000 0.000000 0.849017
0.481085 0.000000 0.848889
0.741132 0.000000 0.848429
0.887612 0.000000 0.847138
0.941036 0.631543 0.837142
0.985846 0.745905 0.853910
0.992558 0.861354 0.889560
0.000000 0.095569 0.848978
0.000000 0.052111 0.848983
0.000000 0.000000 0.848911
0.471497 0.000000 0.848781
0.739251 0.000000 0.848314
0.886589 0.000000 0.846714
0.940252 0.645724 0.837056
0.985844 0.748329 0.853952
0.992558 0.862102 0.889593
0.000000 0.280236 0.848653
0.000000 0.279118 0.848628
0.000000 0.254429 0.848633
0.444116 0.200761 0.848482
0.734047 0.000000 0.848012
0.883850 0.000000 0.845605
0.940184 0.659051 0.837194
0.985837 0.754559 0.854062
0.992558 0.864063 0.889681
0.000000 0.482857 0.847812
0.000000 0.480982 0.847792
0.000000 0.475852 0.847738
0.332819 0.460628 0.847573
0.716871 0.405174 0.847111
0.875583 0.385029 0.842477
0.939996 0.692747 0.837599
0.985818 0.771451 0.854378
0.992557 0.869666 0.889941
0.000000 0.698615 0.842905
0.000000 0.698287 0.842801
0.000000 0.697452 0.842526
0.000000 0.695301 0.841724
0.666583 0.692510 0.839647
0.853175 0.707500 0.835572
0.939459 0.757569 0.838764
0.985762 0.808481 0.855190
0.992553 0.883519 0.890637
0.000000 0.829204 0.831561
0.000000 0.829271 0.831602
0.026558 0.829448 0.831711
0.411235 0.829977 0.832035
0.664010 0.831457 0.832948
0.835414 0.835414 0.835414
0.937945 0.845479 0.841954
0.985607 0.868619 0.858061
0.992544 0.911223 0.892089
0.000000 0.923815 0.840583
0.000000 0.923832 0.840619
0.000000 0.923877 0.840717
0.000000 0.924013 0.841011
0.522609 0.924393 0.841834
0.811235 0.925427 0.844063
0.933456 0.928166 0.849918
0.985194 0.935155 0.868033
0.992519 0.950785 0.899038
0.000000 0.979323 0.861804
0.000000 0.979325 0.861833
0.000000 0.979332 0.861908
0.000000 0.979352 0.862134
0.000000 0.979408 0.862771
0.675448 0.979563 0.864499
0.917774 0.979980 0.869145
0.983702 0.981079 0.880608
0.992437 0.983781 0.902589
0.000000 0.991614 0.902665
0.000000 0.991614 0.902681
0.000000 0.991614 0.902723
0.000000 0.991615 0.902848
0.000000 0.991617 0.903200
0.000000 0.991623 0.904160
0.803401 0.991640 0.906729
0.977399 0.991687 0.913408
0.992211 0.991823 0.929318
0.000000 0.000000 0.944036
0.000000 0.000000 0.944034
0.000000 0.000000 0.944021
0.131361 0.000000 0.943977
0.692271 0.000000 0.943900
0.878854 0.000000 0.943646
0.956472 0.330259 0.938821
0.986092 0.808429 0.937184
0.992574 0.883455 0.947287
0.000000 0.000000 0.944010
0.000000 0.000000 0.944010
0.000000 0.000000 0.944000
0.089359 0.000000 0.943954
0.689363 0.000000 0.943879
0.878416 0.000000 0.943623
0.955996 0.400965 0.938616
0.986090 0.809792 0.937195
0.992574 0.884008 0.947295
0.000000 0.251949 0.943935
0.000000 0.240723 0.943937
0.000000 0.187542 0.943939
0.000000 0.000000 0.943894
0.681260 0.000000 0.943820
0.877239 0.000000 0.943561
0.954706 0.521313 0.938071
0.986084 0.813338 0.937224
0.992573 0.885462 0.947316
0.000000 0.469002 0.943749
0.000000 0.469014 0.943741
0.000000 0.468177 0.943726
0.000000 0.437653 0.943726
0.654471 0.373954 0.943640
0.873566 0.000000 0.943376
0.950652 0.691579 0.936459
0.986065 0.823251 0.937310
0.992572 0.889649 0.947379
0.000000 0.688852 0.943260
0.000000 0.688248 0.943256
0.000000 0.686623 0.943245
0.000000 0.681628 0.943212
0.533070 0.667673 0.943117
0.860688 0.669112 0.941247
0.941853 0.815079 0.933534
0.986012 0.846538 0.937545
0.992569 0.900207 0.947546
0.000000 0.859115 0.933221
0.000000 0.859209 0.933167
0.208800 0.859468 0.933023
0.508205 0.860320 0.932593
0.711729 0.862053 0.932219
0.846960 0.864876 0.932772
0.940423 0.871924 0.934261
0.985862 0.888880 0.938216
0.992559 0.922196 0.947999
0.000000 0.932576 0.933959
0.000000 0.932590 0.933968
0.000000 0.932628 0.933991
0.198234 0.932740 0.934059
0.620048 0.933056 0.934252
0.826498 0.933917 0.934781
0.936205 0.936205 0.936205
0.985430 0.942065 0.940030
0.992533 0.955426 0.949550
0.000000 0.980669 0.939264
0.000000 0.980671 0.939271
0.000000 0.980677 0.939291
0.000000 0.980695 0.939352
0.000000 0.980745 0.939523
0.719842 0.980884 0.939989
0.921572 0.981256 0.941249
0.984035 0.982242 0.944601
0.992465 0.984672 0.954888
0.000000 0.991669 0.951734
0.000000 0.991669 0.951739
0.000000 0.991669 0.951754
0.000000 0.991670 0.951797
0.000000 0.991672 0.951919
0.000000 0.991679 0.952255
0.819865 0.991695 0.953161
0.977971 0.991742 0.955624
0.992228 0.991876 0.961795
0.000000 0.000000 0.987099
0.000000 0.000000 0.987099
0.000000 0.000000 0.987098
0.000000 0.000000 0.987095
0.328711 0.000000 0.987084
0.846121 0.000000 0.987065
0.959974 0.000000 0.987001
0.986733 0.888848 0.983934
0.992617 0.922187 0.985261
0.000000 0.000000 0.987097
0.000000 0.000000 0.987097
0.000000 0.000000 0.987096
0.000000 0.000000 0.987093
0.316338 0.000000 0.987082
0.845423 0.000000 0.987063
0.959893 0.000000 0.986999
0.986731 0.889359 0.983935
0.992617 0.922476 0.985262
0.000000 0.000000 0.987090
0.000000 0.000000 0.987090
0.000000 0.000000 0.987090
0.000000 0.000000 0.987088
0.279783 0.000000 0.987076
0.843528 0.000000 0.987057
0.959678 0.000000 0.986993
0.986726 0.890703 0.983939
0.992617 0.923238 0.985265
0.000000 0.439636 0.987070
0.000000 0.435817 0.987070
0.000000 0.423503 0.987070
0.000000 0.358980 0.987071
0.060851 0.145937 0.987060
0.837556 0.000000 0.987041
0.959021 0.000000 0.986976
0.986709 0.894580 0.983950
0.992616 0.925459 0.985274
0.000000 0.675094 0.987024
0.000000 0.675104 0.987023
0.000000 0.675127 0.987021
0.000000 0.674418 0.987017
0.000000 0.645789 0.987017
0.818769 0.578609 0.986995
0.957064 0.000000 0.986929
0.986662 0.904403 0.983981
0.992612 0.931235 0.985300
0.000000 0.843509 0.986900
0.000000 0.843362 0.986900
0.000000 0.842969 0.986899
0.000000 0.841779 0.986896
0.000000 0.838321 0.986887
0.730602 0.828875 0.986863
0.947092 0.910971 0.983926
0.986529 0.925053 0.984065
0.992603 0.944089 0.985367
0.543347 0.950552 0.983532
0.555802 0.950561 0.983533
0.585127 0.950585 0.983535
0.650243 0.950656 0.983544
0.751106 0.950858 0.983568
0.859211 0.951406 0.983633
0.942914 0.952909 0.983811
0.986145 0.956685 0.984294
0.992577 0.965687 0.985563
0.000000 0.983754 0.984201
0.000000 0.983755 0.984202
0.000000 0.983760 0.984205
0.000000 0.983773 0.984212
0.376525 0.983810 0.984234
0.795520 0.983911 0.984295
0.930896 0.984183 0.984459
0.984904 0.984904 0.984904
0.992504 0.986663 0.986082
0.000000 0.991822 0.985886
0.000000 0.991822 0.985886
0.000000 0.991822 0.985888
0.000000 0.991823 0.985895
0.000000 0.991825 0.985912
0.000000 0.991831 0.985959
0.854731 0.991846 0.986087
0.979497 0.991891 0.986434
0.992276 0.992020 0.987338
0.000000 0.000000 0.992819
0.000000 0.000000 0.992819
0.000000 0.000000 0.992819
0.000000 0.000000 0.992819
0.000000 0.000000 0.992818
0.452615 0.000000 0.992816
0.940676 0.000000 0.992812
0.989899 0.000000 0.992799
0.992743 0.967114 0.992264
0.000000 0.000000 0.992819
0.000000 0.000000 0.992819
0.000000 0.000000 0.992819
0.000000 0.000000 0.992819
0.000000 0.000000 0.992818
0.445353 0.000000 0.992816
0.940528 0.000000 0.992812
0.989896 0.000000 0.992799
0.992743 0.967197 0.992264
0.000000 0.000000 0.992818
0.000000 0.000000 0.992818
0.000000 0.000000 0.992818
0.000000 0.000000 0.992818
0.000000 0.000000 0.992818
0.425080 0.000000 0.992815
0.940128 0.000000 0.992812
0.989889 0.000000 0.992798
0.992743 0.967416 0.992264
0.000000 0.052322 0.992817
0.000000 0.000000 0.992817
0.000000 0.000000 0.992817
0.000000 0.000000 0.992817
0.000000 0.000000 0.992816
0.353424 0.000000 0.992814
0.938904 0.000000 0.992810
0.989868 0.000000 0.992797
0.992742 0.968062 0.992265
0.000000 0.647127 0.992813
0.000000 0.645857 0.992813
0.000000 0.642209 0.992813
0.000000 0.628614 0.992813
0.000000 0.553078 0.992813
0.000000 0.310882 0.992811
0.935246 0.000000 0.992807
0.989803 0.000000 0.992794
0.992738 0.969791 0.992266
0.000000 0.833953 0.992803
0.000000 0.833956 0.992803
0.000000 0.833964 0.992803
0.000000 0.833961 0.992803
0.000000 0.833253 0.992802
0.000000 0.812760 0.992802
0.923889 0.765084 0.992798
0.989579 0.000000 0.992784
0.992729 0.973911 0.992271
0.000000 0.940677 0.992779
0.000000 0.940646 0.992779
0.000000 0.940566 0.992779
0.000000 0.940322 0.992779
0.000000 0.939626 0.992778
0.000000 0.937643 0.992776
0.863994 0.932181 0.992772
0.987815 0.978322 0.992208
0.992704 0.981699 0.992283
0.751577 0.988710 0.992203
0.754589 0.988710 0.992203
0.762260 0.988712 0.992203
0.782556 0.988716 0.992204
0.824781 0.988730 0.992205
0.887780 0.988766 0.992208
0.950503 0.988862 0.992217
0.986895 0.989117 0.992243
0.992633 0.989668 0.992317
0.000000 0.992237 0.992304
0.000000 0.992237 0.992304
0.000000 0.992238 0.992304
0.000000 0.992238 0.992305
0.000000 0.992240 0.992306
0.538045 0.992245 0.992309
0.910589 0.992259 0.992318
0.983096 0.992299 0.992343
0.992414 0.992414 0.992414
