sample/src/main/assets/lut/LinearTransformation/PQ_to_BT709_v2.cube
TITLE "PQ_to_BT709_slope_v2"
LUT_3D_SIZE 33
# Crated by Francesco Bucciantini
0.000000 0.000000 0.000000
0.066593 0.000000 0.000000
0.107819 0.000000 0.000000
0.146817 0.000000 0.000000
0.184872 0.000000 0.000000
0.224465 0.000000 0.000000
0.266088 0.000000 0.000000
0.310121 0.000000 0.000000
0.356901 0.000000 0.000000
0.406750 0.000000 0.000000
0.459993 0.000000 0.000000
0.512607 0.000000 0.000000
0.564812 0.000000 0.000000
0.621243 0.000000 0.000000
0.672673 0.000000 0.000000
0.719442 0.000000 0.000000
0.761839 0.000000 0.000000
0.799928 0.000000 0.000000
0.830691 0.000000 0.000000
0.857360 0.000000 0.000000
0.879999 0.000000 0.000000
0.898588 0.000000 0.085986
0.912931 0.000000 0.224166
0.922413 0.393206 0.346169
0.938892 0.489746 0.406483
0.955374 0.534511 0.452840
0.968662 0.586857 0.500834
0.978772 0.638412 0.545786
0.985704 0.686558 0.600492
0.989440 0.731326 0.651797
0.990609 0.772728 0.699721
0.991573 0.810758 0.744266
0.992550 0.845392 0.785415
0.000000 0.049990 0.000000
0.047990 0.045809 0.000000
0.092384 0.041929 0.000000
0.133731 0.037572 0.000000
0.175232 0.031580 0.000000
0.216917 0.023323 0.000000
0.260210 0.009548 0.000000
0.305510 0.000000 0.000000
0.353194 0.000000 0.000000
0.403731 0.000000 0.000000
0.457518 0.000000 0.000000
0.510893 0.000000 0.000000
0.563237 0.000000 0.000000
0.620135 0.000000 0.000000
0.671894 0.000000 0.000000
0.718894 0.000000 0.000000
0.761455 0.000000 0.000000
0.799402 0.000000 0.000000
0.830268 0.000000 0.000000
0.857010 0.000000 0.000000
0.879702 0.000000 0.000000
0.898326 0.000000 0.087922
0.912688 0.000000 0.225858
0.922170 0.401433 0.347627
0.938886 0.492444 0.406615
0.955371 0.536418 0.452952
0.968660 0.588689 0.500916
0.978771 0.639730 0.545863
0.985703 0.687499 0.600548
0.989440 0.731992 0.651837
0.990609 0.773195 0.699750
0.991573 0.811082 0.744286
0.992550 0.845613 0.785428
0.000000 0.080938 0.000000
0.028809 0.077401 0.000000
0.077699 0.074167 0.000000
0.120615 0.070599 0.000000
0.165692 0.065956 0.000000
0.209762 0.059638 0.000000
0.254860 0.050209 0.000000
0.301107 0.037495 0.000000
0.349715 0.016974 0.000000
0.401014 0.000000 0.000000
0.455318 0.000000 0.000000
0.509357 0.000000 0.000000
0.561820 0.000000 0.000000
0.619133 0.000000 0.000000
0.671187 0.000000 0.000000
0.718397 0.000000 0.000000
0.761107 0.000000 0.000000
0.798927 0.000000 0.000000
0.829885 0.000000 0.000000
0.856694 0.000000 0.000000
0.879434 0.000000 0.000000
0.898089 0.000000 0.089644
0.912469 0.000000 0.227369
0.921949 0.408605 0.348936
0.938881 0.494829 0.406731
0.955367 0.538111 0.453049
0.968658 0.590322 0.500989
0.978770 0.640907 0.545932
0.985703 0.688342 0.600598
0.989440 0.732590 0.651873
0.990609 0.773614 0.699775
0.991573 0.811372 0.744304
0.992550 0.845811 0.785441
0.000000 0.110538 0.000000
0.000000 0.107357 0.000000
0.060587 0.104468 0.000000
0.106115 0.101292 0.000000
0.154686 0.097191 0.000000
0.201837 0.091549 0.000000
0.248648 0.083754 0.000000
0.296657 0.072484 0.000000
0.345894 0.058008 0.000000
0.397856 0.035754 0.000000
0.452857 0.000000 0.000000
0.507679 0.000000 0.000000
0.560290 0.000000 0.000000
0.618053 0.000000 0.000000
0.670423 0.000000 0.000000
0.717857 0.000000 0.000000
0.760727 0.000000 0.000000
0.798409 0.000000 0.000000
0.829468 0.000000 0.000000
0.856350 0.000000 0.000000
0.879142 0.000000 0.000000
0.897832 0.000000 0.091491
0.912230 0.000000 0.228996
0.921709 0.416163 0.350352
0.938875 0.497374 0.406852
0.955364 0.539925 0.453153
0.968656 0.592079 0.501066
0.978768 0.642177 0.546005
0.985702 0.689251 0.600651
0.989440 0.733235 0.651911
0.990609 0.774068 0.699802
0.991573 0.811687 0.744323
0.992550 0.846026 0.785454
0.000000 0.144610 0.000000
0.000000 0.141903 0.000000
0.035930 0.139409 0.000000
0.086569 0.136644 0.000000
0.139158 0.133023 0.000000
0.190908 0.127668 0.000000
0.240491 0.120748 0.000000
0.290059 0.111395 0.000000
0.341251 0.097861 0.000000
0.393945 0.080472 0.000000
0.449550 0.054811 0.000000
0.505427 0.009972 0.000000
0.558311 0.000000 0.000000
0.616677 0.000000 0.000000
0.669453 0.000000 0.000000
0.717171 0.000000 0.000000
0.760243 0.000000 0.000000
0.797749 0.000000 0.000000
0.828935 0.000000 0.000000
0.855910 0.000000 0.000000
0.878768 0.000000 0.000000
0.897503 0.000000 0.093808
0.911924 0.000000 0.231050
0.921401 0.425475 0.352150
0.938868 0.500552 0.407002
0.955359 0.542202 0.453282
0.968653 0.594294 0.501163
0.978767 0.643781 0.546098
0.985701 0.690404 0.600718
0.989440 0.734055 0.651959
0.990609 0.774644 0.699837
0.991573 0.812087 0.744347
0.992550 0.846300 0.785471
0.000000 0.180605 0.000000
0.000000 0.178530 0.000000
0.000000 0.176632 0.000000
0.057361 0.174543 0.000000
0.114924 0.171829 0.000000
0.174701 0.168071 0.000000
0.228820 0.162857 0.000000
0.281314 0.155576 0.000000
0.334077 0.145403 0.000000
0.388608 0.129865 0.000000
0.445267 0.108561 0.000000
0.502248 0.078696 0.000000
0.555469 0.030602 0.000000
0.614774 0.000000 0.000000
0.668137 0.000000 0.000000
0.716247 0.000000 0.000000
0.759592 0.000000 0.000000
0.796861 0.000000 0.000000
0.828215 0.000000 0.000000
0.855313 0.000000 0.000000
0.878260 0.000000 0.000000
0.897055 0.000000 0.096876
0.911508 0.081895 0.233790
0.920982 0.437540 0.354569
0.938857 0.504735 0.407193
0.955352 0.546093 0.453449
0.968649 0.597245 0.501289
0.978765 0.645927 0.546220
0.985700 0.691948 0.600807
0.989439 0.735156 0.652024
0.990608 0.775420 0.699883
0.991573 0.812627 0.744380
0.992549 0.846670 0.785494
0.000000 0.218157 0.000000
0.000000 0.216535 0.000000
0.000000 0.215060 0.000000
0.002885 0.213436 0.000000
0.079428 0.211348 0.000000
0.149504 0.208471 0.000000
0.211730 0.204521 0.000000
0.268793 0.199095 0.000000
0.324610 0.191594 0.000000
0.380988 0.181194 0.000000
0.439174 0.166320 0.000000
0.498125 0.143438 0.000000
0.551581 0.108614 0.000000
0.612045 0.054562 0.000000
0.666320 0.000000 0.000000
0.715000 0.000000 0.000000
0.758720 0.000000 0.000000
0.795679 0.000000 0.000000
0.827255 0.000000 0.000000
0.854514 0.000000 0.000000
0.877577 0.000000 0.000000
0.896451 0.000000 0.100868
0.910946 0.160947 0.237399
0.920416 0.452870 0.357788
0.938844 0.510151 0.407430
0.955344 0.551354 0.453661
0.968643 0.601125 0.501452
0.978762 0.648760 0.546378
0.985699 0.693996 0.600924
0.989439 0.736619 0.652109
0.990608 0.776454 0.699944
0.991573 0.813347 0.744424
0.992549 0.847163 0.785524
0.000000 0.257674 0.000000
0.000000 0.256387 0.000000
0.000000 0.255220 0.000000
0.000000 0.253947 0.000000
0.019326 0.252297 0.000000
0.107111 0.250049 0.000000
0.185607 0.246981 0.000000
0.250661 0.242801 0.000000
0.311149 0.237106 0.000000
0.370680 0.229305 0.000000
0.431069 0.218520 0.000000
0.491973 0.203651 0.000000
0.546605 0.180272 0.000000
0.608414 0.145585 0.000000
0.663732 0.083887 0.000000
0.713278 0.000000 0.000000
0.757548 0.000000 0.000000
0.794111 0.000000 0.000000
0.825986 0.000000 0.000000
0.853457 0.000000 0.000000
0.876669 0.000000 0.000000
0.895642 0.000000 0.106716
0.910191 0.226858 0.242087
0.919653 0.471883 0.362030
0.938825 0.517034 0.407710
0.955332 0.558127 0.453921
0.968636 0.606156 0.501657
0.978758 0.652455 0.546580
0.985697 0.696679 0.601075
0.989438 0.738544 0.652220
0.990608 0.777817 0.700024
0.991573 0.814299 0.744481
0.992549 0.847817 0.785564
0.000000 0.299495 0.000000
0.000000 0.298463 0.000000
0.000000 0.297529 0.000000
0.000000 0.296508 0.000000
0.000000 0.295203 0.000000
0.037366 0.293408 0.000000
0.141664 0.290981 0.000000
0.223329 0.287697 0.000000
0.291835 0.283255 0.000000
0.356192 0.277243 0.000000
0.419838 0.269068 0.000000
0.483971 0.257810 0.000000
0.539925 0.242611 0.000000
0.603823 0.218450 0.000000
0.660354 0.184240 0.000000
0.710852 0.120116 0.000000
0.754863 0.000000 0.000000
0.792019 0.000000 0.000000
0.824310 0.000000 0.000000
0.852066 0.000000 0.000000
0.875475 0.000000 0.000000
0.894575 0.000000 0.118192
0.909185 0.286214 0.248726
0.919041 0.489724 0.365374
0.938801 0.525613 0.408014
0.955316 0.566701 0.454223
0.968627 0.612583 0.501904
0.978753 0.657209 0.546831
0.985695 0.700151 0.601266
0.989437 0.741047 0.652362
0.990608 0.779596 0.700128
0.991573 0.815545 0.744555
0.992549 0.848675 0.785617
0.000000 0.343931 0.000000
0.000000 0.343096 0.000000
0.000000 0.342341 0.000000
0.000000 0.341517 0.000000
0.000000 0.340461 0.000000
0.000000 0.339028 0.000000
0.059644 0.337076 0.000000
0.178481 0.334451 0.000000
0.263058 0.330929 0.000000
0.335561 0.326191 0.000000
0.404226 0.319820 0.000000
0.472314 0.311204 0.000000
0.532731 0.299422 0.000000
0.596702 0.283579 0.000000
0.656139 0.258457 0.000000
0.707700 0.224174 0.000000
0.751145 0.176627 0.000000
0.789172 0.097161 0.000000
0.822079 0.000000 0.000000
0.850235 0.000000 0.000000
0.873907 0.000000 0.006040
0.893173 0.149247 0.138096
0.907861 0.343331 0.259251
0.918993 0.503425 0.366203
0.938768 0.536078 0.408312
0.955296 0.577362 0.454545
0.968615 0.620662 0.502188
0.978746 0.663242 0.547132
0.985691 0.704590 0.601501
0.989436 0.744267 0.652540
0.990607 0.781897 0.700260
0.991572 0.817163 0.744650
0.992549 0.849793 0.785684
0.000000 0.391286 0.000000
0.000000 0.390605 0.000000
0.000000 0.389990 0.000000
0.000000 0.389320 0.000000
0.000000 0.388462 0.000000
0.000000 0.387294 0.000000
0.000000 0.385721 0.000000
0.087540 0.383599 0.000000
0.216735 0.380761 0.000000
0.305121 0.376975 0.000000
0.382143 0.371911 0.000000
0.455565 0.365135 0.000000
0.522269 0.356015 0.000000
0.587796 0.343629 0.000000
0.649505 0.326912 0.000000
0.701951 0.303343 0.000000
0.746448 0.277231 0.000000
0.785342 0.243220 0.000000
0.819046 0.202719 0.000000
0.847799 0.170943 0.000000
0.871845 0.187714 0.047009
0.891335 0.272383 0.164626
0.906119 0.400212 0.274790
0.918932 0.519491 0.368637
0.938726 0.550597 0.409372
0.955269 0.590367 0.454886
0.968598 0.630646 0.502486
0.978737 0.670780 0.547474
0.985687 0.710189 0.601781
0.989435 0.748359 0.652758
0.990607 0.784839 0.700424
0.991572 0.819242 0.744771
0.992549 0.851235 0.785771
0.000000 0.441872 0.000000
0.000000 0.441313 0.000000
0.000000 0.440809 0.000000
0.000000 0.440260 0.000000
0.000000 0.439558 0.000000
0.000000 0.438604 0.000000
0.000000 0.437317 0.000000
0.000000 0.435591 0.000000
0.122424 0.433284 0.000000
0.256864 0.430215 0.000000
0.349827 0.426141 0.000000
0.431888 0.420719 0.000000
0.507159 0.413494 0.000000
0.574141 0.403687 0.000000
0.638770 0.391194 0.000000
0.693363 0.375895 0.000000
0.740705 0.355421 0.000000
0.780537 0.335538 0.000000
0.815021 0.314633 0.000000
0.844484 0.300463 0.000000
0.869096 0.309967 0.075574
0.888910 0.361416 0.194244
0.903826 0.457970 0.295731
0.918858 0.537834 0.373396
0.938675 0.570229 0.412199
0.955234 0.605936 0.456181
0.968577 0.642758 0.502833
0.978725 0.680045 0.547830
0.985681 0.717150 0.602096
0.989433 0.753495 0.653016
0.990606 0.788561 0.700624
0.991572 0.821889 0.744921
0.992548 0.853080 0.785879
0.000000 0.494418 0.000000
0.000000 0.494003 0.000000
0.000000 0.493629 0.000000
0.000000 0.493221 0.000000
0.000000 0.492698 0.000000
0.000000 0.491988 0.000000
0.000000 0.491026 0.000000
0.000000 0.489635 0.000000
0.000000 0.487639 0.000000
0.166167 0.485009 0.000000
0.300569 0.481552 0.000000
0.397686 0.477037 0.000000
0.483244 0.471158 0.000000
0.553462 0.463561 0.000000
0.624295 0.454029 0.000000
0.682879 0.442472 0.000000
0.732226 0.429040 0.000000
0.774672 0.412906 0.000000
0.809995 0.400633 0.000000
0.840137 0.393780 0.000000
0.865344 0.402310 0.076365
0.885657 0.440032 0.219964
0.900778 0.512881 0.320773
0.918766 0.563505 0.380746
0.938612 0.592779 0.417521
0.955192 0.624175 0.459405
0.968550 0.657192 0.504161
0.978709 0.691233 0.548285
0.985674 0.725666 0.602421
0.989431 0.759851 0.653305
0.990606 0.793211 0.700860
0.991571 0.825223 0.745102
0.992548 0.855419 0.786014
0.000000 0.538868 0.000000
0.000000 0.538532 0.000000
0.000000 0.538230 0.000000
0.000000 0.537901 0.000000
0.000000 0.537482 0.000000
0.000000 0.536915 0.000000
0.000000 0.536154 0.000000
0.000000 0.535142 0.000000
0.000000 0.533806 0.000000
0.000000 0.532044 0.000000
0.223076 0.529755 0.000000
0.350458 0.526788 0.000000
0.449085 0.522975 0.000000
0.529845 0.518122 0.000000
0.605266 0.512036 0.000000
0.669160 0.504566 0.000000
0.721920 0.495796 0.000000
0.766169 0.486265 0.000000
0.803836 0.476715 0.000000
0.834715 0.474144 0.000000
0.860460 0.482787 0.098749
0.881186 0.510539 0.232459
0.896639 0.565312 0.345796
0.918646 0.593294 0.389303
0.938534 0.618012 0.425537
0.955140 0.645034 0.465303
0.968517 0.674028 0.507281
0.978690 0.704512 0.549997
0.985664 0.735909 0.602871
0.989428 0.767597 0.653601
0.990605 0.798944 0.701123
0.991570 0.829373 0.745316
0.992547 0.858354 0.786177
0.000000 0.588975 0.000000
0.000000 0.588663 0.000000
0.000000 0.588383 0.000000
0.000000 0.588078 0.000000
0.000000 0.587690 0.000000
0.000000 0.587166 0.000000
0.000000 0.586464 0.000000
0.000000 0.585532 0.000000
0.000000 0.584305 0.000000
0.000000 0.582707 0.000000
0.053379 0.580622 0.000000
0.284325 0.577959 0.000000
0.405012 0.574572 0.000000
0.501660 0.570324 0.000000
0.580784 0.565099 0.000000
0.651705 0.558865 0.000000
0.708828 0.551783 0.000000
0.755893 0.544517 0.000000
0.795101 0.539579 0.000000
0.828011 0.538113 0.112287
0.854343 0.546196 0.175660
0.875364 0.572361 0.262992
0.895055 0.606693 0.343981
0.918471 0.624958 0.393789
0.938432 0.645492 0.434619
0.955076 0.668286 0.473879
0.968477 0.693208 0.512773
0.978666 0.719942 0.553885
0.985652 0.748022 0.604521
0.989424 0.776881 0.654032
0.990603 0.805907 0.701391
0.991569 0.834472 0.745554
0.992547 0.861996 0.786368
0.000000 0.634395 0.000000
0.000000 0.634179 0.000000
0.000000 0.633984 0.000000
0.000000 0.633773 0.000000
0.000000 0.633504 0.000000
0.000000 0.633142 0.000000
0.000000 0.632657 0.000000
0.000000 0.632015 0.000000
0.000000 0.631171 0.000000
0.000000 0.630074 0.000000
0.000000 0.628664 0.000000
0.185431 0.626848 0.000000
0.351984 0.624578 0.000000
0.465198 0.621762 0.000000
0.550855 0.618350 0.000000
0.630576 0.614370 0.000000
0.692880 0.610009 0.000000
0.743265 0.605777 0.000000
0.784631 0.602841 0.052206
0.818707 0.603372 0.152131
0.846674 0.610897 0.257334
0.867986 0.631007 0.320111
0.894667 0.643475 0.344071
0.918182 0.657792 0.384458
0.938282 0.674606 0.438955
0.954993 0.693520 0.483091
0.968427 0.714515 0.520560
0.978637 0.737462 0.560635
0.985637 0.762052 0.608179
0.989420 0.787827 0.655582
0.990602 0.814229 0.701791
0.991568 0.840648 0.745796
0.992546 0.866459 0.786582
0.000000 0.673817 0.000000
0.000000 0.673668 0.000000
0.000000 0.673535 0.000000
0.000000 0.673390 0.000000
0.000000 0.673206 0.000000
0.000000 0.672958 0.000000
0.000000 0.672627 0.000000
0.000000 0.672190 0.000000
0.000000 0.671617 0.000000
0.000000 0.670875 0.000000
0.000000 0.669922 0.000000
0.028839 0.668723 0.000000
0.299411 0.667205 0.000000
0.428092 0.665370 0.000000
0.525068 0.663188 0.000000
0.607886 0.660710 0.000000
0.675228 0.658122 0.023305
0.728767 0.655851 0.094358
0.772236 0.654763 0.168049
0.807662 0.656466 0.235543
0.836197 0.663556 0.304410
0.867182 0.671380 0.345841
0.894273 0.680579 0.362189
0.917850 0.691570 0.385565
0.938036 0.704713 0.428445
0.954869 0.720171 0.487074
0.968361 0.737564 0.528810
0.978600 0.756862 0.570147
0.985619 0.777933 0.614459
0.989414 0.800468 0.658967
0.990600 0.824012 0.703211
0.991566 0.848009 0.746154
0.992544 0.871850 0.786799
0.000000 0.706893 0.000000
0.000000 0.706793 0.000000
0.000000 0.706704 0.000000
0.000000 0.706607 0.000000
0.000000 0.706484 0.000000
0.000000 0.706318 0.000000
0.000000 0.706097 0.000000
0.000000 0.705806 0.000000
0.000000 0.705427 0.000000
0.000000 0.704937 0.000000
0.000000 0.704314 0.000000
0.010330 0.703531 0.022844
0.285317 0.702576 0.047972
0.412842 0.701407 0.073579
0.510845 0.700079 0.105810
0.591304 0.698640 0.144379
0.660168 0.697261 0.184531
0.714842 0.696310 0.226684
0.759146 0.696476 0.272177
0.798934 0.699758 0.296824
0.834674 0.704359 0.318327
0.866159 0.710054 0.343858
0.893809 0.717095 0.385587
0.917512 0.725533 0.405605
0.937758 0.735605 0.430379
0.954666 0.747652 0.476117
0.968264 0.761831 0.532210
0.978553 0.777784 0.580192
0.985597 0.795465 0.623256
0.989407 0.814735 0.664742
0.990597 0.835279 0.706289
0.991564 0.856640 0.747421
0.992543 0.878259 0.787108
0.000000 0.732771 0.189084
0.000000 0.732707 0.190219
0.000000 0.732649 0.191235
0.000000 0.732587 0.192335
0.000000 0.732509 0.193729
0.000000 0.732403 0.195602
0.000000 0.732263 0.198092
0.000000 0.732079 0.201367
0.000000 0.731841 0.205629
0.000000 0.731536 0.211121
0.064015 0.731152 0.218125
0.255409 0.730679 0.226954
0.363726 0.730109 0.237937
0.449969 0.730018 0.248189
0.521463 0.730810 0.253958
0.589696 0.731846 0.262038
0.653011 0.733167 0.271811
0.707496 0.734842 0.283582
0.754932 0.736968 0.297802
0.796504 0.739650 0.314711
0.833015 0.743016 0.334620
0.865019 0.747215 0.357778
0.892919 0.752413 0.384683
0.917098 0.758838 0.428836
0.937474 0.766557 0.452340
0.954439 0.775763 0.478569
0.968105 0.786776 0.522152
0.978483 0.799740 0.584271
0.985567 0.814314 0.632528
0.989398 0.830438 0.672817
0.990594 0.847960 0.711534
0.991562 0.866554 0.750170
0.992541 0.885754 0.788207
0.000000 0.768137 0.257946
0.000000 0.768166 0.258255
0.000000 0.768193 0.258533
0.000000 0.768222 0.258834
0.000000 0.768259 0.259219
0.000000 0.768309 0.259738
0.000000 0.768376 0.260433
0.000000 0.768465 0.261357
0.000000 0.768583 0.262574
0.000000 0.768738 0.264166
0.000000 0.768942 0.266237
0.206849 0.769207 0.268911
0.325845 0.769551 0.272329
0.419204 0.769996 0.276634
0.501841 0.770576 0.282515
0.573646 0.771298 0.288690
0.642511 0.772242 0.297342
0.700477 0.773444 0.307810
0.750200 0.774968 0.320426
0.793293 0.776900 0.335677
0.830831 0.779337 0.353834
0.863541 0.782396 0.375240
0.891924 0.786213 0.400236
0.916334 0.790941 0.428824
0.937116 0.796785 0.475930
0.954208 0.803815 0.500427
0.967928 0.812199 0.524536
0.978368 0.822227 0.571887
0.985524 0.834024 0.636349
0.989386 0.847264 0.681365
0.990590 0.861873 0.718884
0.991559 0.877677 0.754867
0.992538 0.894338 0.790614
0.000000 0.805134 0.292533
0.000000 0.805155 0.292790
0.000000 0.805173 0.293022
0.000000 0.805194 0.293274
0.000000 0.805220 0.293594
0.000000 0.805255 0.294027
0.000000 0.805302 0.294608
0.000000 0.805365 0.295380
0.000000 0.805448 0.296398
0.000000 0.805557 0.297732
0.000000 0.805701 0.299469
0.000000 0.805887 0.301718
0.250564 0.806130 0.304613
0.373028 0.806444 0.308302
0.471669 0.806848 0.312935
0.550183 0.807374 0.319266
0.627819 0.808029 0.325898
0.690879 0.808883 0.335180
0.743806 0.809970 0.346419
0.789004 0.811347 0.359973
0.827942 0.813093 0.376373
0.861595 0.815296 0.395925
0.890622 0.818062 0.419010
0.915477 0.821513 0.446048
0.936473 0.825792 0.476553
0.953913 0.831082 0.521751
0.967747 0.837450 0.544952
0.978240 0.845043 0.574715
0.985453 0.854124 0.624976
0.989368 0.864787 0.685051
0.990585 0.876722 0.726744
0.991555 0.889837 0.761492
0.992535 0.903936 0.794756
0.000000 0.838522 0.329668
0.000000 0.838536 0.329883
0.000000 0.838549 0.330076
0.000000 0.838563 0.330287
0.000000 0.838581 0.330554
0.000000 0.838606 0.330917
0.000000 0.838639 0.331402
0.000000 0.838683 0.332048
0.000000 0.838741 0.332901
0.000000 0.838817 0.334020
0.000000 0.838917 0.335479
0.000000 0.839048 0.337372
0.039090 0.839218 0.339813
0.295501 0.839437 0.342946
0.422978 0.839720 0.346927
0.521571 0.840084 0.351922
0.606335 0.840558 0.358737
0.677437 0.841146 0.365875
0.735053 0.841913 0.375851
0.783203 0.842888 0.387942
0.824078 0.844123 0.402539
0.859016 0.845689 0.420218
0.888907 0.847666 0.441326
0.914349 0.850149 0.466289
0.935749 0.853249 0.494042
0.953387 0.857095 0.522516
0.967519 0.861852 0.571507
0.978108 0.867576 0.599004
0.985372 0.874403 0.627236
0.989340 0.882561 0.674794
0.990578 0.892111 0.730380
0.991550 0.902754 0.768687
0.992531 0.914380 0.800656
0.000000 0.868418 0.369660
0.000000 0.868428 0.369840
0.000000 0.868437 0.370002
0.000000 0.868447 0.370178
0.000000 0.868459 0.370402
0.000000 0.868476 0.370705
0.000000 0.868499 0.371112
0.000000 0.868529 0.371654
0.000000 0.868569 0.372369
0.000000 0.868622 0.373309
0.000000 0.868692 0.374535
0.000000 0.868782 0.376128
0.000000 0.868899 0.378186
0.086626 0.869051 0.380833
0.342105 0.869248 0.384222
0.475795 0.869500 0.388520
0.573875 0.869824 0.393910
0.657758 0.870246 0.401247
0.722772 0.870769 0.408942
0.775246 0.871450 0.419684
0.818842 0.872316 0.432716
0.855562 0.873413 0.448469
0.886631 0.874805 0.467560
0.912860 0.876563 0.489334
0.934791 0.878771 0.513037
0.952791 0.881531 0.538369
0.967105 0.884955 0.572225
0.977946 0.889195 0.625068
0.985289 0.894289 0.649387
0.989306 0.900365 0.676283
0.990566 0.907612 0.721352
0.991543 0.916055 0.772318
0.992527 0.925406 0.807195
0.000000 0.894919 0.412851
0.000000 0.894926 0.413001
0.000000 0.894932 0.413137
0.000000 0.894939 0.413284
0.000000 0.894947 0.413472
0.000000 0.894959 0.413726
0.000000 0.894975 0.414068
0.000000 0.894995 0.414522
0.000000 0.895023 0.415123
0.000000 0.895059 0.415912
0.000000 0.895106 0.416943
0.000000 0.895168 0.418284
0.000000 0.895248 0.420018
0.000000 0.895352 0.422253
0.138548 0.895486 0.425122
0.390708 0.895659 0.428786
0.525211 0.895881 0.433425
0.627968 0.896166 0.439246
0.704752 0.896535 0.447151
0.764054 0.896994 0.455455
0.811642 0.897591 0.467036
0.850869 0.898351 0.480678
0.883574 0.899314 0.496325
0.910879 0.900535 0.514161
0.933524 0.902079 0.534013
0.952001 0.904020 0.560108
0.966634 0.906446 0.591473
0.977643 0.909458 0.625130
0.985190 0.913190 0.675533
0.989272 0.917661 0.696180
0.990552 0.922992 0.721908
0.991531 0.929331 0.764646
0.992520 0.936661 0.810830
0.000000 0.918101 0.459619
0.000000 0.918106 0.459745
0.000000 0.918110 0.459859
0.000000 0.918114 0.459982
0.000000 0.918120 0.460140
0.000000 0.918128 0.460353
0.000000 0.918138 0.460640
0.000000 0.918152 0.461021
0.000000 0.918170 0.461525
0.000000 0.918195 0.462189
0.000000 0.918226 0.463056
0.000000 0.918268 0.464184
0.000000 0.918322 0.465645
0.000000 0.918391 0.467522
0.000000 0.918482 0.469916
0.187643 0.918598 0.472953
0.441570 0.918747 0.476779
0.578008 0.918939 0.481543
0.677385 0.919185 0.487406
0.747576 0.919503 0.495159
0.801479 0.919899 0.503077
0.844394 0.920414 0.513742
0.879407 0.921069 0.526142
0.908210 0.921900 0.540391
0.931833 0.922955 0.561436
0.950952 0.924288 0.585976
0.966010 0.925966 0.613105
0.977295 0.928065 0.642450
0.984996 0.930669 0.674539
0.989232 0.933897 0.722723
0.990538 0.937747 0.739422
0.991517 0.942330 0.764145
0.992508 0.947752 0.804651
0.000000 0.938020 0.507031
0.000000 0.938023 0.507121
0.000000 0.938026 0.507203
0.000000 0.938029 0.507292
0.000000 0.938033 0.507405
0.000000 0.938038 0.507558
0.000000 0.938045 0.507764
0.000000 0.938054 0.508037
0.000000 0.938066 0.508398
0.000000 0.938082 0.508873
0.000000 0.938102 0.509492
0.000000 0.938130 0.510297
0.000000 0.938165 0.511336
0.000000 0.938211 0.512672
0.000000 0.938270 0.514381
0.000000 0.938346 0.516557
0.232159 0.938444 0.519315
0.493412 0.938570 0.522785
0.631295 0.938732 0.527105
0.722432 0.938939 0.532424
0.786449 0.939208 0.539460
0.835214 0.939541 0.548007
0.873633 0.939975 0.561012
0.904555 0.940527 0.576252
0.929543 0.941228 0.593914
0.949545 0.942119 0.614287
0.965177 0.943245 0.637242
0.976835 0.944663 0.662617
0.984773 0.946436 0.689965
0.989147 0.948634 0.720255
0.990523 0.951356 0.766419
0.991503 0.954581 0.779256
0.992495 0.958405 0.803010
0.000000 0.954715 0.553049
0.000000 0.954717 0.553134
0.000000 0.954719 0.553212
0.000000 0.954720 0.553295
0.000000 0.954723 0.553402
0.000000 0.954726 0.553547
0.000000 0.954730 0.553741
0.000000 0.954736 0.554000
0.000000 0.954744 0.554342
0.000000 0.954754 0.554791
0.000000 0.954767 0.555379
0.000000 0.954784 0.556143
0.000000 0.954807 0.557132
0.000000 0.954836 0.558407
0.000000 0.954874 0.560042
0.000000 0.954922 0.562132
0.000000 0.954984 0.564793
0.273593 0.955065 0.568166
0.539530 0.955168 0.572416
0.679804 0.955299 0.577716
0.763367 0.955468 0.584262
0.821557 0.955687 0.592959
0.865400 0.955959 0.601877
0.899464 0.956314 0.613993
0.926392 0.956765 0.628194
0.947632 0.957337 0.644656
0.964053 0.958065 0.663652
0.976216 0.958986 0.685051
