sample/src/main/assets/lut/LinearTransformation/PQ_to_BT709_v2.cube
TITLE "PQ_to_BT709_slope_v2"
LUT_3D_SIZE 5
# Crated by Francesco Bucciantini
0.000000 0.000000 0.000000
0.356901 0.000000 0.000000
0.761839 0.000000 0.000000
0.938892 0.489746 0.406483
0.992550 0.845392 0.785415
0.000000 0.299495 0.000000
0.291835 0.283255 0.000000
0.754863 0.000000 0.000000
0.938801 0.525613 0.408014
0.992549 0.848675 0.785617
0.000000 0.673817 0.000000
0.000000 0.671617 0.000000
0.675228 0.658122 0.023305
0.938036 0.704713 0.428445
0.992544 0.871850 0.786799
0.000000 0.918101 0.459619
0.000000 0.918170 0.461525
0.441570 0.918747 0.476779
0.931833 0.922955 0.561436
0.992508 0.947752 0.804651
0.000000 0.991582 0.825389
0.000000 0.991582 0.825548
0.000000 0.991585 0.826870
0.792763 0.991609 0.836412
0.992202 0.991793 0.888769
0.000000 0.000000 0.297711
0.349817 0.000000 0.295406
0.761114 0.000000 0.275123
0.938947 0.497777 0.470736
0.992550 0.846062 0.792653
0.000000 0.298447 0.284582
0.282117 0.282117 0.282117
0.754688 0.000000 0.261273
0.938857 0.531765 0.472633
0.992549 0.849320 0.792853
0.000000 0.675781 0.230369
0.000000 0.673643 0.235310
0.675676 0.660625 0.282959
0.938117 0.707289 0.493293
0.992545 0.872333 0.794056
0.000000 0.918330 0.509509
0.000000 0.918399 0.510851
0.445439 0.918973 0.521572
0.931895 0.923163 0.595765
0.992509 0.947875 0.811434
0.000000 0.991583 0.830186
0.000000 0.991583 0.830338
0.000000 0.991586 0.831592
0.793188 0.991610 0.840662
0.992202 0.991795 0.890937
0.000000 0.000000 0.697093
0.278190 0.000000 0.696808
0.754907 0.000000 0.694230
0.939385 0.552639 0.704301
0.992553 0.851447 0.838203
0.000000 0.289465 0.695407
0.161743 0.273442 0.695097
0.748581 0.000000 0.692504
0.939297 0.583867 0.704911
0.992552 0.854505 0.838378
0.000000 0.688591 0.677466
0.000000 0.686872 0.677270
0.677151 0.677151 0.677151
0.938559 0.726209 0.710424
0.992548 0.876236 0.839597
0.000000 0.920202 0.716020
0.000000 0.920269 0.716453
0.475588 0.920823 0.720025
0.932415 0.924868 0.744386
0.992513 0.948877 0.853553
0.000000 0.991593 0.862367
0.000000 0.991593 0.862470
0.000000 0.991597 0.863326
0.796667 0.991620 0.869583
0.992205 0.991804 0.906637
0.000000 0.000000 0.944036
0.000000 0.000000 0.944021
0.692271 0.000000 0.943900
0.956472 0.330259 0.938821
0.992574 0.883455 0.947287
0.000000 0.251949 0.943935
0.000000 0.187542 0.943939
0.681260 0.000000 0.943820
0.954706 0.521313 0.938071
0.992573 0.885462 0.947316
0.000000 0.688852 0.943260
0.000000 0.686623 0.943245
0.533070 0.667673 0.943117
0.941853 0.815079 0.933534
0.992569 0.900207 0.947546
0.000000 0.932576 0.933959
0.000000 0.932628 0.933991
0.620048 0.933056 0.934252
0.936205 0.936205 0.936205
0.992533 0.955426 0.949550
0.000000 0.991669 0.951734
0.000000 0.991669 0.951754
0.000000 0.991672 0.951919
0.819865 0.991695 0.953161
0.992228 0.991876 0.961795
0.000000 0.000000 0.992819
0.000000 0.000000 0.992819
0.000000 0.000000 0.992818
0.940676 0.000000 0.992812
0.992743 0.967114 0.992264
0.000000 0.000000 0.992818
0.000000 0.000000 0.992818
0.000000 0.000000 0.992818
0.940128 0.000000 0.992812
0.992743 0.967416 0.992264
0.000000 0.647127 0.992813
0.000000 0.642209 0.992813
0.000000 0.553078 0.992813
0.935246 0.000000 0.992807
0.992738 0.969791 0.992266
0.000000 0.940677 0.992779
0.000000 0.940566 0.992779
0.000000 0.939626 0.992778
0.863994 0.932181 0.992772
0.992704 0.981699 0.992283
0.000000 0.992237 0.992304
0.000000 0.992238 0.992304
0.000000 0.992240 0.992306
0.910589 0.992259 0.992318
0.992414 0.992414 0.992414
