sample/src/main/assets/lut/sdr2hlg/NBCU_Davinci_DL_VRT_v1.1.cube
TITLE "SDR-BT.709 to HLG-BT.2100 Display-Light Conversion 3D Look-Up-Table"
# site: https://github.com/digitaltvguy/NBCUniversal-UHD-HDR-SDR-Single-Master-Production-Workflow-Recommendation-LUTs/tree/main
# PLEASE DO NOT ALTER THE LINES BELOW
# 
# © 2020 NBCUniversal, LLC - Please do not remove this line
#
# Version 1.1 (fix for negative values)
#
# Built using tools from and in collaboration with Cromorama and Nick Shaw - the creators of ORION-CONVERT
#
# Parameters designed by Chris Seeger, NBCU Advanced Technology (chris.seeger@nbcuni.com)
# In collaboration with Michael Drazin, NBCU Sports Group (michael.drazin@nbcuni.com)
#
# 100% SDR maps to 75% HLG 
# SDR 100-109% preserved into HLG above 75% (preserves additional color volume from SDR)
#
# Display-Light Conversion (absolute chromaticity is preserved from input to output)
# Display-Light Conversion preserves original artistic intent
#
# No Matrix Compensation (so make sure your device is using the correct matrix)
#
# Type III LUT - Full Range Processing for Narrow Range Signals
# RESOLVE 17 VIDEO RANGE TAGS
LUT_IN_VIDEO_RANGE
LUT_OUT_VIDEO_RANGE
LUT_3D_SIZE 5
0.0067838 0.0067838 0.0067838
0.2137570 0.0717872 0.0171198
0.4140731 0.1718870 0.1001905
0.5912920 0.2420683 0.1429604
0.7002339 0.3100758 0.1787159
0.1538953 0.2272301 0.0884072
0.2268487 0.2297727 0.0962425
0.4149685 0.2498612 0.1226637
0.5912352 0.2908904 0.1535923
0.7001539 0.3436695 0.1854389
0.2905571 0.4471045 0.1756372
0.3188618 0.4478083 0.1768699
0.4463577 0.4527759 0.1841577
0.5980200 0.4659667 0.1987548
0.7017270 0.4895642 0.2192266
0.4230908 0.6239712 0.2464582
0.4386761 0.6241893 0.2470798
0.5206004 0.6256131 0.2508783
0.6232889 0.6291652 0.2591103
0.7108923 0.6356847 0.2719438
0.5477651 0.7303427 0.3155514
0.5557220 0.7304386 0.3159485
0.5972589 0.7310488 0.3183943
0.6619081 0.7325127 0.3238072
0.7297125 0.7351646 0.3325490
0.0215041 0.0039101 0.3053360
0.2143135 0.0852111 0.2420943
0.4143656 0.1728772 0.2240387
0.5913993 0.2425550 0.2270761
0.7002808 0.3103848 0.2405900
0.1602852 0.2268715 0.2318096
0.2296750 0.2296750 0.2296750
0.4156016 0.2501376 0.2260858
0.5913963 0.2911846 0.2310427
0.7002130 0.3439090 0.2444424
0.2924202 0.4469856 0.2439972
0.3204574 0.4477037 0.2443976
0.4472262 0.4527370 0.2471325
0.5982994 0.4660001 0.2540951
0.7018293 0.4896398 0.2662061
0.4240759 0.6239336 0.2875904
0.4396079 0.6241533 0.2880124
0.5212225 0.6255860 0.2906324
0.6235624 0.6291530 0.2965265
0.7110186 0.6356874 0.3061952
0.5482696 0.7303261 0.3433914
0.5561980 0.7304222 0.3437200
0.5976082 0.7310344 0.3457513
0.6621194 0.7325023 0.3502902
0.7298330 0.7351592 0.3577323
0.1534803 0.0849068 0.5242780
0.2287571 0.1141020 0.5117004
0.4170897 0.1788419 0.4767351
0.5921876 0.2455553 0.4530177
0.7005982 0.3122960 0.4414140
0.1912190 0.2266947 0.4943978
0.2461111 0.2303011 0.4889876
0.4198573 0.2520442 0.4689679
0.5924787 0.2930346 0.4511724
0.7006009 0.3453980 0.4415456
0.3035353 0.4463701 0.4571925
0.3300553 0.4471674 0.4564285
0.4525662 0.4525662 0.4525662
0.6000360 0.4662393 0.4474456
0.7024704 0.4901214 0.4443921
0.4301023 0.6237136 0.4554007
0.4453148 0.6239429 0.4553475
0.5250159 0.6254286 0.4551269
0.6252467 0.6290845 0.4551970
0.7118008 0.6357093 0.4565299
0.5513557 0.7302257 0.4757751
0.5591114 0.7303240 0.4758777
0.5997533 0.7309483 0.4765344
0.6634223 0.7324397 0.4781341
0.7305786 0.7351269 0.4810964
0.2162142 0.1319903 0.6870469
0.2628542 0.1437324 0.6833398
0.4262691 0.1911650 0.6676699
0.5945616 0.2521839 0.6498075
0.7014601 0.3165731 0.6355377
0.2376362 0.2311170 0.6765106
0.2775835 0.2350180 0.6739959
0.4306283 0.2570577 0.6622999
0.5953258 0.2973188 0.6473044
0.7015969 0.3487735 0.6344596
0.3263021 0.4456128 0.6493926
0.3500902 0.4465414 0.6486167
0.4643230 0.4525602 0.6443679
0.6039617 0.4669576 0.6372813
0.7039559 0.4912802 0.6297619
0.4432106 0.6232970 0.6331308
0.4577639 0.6235456 0.6328948
0.5331901 0.6251388 0.6315296
0.6289757 0.6289757 0.6289757
0.7135590 0.6357862 0.6259079
0.5580605 0.7300171 0.6292954
0.5654533 0.7301197 0.6292344
0.6044634 0.7307700 0.6288803
0.6663128 0.7323118 0.6282204
0.7322458 0.7350642 0.6274763
0.2758082 0.1661030 0.7891043
0.3078194 0.1733556 0.7874060
0.4445488 0.2089075 0.7788696
0.5996265 0.2627703 0.7664549
0.7032492 0.3235955 0.7543741
0.2899963 0.2416821 0.7839315
0.3193811 0.2453635 0.7825490
0.4496685 0.2661841 0.7753727
0.6008359 0.3046116 0.7643797
0.7035524 0.3544284 0.7532214
0.3591901 0.4456987 0.7654078
0.3797543 0.4467581 0.7647851
0.4831078 0.4534135 0.7612712
0.6104816 0.4685946 0.7549822
0.7065327 0.4933924 0.7475475
0.4638055 0.6228147 0.7487281
0.4774132 0.6230897 0.7484759
0.5458084 0.6248307 0.7469894
0.6350001 0.6289198 0.7440559
0.7164758 0.6359923 0.7401373
0.5685525 0.7297190 0.7388511
0.5754091 0.7298284 0.7387462
0.6119679 0.7305180 0.7381169
0.6710018 0.7321365 0.7368226
0.7349887 0.7349887 0.7349887
