sample/src/main/assets/lut/sdr2hlg/NBCU_Davinci_DL_VRT_v1.1.cube
TITLE "SDR-BT.709 to HLG-BT.2100 Display-Light Conversion 3D Look-Up-Table"
# site: https://github.com/digitaltvguy/NBCUniversal-UHD-HDR-SDR-Single-Master-Production-Workflow-Recommendation-LUTs/tree/main
# PLEASE DO NOT ALTER THE LINES BELOW
# 
# © 2020 NBCUniversal, LLC - Please do not remove this line
#
# Version 1.1 (fix for negative values)
#
# Built using tools from and in collaboration with Cromorama and Nick Shaw - the creators of ORION-CONVERT
#
# Parameters designed by Chris Seeger, NBCU Advanced Technology (chris.seeger@nbcuni.com)
# In collaboration with Michael Drazin, NBCU Sports Group (michael.drazin@nbcuni.com)
#
# 100% SDR maps to 75% HLG 
# SDR 100-109% preserved into HLG above 75% (preserves additional color volume from SDR)
#
# Display-Light Conversion (absolute chromaticity is preserved from input to output)
# Display-Light Conversion preserves original artistic intent
#
# No Matrix Compensation (so make sure your device is using the correct matrix)
#
# Type III LUT - Full Range Processing for Narrow Range Signals
# RESOLVE 17 VIDEO RANGE TAGS
LUT_IN_VIDEO_RANGE
LUT_OUT_VIDEO_RANGE
LUT_3D_SIZE 33
0.0067838 0.0067838 0.0067838
0.0228264 0.0075068 0.0062756
0.0278292 0.0076625 0.0061297
0.0337280 0.0078097 0.0059729
0.0918720 0.0083328 0.0051205
0.1340011 0.0079455 0.0039101
0.1672013 0.0164880 0.0046232
0.1893206 0.0318108 0.0120466
0.2137570 0.0717872 0.0171198
0.2386107 0.0967150 0.0219499
0.2635977 0.1109576 0.0271771
0.2886395 0.1228078 0.0333591
0.3137075 0.1335369 0.0415542
0.3387895 0.1436230 0.0591256
0.3638797 0.1532984 0.0835225
0.3889748 0.1626933 0.0928055
0.4140731 0.1718870 0.1001905
0.4391736 0.1809314 0.1066564
0.4642757 0.1898615 0.1125708
0.4893788 0.1987024 0.1181167
0.5133793 0.2074721 0.1233999
0.5352308 0.2161844 0.1284871
0.5553189 0.2248494 0.1334232
0.5739323 0.2334753 0.1382400
0.5912920 0.2420683 0.1429604
0.6075706 0.2506334 0.1476020
0.6229062 0.2591749 0.1521779
0.6374108 0.2676958 0.1566986
0.6511770 0.2761991 0.1611724
0.6642817 0.2846870 0.1656061
0.6767904 0.2931614 0.1700049
0.6887585 0.3016239 0.1743736
0.7002339 0.3100758 0.1787159
0.0112249 0.0322820 0.0047867
0.0328478 0.0346091 0.0039101
0.0418776 0.0351434 0.0039101
0.0697063 0.0356441 0.0039101
0.1267067 0.0320654 0.0039101
0.1382561 0.0587807 0.0058416
0.1630278 0.0862401 0.0114669
0.1880664 0.0977525 0.0158933
0.2131543 0.1077215 0.0201607
0.2382557 0.1170637 0.0247167
0.2633616 0.1260811 0.0299439
0.2884692 0.1349072 0.0364172
0.3135774 0.1436110 0.0456658
0.3386858 0.1522320 0.0741343
0.3637942 0.1607943 0.0865856
0.3889026 0.1693138 0.0949039
0.4140110 0.1778009 0.1018281
0.4391192 0.1862631 0.1080112
0.4642274 0.1947057 0.1137302
0.4893356 0.2031328 0.1191315
0.5133438 0.2115472 0.1243025
0.5352012 0.2199512 0.1292997
0.5552938 0.2283467 0.1341620
0.5739108 0.2367349 0.1389168
0.5912733 0.2451170 0.1435846
0.6075543 0.2534940 0.1481806
0.6228917 0.2618665 0.1527169
0.6373980 0.2702351 0.1572028
0.6511655 0.2786004 0.1616457
0.6642714 0.2869628 0.1660517
0.6767810 0.2953226 0.1704258
0.6887500 0.3036801 0.1747721
0.7002262 0.3120356 0.1790940
0.0118412 0.0449941 0.0039101
0.0355911 0.0520910 0.0039101
0.0481102 0.0551596 0.0039101
0.0828635 0.0655663 0.0039101
0.1126683 0.0783101 0.0039101
0.1377012 0.0870294 0.0078948
0.1628377 0.0955318 0.0125691
0.1879692 0.1039560 0.0167001
0.2130935 0.1123447 0.0208497
0.2382130 0.1207146 0.0253659
0.2633293 0.1290735 0.0306087
0.2884434 0.1374255 0.0371732
0.3135561 0.1457728 0.0467691
0.3386678 0.1541169 0.0755141
0.3637787 0.1624587 0.0872440
0.3888890 0.1707987 0.0953737
0.4139989 0.1791375 0.1022005
0.4391084 0.1874752 0.1083219
0.4642176 0.1958120 0.1139974
0.4893267 0.2041483 0.1193661
0.5133362 0.2124840 0.1245117
0.5351948 0.2208194 0.1294885
0.5552884 0.2291543 0.1343338
0.5739061 0.2374889 0.1390744
0.5912693 0.2458233 0.1437300
0.6075507 0.2541575 0.1483155
0.6228886 0.2624914 0.1528427
0.6373951 0.2708252 0.1573205
0.6511629 0.2791589 0.1617562
0.6642691 0.2874925 0.1661558
0.6767789 0.2958259 0.1705242
0.6887481 0.3041592 0.1748652
0.7002245 0.3124925 0.1791824
0.0115958 0.0824316 0.0039101
0.0382536 0.0921080 0.0039101
0.0721566 0.0908197 0.0039101
0.0874948 0.0907457 0.0039101
0.1123866 0.0923848 0.0048517
0.1375954 0.0965803 0.0095152
0.1627716 0.1024219 0.0135794
0.1879217 0.1091879 0.0174764
0.2130569 0.1164802 0.0215264
0.2381836 0.1240870 0.0260106
0.2633049 0.1318917 0.0312748
0.2884228 0.1398271 0.0379400
0.3135383 0.1478521 0.0479383
0.3386522 0.1559409 0.0767452
0.3637649 0.1640764 0.0878777
0.3888767 0.1722469 0.0958316
0.4139878 0.1804443 0.1025654
0.4390983 0.1886627 0.1086271
0.4642084 0.1968977 0.1142604
0.4893182 0.2051461 0.1195974
0.5133291 0.2134055 0.1247181
0.5351889 0.2216740 0.1296747
0.5552832 0.2299499 0.1345034
0.5739017 0.2382322 0.1392301
0.5912653 0.2465199 0.1438737
0.6075472 0.2548121 0.1484489
0.6228855 0.2631083 0.1529670
0.6373924 0.2714079 0.1574369
0.6511604 0.2797106 0.1618655
0.6642668 0.2880158 0.1662588
0.6767768 0.2963232 0.1706215
0.6887462 0.3046328 0.1749574
0.7002227 0.3129441 0.1792699
0.0274950 0.1172678 0.0081959
0.0862257 0.1174985 0.0101372
0.0934368 0.1176017 0.0105215
0.0991036 0.1177166 0.0108828
0.1164553 0.1183134 0.0122621
0.1390417 0.1198105 0.0145186
0.1633096 0.1224680 0.0173503
0.1881190 0.1262679 0.0206273
0.2131159 0.1310378 0.0243907
0.2381830 0.1365738 0.0288116
0.2632782 0.1426966 0.0342364
0.2883849 0.1492643 0.0414821
0.3134964 0.1561702 0.0546211
0.3386096 0.1633351 0.0810882
0.3637232 0.1707005 0.0904166
0.3888368 0.1782229 0.0977185
0.4139499 0.1858698 0.1040878
0.4390627 0.1936166 0.1099096
0.4641749 0.2014442 0.1153705
0.4892867 0.2093382 0.1205766
0.5133021 0.2172871 0.1255939
0.5351655 0.2252817 0.1304666
0.5552629 0.2333149 0.1352257
0.5738839 0.2413807 0.1398934
0.5912496 0.2494744 0.1444867
0.6075332 0.2575921 0.1490183
0.6228729 0.2657305 0.1534981
0.6373811 0.2738869 0.1579342
0.6511502 0.2820591 0.1623328
0.6642576 0.2902452 0.1666993
0.6767684 0.2984434 0.1710377
0.6887385 0.3066525 0.1753517
0.7002156 0.3148713 0.1796443
0.0863800 0.1446637 0.0183333
0.1072278 0.1449337 0.0191388
0.1107620 0.1450037 0.0193216
0.1140028 0.1450753 0.0195005
0.1258720 0.1454048 0.0202475
0.1442682 0.1461612 0.0216809
0.1661276 0.1475246 0.0238110
0.1896481 0.1496252 0.0266424
0.2139577 0.1525087 0.0302520
0.2386506 0.1561472 0.0348689
0.2635359 0.1604696 0.0410900
0.2885216 0.1653876 0.0512936
0.3135614 0.1708123 0.0779011
0.3386313 0.1766622 0.0875837
0.3637186 0.1828667 0.0949016
0.3888159 0.1893664 0.1012275
0.4139192 0.1961119 0.1069916
0.4390261 0.2030627 0.1123931
0.4641351 0.2101858 0.1175418
0.4892453 0.2174540 0.1225053
0.5132639 0.2248452 0.1273281
0.5351308 0.2323410 0.1320408
0.5552313 0.2399263 0.1366659
0.5738552 0.2475887 0.1412196
0.5912235 0.2553178 0.1457146
0.6075094 0.2631047 0.1501606
0.6228513 0.2709422 0.1545653
0.6373613 0.2788239 0.1589347
0.6511320 0.2867447 0.1632739
0.6642408 0.2946999 0.1675870
0.6767530 0.3026858 0.1718773
0.6887243 0.3106989 0.1761477
0.7002025 0.3187363 0.1804005
0.1143514 0.1722027 0.0288694
0.1252914 0.1724025 0.0295047
0.1275695 0.1724513 0.0296532
0.1297429 0.1725004 0.0298001
0.1382937 0.1727185 0.0304292
0.1529502 0.1731945 0.0317052
0.1718584 0.1740278 0.0337561
0.1933516 0.1753180 0.0367496
0.2163429 0.1771431 0.0410231
0.2401939 0.1795460 0.0475582
0.2645417 0.1825341 0.0695061
0.2891809 0.1860873 0.0813957
0.3139944 0.1901674 0.0888977
0.3389143 0.1947266 0.0951859
0.3639006 0.1997145 0.1008601
0.3889290 0.2050814 0.1061595
0.4139847 0.2107811 0.1112070
0.4390585 0.2167715 0.1160742
0.4641441 0.2230154 0.1208071
0.4892380 0.2294804 0.1254367
0.5132468 0.2361380 0.1299848
0.5351083 0.2429639 0.1344676
0.5552062 0.2499369 0.1388971
0.5738292 0.2570390 0.1432825
0.5911974 0.2642546 0.1476310
0.6074839 0.2715703 0.1519483
0.6228266 0.2789745 0.1562392
0.6373377 0.2864571 0.1605072
0.6511097 0.2940096 0.1647555
0.6642197 0.3016243 0.1689866
0.6767331 0.3092947 0.1732027
0.6887054 0.3170151 0.1774056
0.7001848 0.3247805 0.1815968
0.1350967 0.1997241 0.0458839
0.1425628 0.1998755 0.0468619
0.1442057 0.1999119 0.0470987
0.1457982 0.1999481 0.0473363
0.1522787 0.2001069 0.0483944
0.1640502 0.2004446 0.0507984
0.1801630 0.2010204 0.0561660
0.1993711 0.2018993 0.0722293
0.2206414 0.2031443 0.0788445
0.2432477 0.2048072 0.0843264
0.2667120 0.2069222 0.0893659
0.2907284 0.2095049 0.0941628
0.3151025 0.2125539 0.0988041
0.3397109 0.2160545 0.1033362
0.3644746 0.2199831 0.1077872
0.3893427 0.2243104 0.1121759
0.4142818 0.2290045 0.1165154
0.4392700 0.2340332 0.1208155
0.4642923 0.2393647 0.1250834
0.4893389 0.2449693 0.1293247
0.5133064 0.2508193 0.1335440
0.5351405 0.2568893 0.1377447
0.5552204 0.2631565 0.1419296
0.5738312 0.2696004 0.1461011
0.5911915 0.2762026 0.1502611
0.6074727 0.2829468 0.1544111
0.6228120 0.2898184 0.1585524
0.6373210 0.2968047 0.1626862
0.6510916 0.3038942 0.1668134
0.6642011 0.3110768 0.1709347
0.6767142 0.3183435 0.1750508
0.6886868 0.3256864 0.1791624
0.7001665 0.3330984 0.1832698
0.1538953 0.2272301 0.0884072
0.1595019 0.2273494 0.0889102
0.1607657 0.2273778 0.0890264
0.1620003 0.2274060 0.0891409
0.1671156 0.2275288 0.0896252
0.1767353 0.2277859 0.0905775
0.1904557 0.2282164 0.0920204
0.2074445 0.2288636 0.0939274
0.2268487 0.2297727 0.0962425
0.2479685 0.2309873 0.0988987
0.2702844 0.2325438 0.1018303
0.2934284 0.2344696 0.1049801
0.3171453 0.2367806 0.1083009
0.3412601 0.2394822 0.1117553
0.3656529 0.2425710 0.1153146
0.3902412 0.2460360 0.1189563
0.4149685 0.2498612 0.1226637
0.4397952 0.2540269 0.1264235
0.4646938 0.2585115 0.1302259
0.4896451 0.2632928 0.1340628
0.5135177 0.2683482 0.1379284
0.5352859 0.2736558 0.1418175
0.5553198 0.2791950 0.1457266
0.5738981 0.2849459 0.1496523
0.5912352 0.2908904 0.1535923
0.6074996 0.2970117 0.1575445
0.6228268 0.3032942 0.1615072
0.6373270 0.3097239 0.1654790
0.6510913 0.3162879 0.1694586
0.6641961 0.3229745 0.1734452
0.6767058 0.3297732 0.1774379
0.6886760 0.3366745 0.1814360
0.7001539 0.3436695 0.1854389
0.1718278 0.2547265 0.1040961
0.1762714 0.2548235 0.1043725
0.1772858 0.2548464 0.1044369
0.1782811 0.2548693 0.1045006
0.1824485 0.2549680 0.1047724
0.1904579 0.2551731 0.1053174
0.2022116 0.2555124 0.1061696
0.2171968 0.2560160 0.1073424
0.2347657 0.2567164 0.1088327
0.2543079 0.2576471 0.1106254
0.2753189 0.2588397 0.1126969
0.2974088 0.2603215 0.1150194
0.3202866 0.2621142 0.1175638
0.3437391 0.2642323 0.1203018
0.3676113 0.2666837 0.1232069
0.3917912 0.2694699 0.1262559
0.4161976 0.2725867 0.1294279
0.4407719 0.2760260 0.1327055
0.4654712 0.2797761 0.1360734
0.4902645 0.2838230 0.1395189
0.5139665 0.2881514 0.1430311
0.5356132 0.2927449 0.1466009
0.5555601 0.2975869 0.1502205
0.5740751 0.3026612 0.1538836
0.5913655 0.3079516 0.1575844
0.6075953 0.3134429 0.1613184
0.6228965 0.3191203 0.1650814
0.6373769 0.3249702 0.1688702
0.6511261 0.3309797 0.1726817
0.6642195 0.3371367 0.1765133
0.6767205 0.3434301 0.1803629
0.6886838 0.3498496 0.1842287
0.7001566 0.3563857 0.1881088
0.1892938 0.2822167 0.1164540
0.1929432 0.2822976 0.1166475
0.1937826 0.2823167 0.1166927
0.1946084 0.2823356 0.1167375
0.1980887 0.2824175 0.1169288
0.2048736 0.2825865 0.1173149
0.2150311 0.2828638 0.1179244
0.2282721 0.2832715 0.1187748
0.2441321 0.2838335 0.1198736
0.2621118 0.2845752 0.1212210
0.2817562 0.2855220 0.1228104
0.3026847 0.2866980 0.1246307
0.3245941 0.2881246 0.1266672
0.3472491 0.2898189 0.1289032
0.3704696 0.2917940 0.1313213
0.3941197 0.2940580 0.1339039
0.4180963 0.2966147 0.1366343
0.4423222 0.2994638 0.1394966
0.4667390 0.3026016 0.1424765
0.4913021 0.3060215 0.1455607
0.5147386 0.3097146 0.1487375
0.5361941 0.3136707 0.1519964
0.5560010 0.3178781 0.1553282
0.5744120 0.3223247 0.1587248
0.5916243 0.3269978 0.1621791
0.6077948 0.3318847 0.1656846
0.6230504 0.3369730 0.1692359
0.6374957 0.3422505 0.1728281
0.6512176 0.3477052 0.1764571
0.6642895 0.3533260 0.1801191
0.6767735 0.3591021 0.1838107
0.6887236 0.3650233 0.1875291
0.7001858 0.3710800 0.1912718
0.2064791 0.3097028 0.1274638
0.2095540 0.3097716 0.1276127
0.2102647 0.3097878 0.1276475
0.2109651 0.3098039 0.1276820
0.2139296 0.3098733 0.1278296
0.2197651 0.3100160 0.1281282
0.2286271 0.3102488 0.1286019
0.2403756 0.3105887 0.1292670
0.2546930 0.3110537 0.1301337
0.2711894 0.3116634 0.1312070
0.2894745 0.3124379 0.1324874
0.3091976 0.3133973 0.1339716
0.3300615 0.3145604 0.1356533
0.3518236 0.3159443 0.1375236
0.3742898 0.3175632 0.1395719
0.3973070 0.3194283 0.1417868
0.4207554 0.3215475 0.1441560
0.4445417 0.3239256 0.1466676
0.4685932 0.3265641 0.1493095
0.4928439 0.3294620 0.1520703
0.5159110 0.3326159 0.1549394
0.5370955 0.3360206 0.1579066
0.5567005 0.3396691 0.1609628
0.5749590 0.3435535 0.1640996
0.5920547 0.3476647 0.1673093
0.6081350 0.3519934 0.1705849
0.6233205 0.3565297 0.1739203
0.6377107 0.3612635 0.1773099
0.6513891 0.3661850 0.1807485
0.6644264 0.3712842 0.1842317
0.6768828 0.3765514 0.1877554
0.6888106 0.3819774 0.1913160
0.7002549 0.3875532 0.1949102
0.2234827 0.3371862 0.1377474
0.2261245 0.3372457 0.1378681
0.2267371 0.3372597 0.1378963
0.2273415 0.3372736 0.1379243
0.2299073 0.3373335 0.1380442
0.2349927 0.3374563 0.1382870
0.2427965 0.3376557 0.1386732
0.2532761 0.3379453 0.1392174
0.2662253 0.3383393 0.1399299
0.2813500 0.3388529 0.1408174
0.2983281 0.3395021 0.1418834
0.3168489 0.3403034 0.1431283
0.3366345 0.3412728 0.1445503
0.3574463 0.3424256 0.1461453
0.3790859 0.3437757 0.1479075
0.4013906 0.3453350 0.1498297
0.4242291 0.3471132 0.1519039
0.4474954 0.3491176 0.1541212
0.4711050 0.3513531 0.1564728
0.4949526 0.3538225 0.1589495
0.5175449 0.3565263 0.1615423
0.5383745 0.3594631 0.1642425
0.5577103 0.3626300 0.1670418
0.5757622 0.3660224 0.1699322
0.5926975 0.3696350 0.1729066
0.6086524 0.3734613 0.1759578
0.6237388 0.3774944 0.1790798
0.6380501 0.3817265 0.1822664
0.6516655 0.3861499 0.1855125
0.6646520 0.3907565 0.1888131
0.6770673 0.3955382 0.1921638
0.6889617 0.4004870 0.1955603
0.7003786 0.4055948 0.1989991
0.2403622 0.3646676 0.1475846
0.2426670 0.3647197 0.1476859
0.2432026 0.3647320 0.1477096
0.2437315 0.3647442 0.1477330
0.2459818 0.3647965 0.1478337
0.2504639 0.3649037 0.1480377
0.2573957 0.3650773 0.1483627
0.2667969 0.3653285 0.1488216
0.2785435 0.3656685 0.1494243
0.2924205 0.3661097 0.1501777
0.3081693 0.3666648 0.1510866
0.3255237 0.3673473 0.1521533
0.3442319 0.3681708 0.1533783
0.3640682 0.3691484 0.1547605
0.3848371 0.3702928 0.1562969
0.4063733 0.3716155 0.1579836
0.4285387 0.3731265 0.1598154
0.4512191 0.3748343 0.1617863
0.4743208 0.3767456 0.1638899
0.4976654 0.3788653 0.1661194
0.5196820 0.3811965 0.1684675
0.5400738 0.3837407 0.1709271
0.5590721 0.3864979 0.1734912
0.5768610 0.3894663 0.1761529
0.5935894 0.3926436 0.1789055
0.6093802 0.3960261 0.1817427
0.6243353 0.3996091 0.1846584
0.6385413 0.4033876 0.1876469
0.6520712 0.4073557 0.1907030
0.6649881 0.4115074 0.1938216
0.6773466 0.4158362 0.1969981
0.6891942 0.4203356 0.2002284
0.7005724 0.4249989 0.2035083
0.2571534 0.3921475 0.1571251
0.2591894 0.3921938 0.1572121
0.2596633 0.3922047 0.1572324
0.2601316 0.3922154 0.1572526
0.2621270 0.3922618 0.1573391
0.2661162 0.3923565 0.1575145
0.2723222 0.3925097 0.1577942
0.2808045 0.3927304 0.1581898
0.2914979 0.3930283 0.1587103
0.3042509 0.3934132 0.1593626
0.3188608 0.3938956 0.1601517
0.3351048 0.3944866 0.1610810
0.3527608 0.3951975 0.1621523
0.3716213 0.3960397 0.1633660
0.3914995 0.3970241 0.1647212
0.4122326 0.3981615 0.1662159
0.4336804 0.3994615 0.1678471
0.4557242 0.4009326 0.1696109
0.4782643 0.4025825 0.1715029
0.5009933 0.4044169 0.1735181
0.5223444 0.4064407 0.1756511
0.5422210 0.4086573 0.1778962
0.5608160 0.4110684 0.1802477
0.5782861 0.4136749 0.1826998
0.5947604 0.4164763 0.1852468
0.6103469 0.4194712 0.1878830
0.6251371 0.4226572 0.1906030
0.6392087 0.4260313 0.1934016
0.6526288 0.4295896 0.1962736
0.6654555 0.4333279 0.1992144
0.6777394 0.4372414 0.2022194
0.6895252 0.4413250 0.2052843
0.7008520 0.4455735 0.2084052
0.2738797 0.4196264 0.1664572
0.2756968 0.4196678 0.1665332
0.2761203 0.4196775 0.1665511
0.2765390 0.4196872 0.1665687
0.2783251 0.4197286 0.1666443
0.2819058 0.4198132 0.1667978
0.2875017 0.4199497 0.1670427
0.2951971 0.4201460 0.1673893
0.3049690 0.4204101 0.1678461
0.3167149 0.4207502 0.1684194
0.3302797 0.4211751 0.1691144
0.3454807 0.4216940 0.1699349
0.3621260 0.4223162 0.1708834
0.3800289 0.4230516 0.1719611
0.3990156 0.4239097 0.1731684
0.4189292 0.4248999 0.1745047
0.4396318 0.4260314 0.1759684
0.4610031 0.4273122 0.1775573
0.4829402 0.4287500 0.1792683
0.5049251 0.4303512 0.1810980
0.5255350 0.4321212 0.1830424
0.5448283 0.4340646 0.1850972
0.5629597 0.4361845 0.1872580
0.5800581 0.4384833 0.1895199
0.5962324 0.4409621 0.1918782
0.6115751 0.4436213 0.1943281
0.6261659 0.4464601 0.1968648
0.6400738 0.4494773 0.1994837
0.6533586 0.4526707 0.2021801
0.6660730 0.4560376 0.2049497
0.6782635 0.4595749 0.2077882
0.6899710 0.4632790 0.2106915
0.7012322 0.4671459 0.2136558
0.2905571 0.4471045 0.1756372
0.2921930 0.4471418 0.1757045
0.2925746 0.4471506 0.1757203
0.2929520 0.4471593 0.1757359
0.2945636 0.4471966 0.1758030
0.2978015 0.4472728 0.1759391
0.3028799 0.4473956 0.1761563
0.3098977 0.4475718 0.1764641
0.3188618 0.4478083 0.1768699
0.3297077 0.4481121 0.1773801
0.3423195 0.4484906 0.1779994
0.3565496 0.4489513 0.1787317
0.3722356 0.4495024 0.1795800
0.3892123 0.4501521 0.1805461
0.4073209 0.4509087 0.1816311
0.4264138 0.4517806 0.1828351
0.4463577 0.4527759 0.1841577
0.4670339 0.4539022 0.1855977
0.4883385 0.4551667 0.1871533
0.5094316 0.4565760 0.1888221
0.5292413 0.4581359 0.1906013
0.5478943 0.4598512 0.1924878
0.5655093 0.4617261 0.1944780
0.5821884 0.4637638 0.1965683
0.5980200 0.4659667 0.1987548
0.6130810 0.4683361 0.2010334
0.6274391 0.4708730 0.2034001
0.6411538 0.4735772 0.2058508
0.6542776 0.4764481 0.2083816
0.6668572 0.4794843 0.2109883
0.6789345 0.4826840 0.2136673
0.6905466 0.4860449 0.2164146
0.7017270 0.4895642 0.2192266
0.3071965 0.4745819 0.1847024
0.3086803 0.4746158 0.1847628
0.3090267 0.4746237 0.1847769
0.3093694 0.4746317 0.1847909
0.3108336 0.4746656 0.1848510
0.3137807 0.4747347 0.1849730
0.3184161 0.4748459 0.1851678
0.3248470 0.4750054 0.1854439
0.3331012 0.4752190 0.1858083
0.3431430 0.4754928 0.1862667
0.3548886 0.4758331 0.1868238
0.3682211 0.4762462 0.1874835
0.3830042 0.4767392 0.1882488
0.3990946 0.4773190 0.1891219
0.4163491 0.4779930 0.1901042
0.4346315 0.4787683 0.1911967
0.4538152 0.4796522 0.1923993
0.4737851 0.4806518 0.1937118
0.4944097 0.4817737 0.1951332
0.5144705 0.4830242 0.1966620
0.5334376 0.4844090 0.1982963
0.5514060 0.4859333 0.2000338
0.5684610 0.4876016 0.2018720
0.5846793 0.4894176 0.2038079
0.6001299 0.4913836 0.2058385
0.6148743 0.4934884 0.2079605
0.6289682 0.4957266 0.2101705
0.6424614 0.4980953 0.2124651
0.6553990 0.5005909 0.2148408
0.6678215 0.5032091 0.2172942
0.6797655 0.5059450 0.2198216
0.6912646 0.5087934 0.2224199
0.7023487 0.5117484 0.2250855
0.3238062 0.5017980 0.1936791
0.3251607 0.5018277 0.1937337
0.3254771 0.5018346 0.1937465
0.3257902 0.5018415 0.1937591
0.3271287 0.5018710 0.1938135
0.3298265 0.5019313 0.1939238
0.3340796 0.5020281 0.1941000
0.3399989 0.5021667 0.1943499
0.3476272 0.5023519 0.1946798
0.3569504 0.5025886 0.1950952
0.3679102 0.5028819 0.1956005
0.3804156 0.5032367 0.1961993
0.3943544 0.5036585 0.1968949
0.4096032 0.5041526 0.1976894
0.4260352 0.5047246 0.1985847
0.4435259 0.5053798 0.1995819
0.4619571 0.5061236 0.2006818
0.4812190 0.5069612 0.2018843
0.5009878 0.5078971 0.2031892
0.5199908 0.5089358 0.2045957
0.5380896 0.5100811 0.2061025
0.5553413 0.5113360 0.2077081
0.5718020 0.5127031 0.2094106
0.5875255 0.5141841 0.2112078
0.6025620 0.5157802 0.2130974
0.6169587 0.5174916 0.2150766
0.6307595 0.5193180 0.2171429
0.6440051 0.5212584 0.2192933
0.6567324 0.5233110 0.2215249
0.6689760 0.5254734 0.2238346
0.6807675 0.5277429 0.2262194
0.6921359 0.5301161 0.2286764
0.7031079 0.5325893 0.2312024
0.3403921 0.5267121 0.2025861
0.3416356 0.5267366 0.2026358
0.3419262 0.5267424 0.2026474
0.3422138 0.5267481 0.2026590
0.3434440 0.5267727 0.2027085
0.3459262 0.5268226 0.2028090
0.3498468 0.5269028 0.2029696
0.3553179 0.5270175 0.2031974
0.3623919 0.5271707 0.2034983
0.3710716 0.5273662 0.2038773
0.3813189 0.5276080 0.2043387
0.3930644 0.5279002 0.2048860
0.4062169 0.5282468 0.2055221
0.4206716 0.5286523 0.2062496
0.4363170 0.5291210 0.2070703
0.4530411 0.5296573 0.2079857
0.4707348 0.5302656 0.2089966
0.4892948 0.5309502 0.2101036
0.5079876 0.5317152 0.2113068
0.5259369 0.5325643 0.2126059
0.5431562 0.5335011 0.2140002
0.5596713 0.5345287 0.2154887
0.5755132 0.5356497 0.2170700
0.5907148 0.5368663 0.2187427
0.6053100 0.5381802 0.2205047
0.6193325 0.5395923 0.2223543
0.6328149 0.5411034 0.2242891
0.6457887 0.5427134 0.2263067
0.6582836 0.5444217 0.2284048
0.6703279 0.5462276 0.2305807
0.6819480 0.5481293 0.2328320
0.6931688 0.5501250 0.2351558
0.7040132 0.5522124 0.2375496
0.3569587 0.5493411 0.2114372
0.3581060 0.5493619 0.2114827
0.3583742 0.5493667 0.2114934
0.3586397 0.5493715 0.2115040
0.3597757 0.5493923 0.2115494
0.3620700 0.5494344 0.2116415
0.3656995 0.5495020 0.2117888
0.3707754 0.5495985 0.2119978
0.3773570 0.5497273 0.2122739
0.3854591 0.5498915 0.2126219
0.3950600 0.5500944 0.2130456
0.4061082 0.5503391 0.2135486
0.4185306 0.5506290 0.2141338
0.4322389 0.5509677 0.2148034
0.4471366 0.5513586 0.2155596
0.4631234 0.5518054 0.2164039
0.4801000 0.5523117 0.2173374
0.4978620 0.5528810 0.2183610
0.5153373 0.5535168 0.2194749
0.5322517 0.5542225 0.2206793
0.5485932 0.5550012 0.2219739
0.5643629 0.5558558 0.2233581
0.5795702 0.5567888 0.2248310
0.5942306 0.5578026 0.2263916
0.6083631 0.5588988 0.2280385
0.6219893 0.5600792 0.2297701
0.6351314 0.5613447 0.2315847
0.6478124 0.5626959 0.2334805
0.6600549 0.5641332 0.2354553
0.6718811 0.5656562 0.2375071
0.6833123 0.5672646 0.2396336
0.6943693 0.5689573 0.2418326
0.7050712 0.5707331 0.2441018
0.3735095 0.5701062 0.2202427
0.3745726 0.5701239 0.2202847
0.3748213 0.5701280 0.2202945
0.3750674 0.5701321 0.2203043
0.3761210 0.5701498 0.2203462
0.3782503 0.5701858 0.2204311
0.3816232 0.5702435 0.2205670
0.3863490 0.5703259 0.2207597
0.3924911 0.5704358 0.2210144
0.4000736 0.5705756 0.2213355
0.4090875 0.5707482 0.2217268
0.4194961 0.5709561 0.2221915
0.4312416 0.5712022 0.2227323
0.4442509 0.5714892 0.2233517
0.4584405 0.5718201 0.2240516
0.4737222 0.5721978 0.2248338
0.4900057 0.5726253 0.2256994
0.5066600 0.5731057 0.2266495
0.5229692 0.5736419 0.2276846
0.5388788 0.5742366 0.2288051
0.5543552 0.5748928 0.2300110
0.5693799 0.5756131 0.2313021
0.5839452 0.5763997 0.2326778
0.5980518 0.5772550 0.2341374
0.6117063 0.5781807 0.2356801
0.6249189 0.5791786 0.2373045
0.6377029 0.5802500 0.2390094
0.6500731 0.5813957 0.2407933
0.6620456 0.5826167 0.2426546
0.6736367 0.5839131 0.2445914
0.6848630 0.5852850 0.2466019
0.6957409 0.5867323 0.2486843
0.7062864 0.5882543 0.2508364
0.3900470 0.5893175 0.2290108
0.3910362 0.5893328 0.2290497
0.3912676 0.5893364 0.2290588
0.3914966 0.5893399 0.2290678
0.3924775 0.5893552 0.2291066
0.3944611 0.5893863 0.2291854
0.3976065 0.5894361 0.2293112
0.4020205 0.5895072 0.2294898
0.4077689 0.5896020 0.2297259
0.4148827 0.5897225 0.2300237
0.4233627 0.5898711 0.2303866
0.4331845 0.5900499 0.2308177
0.4443033 0.5902613 0.2313197
0.4566589 0.5905076 0.2318950
0.4701804 0.5907912 0.2325456
0.4847902 0.5911145 0.2332730
0.5002161 0.5914801 0.2340787
0.5156156 0.5918905 0.2349638
0.5308212 0.5923480 0.2359290
0.5457646 0.5928555 0.2369748
0.5603970 0.5934151 0.2381015
0.5746854 0.5940292 0.2393091
0.5886087 0.5947000 0.2405974
0.6021556 0.5954295 0.2419660
0.6153217 0.5962196 0.2434141
0.6281081 0.5970718 0.2449411
0.6405198 0.5979877 0.2465458
0.6525645 0.5989683 0.2482271
0.6642519 0.6000148 0.2499837
0.6755933 0.6011276 0.2518142
0.6866003 0.6023072 0.2537171
0.6972855 0.6035538 0.2556907
0.7076614 0.6048673 0.2577333
0.4065736 0.6072112 0.2377476
0.4074971 0.6072245 0.2377838
0.4077133 0.6072276 0.2377923
