sample/src/main/assets/lut/NBCU-FinalCut/1-NBCU_SDR2HLG_DL_Adobe_v1.1.cube
TITLE "Generated by ORION-CONVERT 1.0b42"
# PLEASE DO NOT ALTER THE LINES BELOW
# 
# © 2020 NBCUniversal, LLC - Please do not remove this line
#
# Built using tools from and in collaboration with Cromorama and Nick Shaw - the creators of ORION-CONVERT
#
# Parameters designed by Chris Seeger, NBCU Advanced Technology (chris.seeger@nbcuni.com)
# In collaboration with Michael Drazin, NBCU Sports Group (michael.drazin@nbcuni.com)
#
# NBCUniversal SDR to HLG Display
# Unscaled code values in and out
# SDR to HLG
# Display light mode
# HDR Ref (IRE) =  75
# SDR Ref (IRE) =  100
# HDR Peak =  1000 nits
# SDR EOTF = 2.4 gamma
# Stage 2 Knee = 1.000
# Stage 2 Expand = 0.000
# Stage 1 Knee = 1.000
# Stage 1 Expand = 0.000
# Method = Max(RGB)
LUT_3D_SIZE 5
# 2021-04-26
# Input and Output values have been changed from narrow range encoding to extended full range encoding
# According to formula Full range value = (-16 + (1023*NarrowRangeValue)/4)/219
# Narrow range filename was 1-NBCU_SDR2HLG_DL_v1.1.cube
DOMAIN_MIN -0.0730594 -0.0730594 -0.0730594
DOMAIN_MAX 1.09475 1.09475 1.09475
-0.0651372 -0.0651372 -0.0651372
0.176568 0.0107743 -0.0530667
0.410499 0.127672 0.0439439
0.617456 0.20963 0.093891
0.74468 0.28905 0.135647
0.106661 0.192302 0.0301833
0.191856 0.195271 0.0393334
0.411544 0.218731 0.0701883
0.61739 0.266645 0.106307
0.744586 0.328281 0.143498
0.266256 0.449073 0.132051
0.29931 0.449895 0.133491
0.448201 0.455696 0.142002
0.625313 0.4711 0.159048
0.746423 0.498658 0.182955
0.42103 0.655619 0.214757
0.43923 0.655874 0.215482
0.534902 0.657537 0.219918
0.654823 0.661685 0.229532
0.757127 0.669298 0.244519
0.566625 0.779841 0.295444
0.575917 0.779953 0.295908
0.624424 0.780665 0.298764
0.699922 0.782375 0.305085
0.779105 0.785472 0.315294
-0.0479467 -0.0684931 0.283515
0.177218 0.0264509 0.20966
0.41084 0.128828 0.188575
0.617582 0.210198 0.192122
0.744734 0.289411 0.207904
0.114123 0.191883 0.19765
0.195157 0.195157 0.195157
0.412284 0.219053 0.190965
0.617578 0.266988 0.196754
0.744655 0.32856 0.212402
0.268431 0.448934 0.211883
0.301173 0.449773 0.21235
0.449215 0.455651 0.215544
0.62564 0.471139 0.223675
0.746543 0.498746 0.237818
0.42218 0.655575 0.262791
0.440318 0.655832 0.263284
0.535629 0.657505 0.266344
0.655142 0.661671 0.273227
0.757274 0.669302 0.284518
0.567214 0.779821 0.327956
0.576473 0.779934 0.32834
0.624832 0.780649 0.330712
0.700169 0.782363 0.336012
0.779246 0.785466 0.344703
0.106176 0.0260955 0.539197
0.194085 0.0601899 0.524509
0.414021 0.135794 0.483676
0.618502 0.213702 0.455978
0.745105 0.291642 0.442428
0.150248 0.191677 0.504302
0.214351 0.195888 0.497984
0.417253 0.22128 0.474605
0.618842 0.269149 0.453823
0.745108 0.330299 0.442581
0.281412 0.448215 0.460854
0.312382 0.449146 0.459962
0.455451 0.455451 0.455451
0.627668 0.471419 0.449471
0.747291 0.499308 0.445905
0.429218 0.655319 0.458761
0.446983 0.655586 0.458699
0.540059 0.657321 0.458442
0.657109 0.661591 0.458523
0.758187 0.669327 0.46008
0.570818 0.779704 0.482555
0.579876 0.779819 0.482675
0.627337 0.780548 0.483441
0.701691 0.78229 0.48531
0.780116 0.785428 0.488769
0.179437 0.08108 0.72928
0.233904 0.0947925 0.72495
0.424741 0.150185 0.706651
0.621275 0.221443 0.685791
0.746112 0.296637 0.669127
0.204454 0.196841 0.716975
0.251105 0.201397 0.714039
0.429832 0.227135 0.70038
0.622167 0.274152 0.682868
0.746271 0.334241 0.667868
0.307999 0.447331 0.685307
0.335779 0.448415 0.684401
0.469181 0.455444 0.679439
0.632252 0.472258 0.671163
0.749026 0.500662 0.662382
0.444526 0.654832 0.666316
0.461521 0.655122 0.66604
0.549604 0.656983 0.664446
0.661464 0.661464 0.661464
0.760241 0.669417 0.657881
0.578648 0.779461 0.661837
0.587282 0.77958 0.661766
0.632838 0.78034 0.661352
0.705066 0.78214 0.660582
0.782063 0.785355 0.659713
0.249032 0.120917 0.848463
0.286415 0.129387 0.84648
0.446088 0.170905 0.836511
0.627189 0.233806 0.822013
0.748201 0.304838 0.807905
0.265601 0.209179 0.842422
0.299917 0.213478 0.840808
0.452067 0.237793 0.832427
0.628602 0.282669 0.81959
0.748555 0.340845 0.806559
0.346406 0.447431 0.82079
0.370421 0.448668 0.820063
0.491118 0.456441 0.815959
0.639866 0.474169 0.808615
0.752035 0.503128 0.799933
0.468577 0.654269 0.801311
0.484468 0.65459 0.801017
0.56434 0.656623 0.799281
0.668499 0.661398 0.795855
0.763647 0.669658 0.791279
0.590901 0.779112 0.789777
0.598908 0.77924 0.789655
0.641602 0.780046 0.78892
0.710542 0.781936 0.787408
0.785266 0.785266 0.785266
