sample/src/main/assets/lut/NBCU-FinalCut/1-NBCU_SDR2HLG_DL_Adobe_v1.1.cube
TITLE "Generated by ORION-CONVERT 1.0b42"
# PLEASE DO NOT ALTER THE LINES BELOW
# 
# © 2020 NBCUniversal, LLC - Please do not remove this line
#
# Built using tools from and in collaboration with Cromorama and Nick Shaw - the creators of ORION-CONVERT
#
# Parameters designed by Chris Seeger, NBCU Advanced Technology (chris.seeger@nbcuni.com)
# In collaboration with Michael Drazin, NBCU Sports Group (michael.drazin@nbcuni.com)
#
# NBCUniversal SDR to HLG Display
# Unscaled code values in and out
# SDR to HLG
# Display light mode
# HDR Ref (IRE) =  75
# SDR Ref (IRE) =  100
# HDR Peak =  1000 nits
# SDR EOTF = 2.4 gamma
# Stage 2 Knee = 1.000
# Stage 2 Expand = 0.000
# Stage 1 Knee = 1.000
# Stage 1 Expand = 0.000
# Method = Max(RGB)
LUT_3D_SIZE 9
# 2021-04-26
# Input and Output values have been changed from narrow range encoding to extended full range encoding
# According to formula Full range value = (-16 + (1023*NarrowRangeValue)/4)/219
# Narrow range filename was 1-NBCU_SDR2HLG_DL_v1.1.cube
DOMAIN_MIN -0.0730594 -0.0730594 -0.0730594
DOMAIN_MAX 1.09475 1.09475 1.09475
-0.0651372 -0.0651372 -0.0651372
0.0342295 -0.0633282 -0.0670796
0.176568 0.0107743 -0.0530667
0.293291 0.0828861 -0.024532
0.410499 0.127672 0.0439439
0.526469 0.169228 0.0710481
0.617456 0.20963 0.093891
0.68739 0.249488 0.115159
0.74468 0.28905 0.135647
-0.0409505 0.0638869 -0.0634881
0.0629381 0.065108 -0.0587396
0.175819 0.0799677 -0.0445757
0.293044 0.109317 -0.00927239
0.410355 0.144001 0.0484952
0.526379 0.18069 0.0736102
0.617407 0.218279 0.0956734
0.687359 0.256332 0.116514
0.744658 0.29465 0.136731
0.106661 0.192302 0.0301833
0.1221 0.192651 0.0316057
0.191856 0.195271 0.0393334
0.297306 0.203455 0.0534153
0.411544 0.218731 0.0701883
0.526631 0.24032 0.0880146
0.61739 0.266645 0.106307
0.68729 0.296304 0.124836
0.744586 0.328281 0.143498
0.187926 0.320709 0.0878032
0.195428 0.320881 0.0881498
0.237841 0.322056 0.0903519
0.320065 0.325482 0.0957477
0.422359 0.332302 0.104335
0.531334 0.343295 0.115591
0.619098 0.358603 0.128862
0.687961 0.37789 0.143584
0.744849 0.400598 0.159333
0.266256 0.449073 0.132051
0.270934 0.449181 0.132245
0.29931 0.449895 0.133491
0.36164 0.451873 0.136656
0.448201 0.455696 0.142002
0.544993 0.461956 0.149526
0.625313 0.4711 0.159048
0.691011 0.483341 0.17029
0.746423 0.498658 0.182955
0.3438 0.568466 0.173859
0.34709 0.568525 0.17399
0.367621 0.568917 0.174836
0.415704 0.56997 0.177008
0.487605 0.571935 0.180749
0.567592 0.575076 0.186164
0.637392 0.579627 0.193246
0.697758 0.58574 0.201907
0.750329 0.593447 0.212005
0.42103 0.655619 0.214757
0.423513 0.655653 0.214854
0.43923 0.655874 0.215482
0.477352 0.656461 0.217103
0.534902 0.657537 0.219918
0.596269 0.659233 0.224045
0.654823 0.661685 0.229532
0.708539 0.665011 0.236374
0.757127 0.669298 0.244519
0.498105 0.723651 0.25522
0.50007 0.723673 0.255296
0.512327 0.723814 0.255789
0.540568 0.724185 0.257064
0.581142 0.724858 0.259287
0.627975 0.725907 0.262567
0.676173 0.727409 0.266969
0.722893 0.729442 0.272518
0.766837 0.732077 0.27921
0.566625 0.779841 0.295444
0.567897 0.779856 0.295506
0.575917 0.779953 0.295908
0.595128 0.780207 0.296947
0.624424 0.780665 0.298764
0.660521 0.781372 0.301455
0.699922 0.782375 0.305085
0.739992 0.783725 0.309693
0.779105 0.785472 0.315294
-0.0630711 -0.0652346 0.058539
0.0406331 -0.0640077 0.0632501
0.176531 0.014088 0.0616839
0.293346 0.0831788 0.0679291
0.410541 0.127827 0.0803667
0.526498 0.169332 0.0955637
0.617473 0.209706 0.112164
0.687401 0.249548 0.129543
0.744687 0.289098 0.147387
-0.0345696 0.0631991 0.0669626
0.0650099 0.0650099 0.0650099
0.176083 0.0801894 0.0641124
0.293139 0.109492 0.0707674
0.410408 0.144124 0.0826558
0.526412 0.180781 0.0973631
0.617424 0.218349 0.113601
0.68737 0.256388 0.130717
0.744666 0.294696 0.148366
0.107699 0.192236 0.0780403
0.122971 0.192593 0.0783687
0.192301 0.19525 0.0805569
0.297501 0.203476 0.0862968
0.411642 0.218773 0.0957263
0.526682 0.240367 0.108051
0.617415 0.266691 0.122367
0.687305 0.296346 0.138001
0.744595 0.328318 0.154512
0.188401 0.320679 0.109181
0.19588 0.320852 0.10942
0.238185 0.322033 0.11096
0.320283 0.325472 0.114875
0.422491 0.332306 0.12145
0.531407 0.343308 0.13056
0.619134 0.358623 0.141828
0.687981 0.377912 0.154804
0.744861 0.400621 0.169084
0.266548 0.449054 0.145314
0.27122 0.449162 0.145478
0.29956 0.449878 0.146538
0.361831 0.451861 0.149253
0.448337 0.45569 0.153902
0.545074 0.461955 0.160559
0.625357 0.471106 0.169136
0.691037 0.48335 0.179435
0.746439 0.498669 0.191211
0.344005 0.568455 0.183174
0.347292 0.568515 0.183294
0.367808 0.568907 0.184068
0.415862 0.569961 0.186061
0.48773 0.571929 0.189508
0.567668 0.575072 0.194529
0.637437 0.579627 0.201144
0.697787 0.585741 0.209298
0.750347 0.593451 0.218875
0.421184 0.655613 0.221787
0.423666 0.655647 0.221879
0.439376 0.655868 0.222474
0.477482 0.656456 0.224009
0.534999 0.657532 0.226681
0.596334 0.65923 0.230608
0.654865 0.661683 0.235847
0.708568 0.665011 0.242404
0.757146 0.669299 0.25024
0.498226 0.723647 0.260783
0.500191 0.723669 0.260857
0.512439 0.72381 0.261332
0.540662 0.724182 0.262561
0.581214 0.724855 0.264706
0.628028 0.725904 0.267875
0.676211 0.727407 0.272135
0.72292 0.729441 0.277516
0.766856 0.732076 0.284018
0.566704 0.779838 0.299997
0.567975 0.779853 0.300057
0.575992 0.77995 0.300449
0.595194 0.780205 0.301461
0.624479 0.780663 0.303232
0.660564 0.78137 0.305857
0.699955 0.782373 0.309401
0.740017 0.783724 0.313904
0.779124 0.785471 0.319384
-0.0479467 -0.0684931 0.283515
0.0653875 -0.0574158 0.242924
0.177218 0.0264509 0.20966
0.293802 0.0850465 0.194427
0.41084 0.128828 0.188575
0.526693 0.169999 0.188366
0.617582 0.210198 0.192122
0.68747 0.249932 0.19886
0.744734 0.289411 0.207904
0.0346776 0.0630943 0.222951
0.0769059 0.065907 0.218667
0.178082 0.0817197 0.204808
0.293826 0.110626 0.193631
0.410776 0.144924 0.188791
0.526631 0.181372 0.188894
0.617542 0.218805 0.192744
0.687443 0.256754 0.199492
0.744715 0.294998 0.208513
0.114123 0.191883 0.19765
0.128424 0.192285 0.197249
0.195157 0.195157 0.195157
0.298782 0.203632 0.192232
0.412284 0.219053 0.190965
0.527021 0.240678 0.192457
0.617578 0.266988 0.196754
0.687398 0.296617 0.203535
0.744655 0.32856 0.212402
0.19144 0.32049 0.197642
0.198771 0.320671 0.197636
0.240402 0.321893 0.197645
0.321688 0.325412 0.197974
0.423346 0.332331 0.19927
0.531886 0.343398 0.202146
0.619368 0.35875 0.206914
0.688112 0.378058 0.213604
0.744942 0.400772 0.222073
0.268431 0.448934 0.211883
0.273062 0.449044 0.211944
0.301173 0.449773 0.21235
0.363064 0.451784 0.213456
0.449215 0.455651 0.215544
0.545598 0.461956 0.218885
0.62564 0.471139 0.223675
0.691202 0.483409 0.229995
0.746543 0.498746 0.237818
0.345326 0.568388 0.23468
0.348597 0.568449 0.234751
0.369018 0.568845 0.235209
0.416884 0.569909 0.236407
0.488538 0.57189 0.238541
0.568156 0.575051 0.241771
0.637731 0.579622 0.24622
0.69797 0.585752 0.251954
0.750467 0.593473 0.258983
0.42218 0.655575 0.262791
0.424655 0.65561 0.262857
0.440318 0.655832 0.263284
0.478324 0.656423 0.264392
0.535629 0.657505 0.266344
0.596751 0.65921 0.269258
0.655142 0.661671 0.273227
0.708754 0.665006 0.278306
0.757274 0.669302 0.284518
0.499014 0.723623 0.294274
0.500973 0.723645 0.294332
0.513164 0.723786 0.294711
0.541269 0.72416 0.295693
0.581682 0.724836 0.297417
0.628372 0.725888 0.299984
0.676458 0.727394 0.30347
0.723097 0.729433 0.307925
0.766984 0.732072 0.313378
0.567214 0.779821 0.327956
0.568482 0.779836 0.328007
0.576473 0.779934 0.32834
0.59562 0.780189 0.329201
0.624832 0.780649 0.330712
0.660842 0.781357 0.33296
0.700169 0.782363 0.336012
0.740179 0.783716 0.339917
0.779246 0.785466 0.344703
0.0632648 -0.0404589 0.392978
0.0913307 -0.0332484 0.388024
0.182314 0.0429915 0.368083
0.29561 0.0896748 0.346147
0.411806 0.131395 0.330638
0.527266 0.171724 0.320855
0.617888 0.211473 0.315454
0.68766 0.250929 0.313483
0.744863 0.290221 0.314293
0.0770171 0.0684106 0.379239
0.0999415 0.0711229 0.376153
0.184469 0.0859989 0.362005
0.296058 0.113587 0.343809
0.411892 0.146998 0.329786
0.527262 0.182902 0.320619
0.617869 0.219987 0.315502
0.687642 0.257701 0.313671
0.744848 0.295779 0.314552
0.128844 0.19143 0.347398
0.141249 0.191914 0.346611
0.202363 0.195184 0.342158
0.302172 0.204147 0.334058
0.414016 0.21982 0.325835
0.527936 0.241496 0.319615
0.618018 0.267766 0.316003
0.687649 0.297323 0.314958
0.744814 0.32919 0.31625
0.199032 0.320081 0.329218
0.206012 0.320278 0.329022
0.246024 0.321597 0.327833
0.325304 0.325304 0.325304
0.425571 0.332424 0.322242
0.533135 0.343643 0.319689
0.619983 0.359088 0.318396
0.688457 0.378439 0.318731
0.745154 0.401166 0.320801
0.273235 0.448646 0.325786
0.277761 0.448761 0.325744
0.305303 0.449521 0.325488
0.366235 0.451601 0.324948
0.451486 0.455562 0.324359
0.546953 0.461965 0.324119
0.626374 0.471233 0.324639
0.691633 0.483567 0.326233
0.746812 0.498947 0.329084
0.348721 0.568222 0.332691
0.351951 0.568284 0.3327
0.372131 0.56869 0.332761
0.419518 0.569778 0.332956
0.490626 0.571795 0.333408
0.569415 0.574999 0.334303
0.63849 0.579613 0.335846
0.698448 0.58578 0.338231
0.750779 0.593531 0.341602
0.42475 0.655479 0.347095
0.427205 0.655514 0.347122
0.44275 0.65574 0.3473
0.4805 0.656339 0.347772
0.537249 0.657436 0.348641
0.597828 0.659159 0.350019
0.655857 0.66164 0.352025
0.709236 0.664996 0.354775
0.757605 0.66931 0.358368
0.501049 0.723561 0.367067
0.502985 0.723583 0.3671
0.51503 0.723726 0.367317
0.542833 0.724103 0.367883
0.58289 0.724786 0.368893
0.629259 0.725847 0.370431
0.677097 0.727363 0.372581
0.723555 0.729413 0.375419
0.767315 0.732063 0.379013
0.568531 0.779778 0.39121
0.569787 0.779793 0.391244
0.577715 0.779891 0.391468
0.596721 0.780149 0.392049
0.625745 0.780612 0.393076
0.661564 0.781325 0.394623
0.700722 0.782336 0.396752
0.740597 0.783695 0.399523
0.779562 0.785452 0.402986
0.106176 0.0260955 0.539197
0.122408 0.0330946 0.536878
0.194085 0.0601899 0.524509
0.300096 0.0971485 0.503848
0.414021 0.135794 0.483676
0.528479 0.174726 0.467751
0.618502 0.213702 0.455978
0.688027 0.252677 0.44773
0.745105 0.291642 0.442428
0.113502 0.0783805 0.532059
0.128394 0.0806262 0.530131
0.19671 0.0934617 0.519542
0.300955 0.118742 0.500968
0.414302 0.150623 0.482218
0.52856 0.185581 0.467034
0.618516 0.222061 0.455651
0.688023 0.259364 0.447618
0.745098 0.297151 0.44244
0.150248 0.191677 0.504302
0.160529 0.192236 0.503391
0.214351 0.195888 0.497984
0.308278 0.20535 0.487179
0.417253 0.22128 0.474605
0.529653 0.242977 0.463098
0.618842 0.269149 0.453823
0.688115 0.298569 0.447021
0.745108 0.330299 0.442581
0.211496 0.319601 0.476363
0.217957 0.319821 0.476036
0.255498 0.321277 0.474022
0.331562 0.325256 0.469486
0.429498 0.332672 0.463285
0.535353 0.344122 0.456734
0.621087 0.359707 0.450886
0.689077 0.379124 0.44635
0.745536 0.401866 0.443388
0.281412 0.448215 0.460854
0.285769 0.448338 0.460731
0.312382 0.449146 0.459962
0.371724 0.451338 0.458139
0.455451 0.455451 0.455451
0.549321 0.462012 0.452376
0.627668 0.471419 0.449471
0.692396 0.483857 0.447207
0.747291 0.499308 0.445905
0.354585 0.567953 0.455774
0.357745 0.568017 0.455731
0.377518 0.56844 0.455457
0.424096 0.569568 0.4548
0.49427 0.571646 0.453821
0.571608 0.574921 0.452708
0.63982 0.579606 0.451728
0.699286 0.585837 0.451158
0.751329 0.593639 0.451237
0.429218 0.655319 0.458761
0.43164 0.655354 0.458753
0.446983 0.655586 0.458699
0.484293 0.656201 0.458581
0.540059 0.657321 0.458442
0.599706 0.659075 0.458377
0.657109 0.661591 0.458523
0.710081 0.664981 0.45904
0.758187 0.669327 0.46008
0.504567 0.723455 0.468108
0.506461 0.723478 0.468116
0.518257 0.723623 0.468168
0.545546 0.724007 0.468312
0.584991 0.724701 0.468594
0.630808 0.725777 0.46908
0.678214 0.727311 0.469852
0.724358 0.72938 0.471005
0.767895 0.732049 0.472639
0.570818 0.779704 0.482555
0.572057 0.77972 0.482571
0.579876 0.779819 0.482675
0.598637 0.78008 0.482948
0.627337 0.780548 0.483441
0.662823 0.781269 0.484209
0.701691 0.78229 0.48531
0.741332 0.78366 0.486807
0.780116 0.785428 0.488769
0.143662 0.0581045 0.648357
0.154822 0.0611323 0.647282
0.211794 0.0774868 0.641051
0.308218 0.10707 0.628873
0.418157 0.14209 0.614702
0.530668 0.179128 0.601261
0.619574 0.217002 0.589589
0.688646 0.255274 0.579921
0.745504 0.29376 0.572209
0.148563 0.0911107 0.644951
0.159213 0.0929197 0.643982
0.214383 0.103644 0.638305
0.309351 0.126129 0.626981
0.418628 0.155937 0.613514
0.530846 0.189547 0.600537
0.619628 0.225142 0.589155
0.688662 0.261841 0.57967
0.745506 0.299197 0.572077
0.17602 0.19336 0.62895
0.184431 0.193964 0.628361
0.230832 0.197845 0.624785
0.317512 0.207608 0.617048
0.422413 0.223655 0.606912
0.532421 0.245267 0.596354
0.620179 0.271246 0.586588
0.688866 0.300445 0.578169
0.745577 0.331962 0.571287
0.228429 0.319329 0.607495
0.23428 0.319574 0.607214
0.268804 0.321179 0.605456
0.340672 0.32546 0.601353
0.435378 0.333215 0.59537
0.538704 0.344935 0.588454
0.62278 0.360685 0.581499
0.690036 0.380176 0.575132
0.746127 0.402927 0.569721
0.293055 0.447731 0.590622
0.297189 0.447864 0.590488
0.322561 0.448735 0.589635
0.379725 0.451069 0.587566
0.461309 0.45538 0.584354
0.552821 0.462151 0.58036
0.629605 0.47174 0.57606
0.693547 0.484319 0.571903
0.748017 0.499867 0.568238
0.363106 0.567604 0.580113
0.366171 0.567672 0.580048
0.385376 0.568118 0.579632
0.430809 0.5693 0.578604
0.499649 0.571461 0.576959
0.574835 0.574835 0.574835
0.641794 0.57962 0.572459
0.700539 0.585939 0.570097
0.752153 0.593811 0.567993
0.435778 0.655098 0.575498
0.438152 0.655135 0.575468
0.453206 0.655375 0.575276
0.489884 0.656011 0.574797
0.544165 0.657166 0.574025
0.602471 0.658964 0.573019
0.658963 0.661528 0.571893
0.711338 0.664968 0.570793
0.759056 0.66936 0.569874
0.509682 0.723306 0.575927
0.511518 0.723329 0.575915
0.52296 0.723479 0.575843
0.549514 0.723872 0.575666
0.588079 0.724581 0.575386
0.633094 0.725679 0.575037
0.679869 0.727239 0.574682
0.72555 0.729335 0.574405
0.768759 0.732032 0.574299
0.574176 0.779598 0.580515
0.575389 0.779613 0.580514
0.583049 0.779715 0.580508
0.601458 0.779981 0.580498
0.629686 0.780457 0.580496
0.664687 0.781189 0.580528
0.703126 0.782224 0.580633
0.742422 0.78361 0.580861
0.780942 0.785395 0.581273
0.179437 0.08108 0.72928
0.187782 0.0830767 0.728665
0.233904 0.0947925 0.72495
0.320218 0.118877 0.716989
0.424741 0.150185 0.706651
0.53417 0.184972 0.695883
0.621275 0.221443 0.685791
0.689611 0.258792 0.67683
0.746112 0.296637 0.669127
0.183057 0.10542 0.727304
0.191164 0.106888 0.726728
0.236267 0.115818 0.723231
0.321483 0.135516 0.715663
0.425363 0.162938 0.70572
0.534439 0.194864 0.695256
0.621373 0.229307 0.685375
0.68965 0.265202 0.676557
0.746127 0.30198 0.668951
0.204454 0.196841 0.716975
0.211372 0.197457 0.716566
0.251105 0.201397 0.714039
0.329999 0.211196 0.708329
0.429832 0.227135 0.70038
0.536477 0.248494 0.691553
0.622167 0.274152 0.682868
0.689984 0.303024 0.674889
0.746271 0.334241 0.667868
0.249081 0.319582 0.700536
0.254307 0.319849 0.700307
0.285615 0.321589 0.698867
0.352669 0.326147 0.695444
0.443391 0.334223 0.690302
0.543317 0.346203 0.684116
0.625161 0.36211 0.677592
0.691397 0.381661 0.671266
0.746971 0.404405 0.665474
0.307999 0.447331 0.685307
0.311873 0.447475 0.685184
0.335779 0.448415 0.684401
0.390295 0.450909 0.68248
0.469181 0.455444 0.679439
0.557524 0.462454 0.675541
0.632252 0.472258 0.671163
0.695136 0.485002 0.666676
0.749026 0.500662 0.662382
0.374321 0.567221 0.673816
0.377266 0.567293 0.673749
0.395762 0.567767 0.673318
0.439751 0.569016 0.672242
0.506791 0.571278 0.670487
0.579148 0.574772 0.668148
0.644464 0.57968 0.665404
0.702247 0.586108 0.662473
0.753284 0.594066 0.659566
0.444526 0.654832 0.666316
0.446839 0.654871 0.666279
0.461521 0.655122 0.66604
0.497381 0.655785 0.66544
0.549604 0.656983 0.664446
0.606173 0.658836 0.663092
0.661464 0.661464 0.661464
0.713044 0.664967 0.659682
0.760241 0.669417 0.657881
0.516411 0.723118 0.662472
0.518172 0.723142 0.662452
0.529163 0.723296 0.662324
0.554776 0.723702 0.662001
0.592198 0.724432 0.661464
0.636162 0.725558 0.660725
0.682102 0.727151 0.65983
0.727167 0.729283 0.658847
0.769934 0.732017 0.657856
0.578648 0.779461 0.661837
0.579828 0.779476 0.661827
0.587282 0.77958 0.661766
0.60523 0.779853 0.66161
0.632838 0.78034 0.661352
0.667197 0.781087 0.661001
0.705066 0.78214 0.660582
0.7439 0.783548 0.660135
0.782063 0.785355 0.659713
0.214441 0.101567 0.794132
0.221012 0.103053 0.793737
0.259092 0.112093 0.791298
0.335826 0.132059 0.785765
0.434043 0.159872 0.778008
0.539228 0.192219 0.769306
0.62377 0.227049 0.760623
0.691021 0.263273 0.752492
0.74699 0.30032 0.74515
0.217272 0.120661 0.792854
0.223718 0.121873 0.792476
0.26119 0.129371 0.790135
0.337122 0.146551 0.784801
0.434768 0.171513 0.777273
0.539571 0.201529 0.768772
0.623911 0.234593 0.760243
0.691083 0.269497 0.752224
0.747018 0.305547 0.744962
0.234515 0.202159 0.78573
0.240279 0.202765 0.785433
0.27437 0.206634 0.783583
0.3456 0.216237 0.779265
0.439705 0.231836 0.772955
0.541986 0.252755 0.765568
0.62494 0.277943 0.757927
0.691555 0.306369 0.750572
0.747245 0.337188 0.743796
0.27265 0.320632 0.77295
0.277288 0.320916 0.772762
0.305452 0.322759 0.771577
0.367437 0.327533 0.768719
0.453633 0.335863 0.764318
0.549267 0.348049 0.758852
0.628317 0.36407 0.752881
0.693228 0.383646 0.746867
0.748111 0.40635 0.741127
0.325916 0.447178 0.759579
0.329512 0.447333 0.759469
0.35183 0.448342 0.758762
0.403378 0.450996 0.757017
0.47912 0.455758 0.754215
0.563453 0.463015 0.75055
0.635662 0.473042 0.746325
0.697211 0.48596 0.741856
0.750354 0.501734 0.737409
0.388142 0.566868 0.748264
0.39095 0.566946 0.748199
0.408629 0.567449 0.747778
0.450927 0.568772 0.746723
0.515558 0.571147 0.744983
0.58456 0.574776 0.742627
0.647865 0.579822 0.739799
0.704446 0.586373 0.736684
0.75475 0.594429 0.733468
0.455476 0.654545 0.7397
0.457717 0.654586 0.739661
0.471953 0.65485 0.739407
0.506746 0.655544 0.738765
0.556354 0.656793 0.73769
0.610826 0.658712 0.736201
0.664639 0.661413 0.734367
0.715227 0.664991 0.732289
0.761764 0.669511 0.730085
0.52469 0.722901 0.733867
0.526363 0.722926 0.733844
0.536822 0.723086 0.73369
0.561313 0.723508 0.7333
0.597357 0.724262 0.732642
0.640034 0.725421 0.731719
0.684938 0.727055 0.730563
0.729231 0.729231 0.729231
0.771442 0.732009 0.727794
0.584236 0.779297 0.730546
0.585375 0.779313 0.730532
0.592578 0.77942 0.730441
0.609964 0.7797 0.73021
0.636811 0.780201 0.729818
0.670375 0.780966 0.729265
0.707534 0.782042 0.728568
0.745787 0.783476 0.72776
0.7835 0.78531 0.726884
0.249032 0.120917 0.848463
0.254394 0.122092 0.84819
0.286415 0.129387 0.84648
0.354551 0.146225 0.842459
0.446088 0.170905 0.836511
0.545943 0.200777 0.829443
0.627189 0.233806 0.822013
0.692969 0.268735 0.814737
0.748201 0.304838 0.807905
0.251333 0.136479 0.847576
0.256623 0.137497 0.847311
0.288263 0.143869 0.845651
0.355817 0.158882 0.841738
0.446871 0.181476 0.835927
0.546338 0.20948 0.828992
0.627367 0.240997 0.821674
0.693055 0.274746 0.814485
0.748244 0.309931 0.807719
0.265601 0.209179 0.842422
0.270475 0.209761 0.842201
0.299917 0.213478 0.840808
0.364002 0.222723 0.837479
0.452067 0.237793 0.832427
0.549016 0.258098 0.826252
0.628602 0.282669 0.81959
0.693661 0.310525 0.812923
0.748555 0.340845 0.806559
0.298436 0.322664 0.832361
0.302549 0.322959 0.832207
0.327801 0.324868 0.831231
0.384758 0.329782 0.828846
0.46611 0.338274 0.825097
0.556565 0.350582 0.820314
0.632314 0.36665 0.814933
0.695587 0.386197 0.809347
0.749596 0.408814 0.803851
0.346406 0.447431 0.82079
0.349723 0.447596 0.820692
0.370421 0.448668 0.820063
0.418839 0.451468 0.818499
0.491118 0.456441 0.815959
0.570584 0.46393 0.812584
0.639866 0.474169 0.808615
0.699811 0.487255 0.804319
0.752035 0.503128 0.799933
0.404398 0.566622 0.810127
0.407058 0.566704 0.810065
0.423848 0.567239 0.809666
0.464275 0.568638 0.808662
0.525803 0.571128 0.806995
0.591044 0.574898 0.804711
0.652011 0.580087 0.801929
0.707159 0.586767 0.798807
0.756575 0.594925 0.795508
0.468577 0.654269 0.801311
0.470736 0.654312 0.801272
0.484468 0.65459 0.801017
0.517648 0.655319 0.80037
0.56434 0.656623 0.799281
0.616415 0.658615 0.797757
0.668499 0.661398 0.795855
0.717905 0.66506 0.793661
0.763647 0.669658 0.791279
0.534389 0.72267 0.79455
0.535963 0.722696 0.794524
0.54583 0.722863 0.79436
0.569057 0.723301 0.793941
0.603526 0.724085 0.793228
0.644707 0.725282 0.792219
0.688389 0.726962 0.790937
0.731758 0.729188 0.789431
0.773297 0.732017 0.787763
0.590901 0.779112 0.789777
0.591993 0.77913 0.789761
0.598908 0.77924 0.789655
0.615643 0.77953 0.789383
0.641602 0.780046 0.78892
0.674229 0.780833 0.788257
0.710542 0.781936 0.787408
0.748099 0.7834 0.786398
0.785266 0.785266 0.785266
