sample/src/main/assets/lut/NBCU-FinalCut/1-NBCU_SDR2HLG_DL_Adobe_v1.1.cube
TITLE "Generated by ORION-CONVERT 1.0b42"
# PLEASE DO NOT ALTER THE LINES BELOW
# 
# © 2020 NBCUniversal, LLC - Please do not remove this line
#
# Built using tools from and in collaboration with Cromorama and Nick Shaw - the creators of ORION-CONVERT
#
# Parameters designed by Chris Seeger, NBCU Advanced Technology (chris.seeger@nbcuni.com)
# In collaboration with Michael Drazin, NBCU Sports Group (michael.drazin@nbcuni.com)
#
# NBCUniversal SDR to HLG Display
# Unscaled code values in and out
# SDR to HLG
# Display light mode
# HDR Ref (IRE) =  75
# SDR Ref (IRE) =  100
# HDR Peak =  1000 nits
# SDR EOTF = 2.4 gamma
# Stage 2 Knee = 1.000
# Stage 2 Expand = 0.000
# Stage 1 Knee = 1.000
# Stage 1 Expand = 0.000
# Method = Max(RGB)
LUT_3D_SIZE 33
# 2021-04-26
# Input and Output values have been changed from narrow range encoding to extended full range encoding
# According to formula Full range value = (-16 + (1023*NarrowRangeValue)/4)/219
# Narrow range filename was 1-NBCU_SDR2HLG_DL_v1.1.cube
DOMAIN_MIN -0.0730594 -0.0730594 -0.0730594
DOMAIN_MAX 1.09475 1.09475 1.09475
-0.0651372 -0.0651372 -0.0651372
-0.0464025 -0.0642929 -0.0657307
-0.0405602 -0.064111 -0.065901
-0.0336715 -0.0639391 -0.0660842
0.0342295 -0.0633282 -0.0670796
0.0834282 -0.0637805 -0.0684931
0.1222 -0.0538045 -0.0676603
0.148031 -0.0359104 -0.0589912
0.176568 0.0107743 -0.0530667
0.205592 0.0398852 -0.0474261
0.234772 0.0565178 -0.0413217
0.264016 0.0703566 -0.0341023
0.293291 0.0828861 -0.024532
0.322582 0.0946648 -0.004012
0.351882 0.105964 0.0244789
0.381189 0.116935 0.0353197
0.410499 0.127672 0.0439439
0.439811 0.138234 0.0514949
0.469126 0.148662 0.0584017
0.498441 0.158987 0.0648783
0.526469 0.169228 0.0710481
0.551988 0.179403 0.0769889
0.575447 0.189522 0.0827533
0.597183 0.199595 0.0883784
0.617456 0.20963 0.093891
0.636467 0.219632 0.0993115
0.654376 0.229607 0.104655
0.671314 0.239558 0.109935
0.68739 0.249488 0.115159
0.702694 0.2594 0.120337
0.717302 0.269297 0.125474
0.731278 0.27918 0.130576
0.74468 0.28905 0.135647
-0.0599508 -0.0353602 -0.0674694
-0.0346994 -0.0326426 -0.0684931
-0.0241544 -0.0320186 -0.0684931
0.00834423 -0.0314339 -0.0684931
0.0749098 -0.0356131 -0.0684931
0.0883972 -0.00441478 -0.0662375
0.117326 0.0276525 -0.0596682
0.146566 0.0410968 -0.054499
0.175864 0.0527387 -0.0495155
0.205178 0.0636486 -0.044195
0.234496 0.0741792 -0.0380906
0.263817 0.0844864 -0.0305311
0.293139 0.0946507 -0.0197305
0.322461 0.104718 0.0135153
0.351782 0.114718 0.028056
0.381104 0.124667 0.0377702
0.410426 0.134578 0.0458563
0.439748 0.14446 0.053077
0.469069 0.15432 0.0597557
0.498391 0.164161 0.0660634
0.526428 0.173987 0.0721021
0.551953 0.183801 0.0779379
0.575417 0.193606 0.0836161
0.597158 0.203402 0.0891688
0.617434 0.21319 0.0946199
0.636448 0.222973 0.0999872
0.654359 0.23275 0.105285
0.671299 0.242523 0.110523
0.687377 0.252292 0.115712
0.702682 0.262058 0.120857
0.717291 0.271821 0.125965
0.731269 0.281581 0.131041
0.744671 0.291338 0.136088
-0.0592311 -0.0205149 -0.0684931
-0.0314958 -0.0122271 -0.0684931
-0.0168759 -0.00864353 -0.0684931
0.0237093 0.0035095 -0.0684931
0.0585156 0.0183918 -0.0684931
0.0877492 0.0285743 -0.0638397
0.117104 0.0385035 -0.0583811
0.146453 0.0483413 -0.0535568
0.175793 0.0581377 -0.0487109
0.205128 0.0679121 -0.0434369
0.234459 0.0776737 -0.0373143
0.263787 0.0874273 -0.0296482
0.293114 0.0971753 -0.018442
0.32244 0.10692 0.0151266
0.351764 0.116661 0.0288249
0.381088 0.126401 0.0383188
0.410412 0.136139 0.0462912
0.439735 0.145876 0.0534398
0.469058 0.155612 0.0600677
0.49838 0.165347 0.0663374
0.526419 0.175081 0.0723464
0.551946 0.184815 0.0781584
0.575411 0.194549 0.0838168
0.597153 0.204282 0.0893529
0.61743 0.214015 0.0947897
0.636443 0.223748 0.100145
0.654355 0.23348 0.105432
0.671296 0.243213 0.110661
0.687374 0.252945 0.115841
0.70268 0.262677 0.120979
0.717289 0.272409 0.12608
0.731266 0.28214 0.13115
0.744669 0.291872 0.136191
-0.0595177 0.0232049 -0.0684931
-0.0283865 0.0345051 -0.0684931
0.0112057 0.0330006 -0.0684931
0.0291178 0.0329142 -0.0684931
0.0581866 0.0348284 -0.0673935
0.0876257 0.0397279 -0.0619474
0.117027 0.0465498 -0.0572012
0.146397 0.0544512 -0.0526503
0.17575 0.0629672 -0.0479207
0.205093 0.0718505 -0.042684
0.23443 0.0809649 -0.0365364
0.263763 0.0902319 -0.0287527
0.293093 0.0996035 -0.0170766
0.322421 0.10905 0.0165643
0.351748 0.11855 0.0295649
0.381074 0.128092 0.0388536
0.410399 0.137665 0.0467174
0.439723 0.147262 0.0537963
0.469047 0.156879 0.0603749
0.49837 0.166512 0.0666075
0.526411 0.176157 0.0725875
0.551939 0.185813 0.0783758
0.575405 0.195478 0.0840148
0.597148 0.20515 0.0895347
0.617425 0.214829 0.0949575
0.636439 0.224512 0.1003
0.654351 0.234201 0.105577
0.671293 0.243893 0.110797
0.687371 0.253589 0.115969
0.702677 0.263288 0.121099
0.717286 0.272989 0.126194
0.731264 0.282693 0.131257
0.744666 0.292399 0.136294
-0.0409505 0.0638869 -0.0634881
0.0276357 0.0641564 -0.0612211
0.0360569 0.0642769 -0.0607723
0.0426746 0.0644111 -0.0603503
0.0629381 0.065108 -0.0587396
0.0893147 0.0668563 -0.0561044
0.117655 0.0699598 -0.0527975
0.146628 0.0743973 -0.0489706
0.175819 0.0799677 -0.0445757
0.205093 0.0864326 -0.0394129
0.234399 0.0935829 -0.0330778
0.263719 0.101253 -0.0246162
0.293044 0.109317 -0.00927239
0.322372 0.117685 0.0216361
0.3517 0.126286 0.0325299
0.381027 0.135071 0.0410571
0.410355 0.144001 0.0484952
0.439682 0.153048 0.055294
0.469008 0.162189 0.0616713
0.498334 0.171408 0.067751
0.526379 0.18069 0.0736102
0.551911 0.190026 0.0793006
0.575381 0.199408 0.0848583
0.597127 0.208827 0.0903093
0.617407 0.218279 0.0956734
0.636423 0.227759 0.100965
0.654337 0.237263 0.106197
0.67128 0.246788 0.111377
0.687359 0.256332 0.116514
0.702666 0.265891 0.121613
0.717276 0.275465 0.12668
0.731255 0.285052 0.131718
0.744658 0.29465 0.136731
0.0278159 0.0958801 -0.0516496
0.0521621 0.0961954 -0.0507089
0.0562894 0.0962772 -0.0504954
0.060074 0.0963608 -0.0502865
0.073935 0.0967456 -0.0494142
0.0954182 0.0976289 -0.0477402
0.120946 0.0992211 -0.0452527
0.148413 0.101674 -0.0419461
0.176802 0.105042 -0.0377308
0.205639 0.109291 -0.0323392
0.2347 0.114338 -0.0250741
0.263879 0.120082 -0.0131583
0.29312 0.126417 0.0179142
0.322397 0.133248 0.0292216
0.351694 0.140494 0.0377675
0.381003 0.148084 0.0451549
0.410319 0.155962 0.0518863
0.439639 0.164079 0.0581942
0.468961 0.172397 0.0642069
0.498285 0.180885 0.0700033
0.526334 0.189517 0.0756354
0.551871 0.19827 0.081139
0.575344 0.207129 0.0865402
0.597093 0.216077 0.091858
0.617376 0.225103 0.0971073
0.636395 0.234196 0.102299
0.654312 0.243349 0.107443
0.671256 0.252553 0.112546
0.687338 0.261803 0.117613
0.702647 0.271094 0.12265
0.717258 0.28042 0.12766
0.731239 0.289777 0.132647
0.744643 0.299164 0.137614
0.0604811 0.12804 -0.0393454
0.073257 0.128274 -0.0386035
0.0759173 0.128331 -0.0384301
0.0784555 0.128388 -0.0382586
0.0884412 0.128643 -0.0375239
0.105557 0.129199 -0.0360338
0.127638 0.130172 -0.0336387
0.152738 0.131678 -0.0301429
0.179588 0.13381 -0.0251522
0.207441 0.136616 -0.0175205
0.235875 0.140105 0.00811043
0.264648 0.144255 0.0219952
0.293626 0.14902 0.0307561
0.322728 0.154344 0.0380995
0.351907 0.160169 0.0447259
0.381135 0.166436 0.0509146
0.410395 0.173093 0.0568091
0.439677 0.180088 0.062493
0.468972 0.18738 0.0680202
0.498277 0.19493 0.0734266
0.526314 0.202705 0.078738
0.551845 0.210676 0.083973
0.575315 0.218819 0.0891458
0.597063 0.227113 0.0942671
0.617346 0.235539 0.0993453
0.636365 0.244083 0.104387
0.654283 0.252729 0.109398
0.671229 0.261468 0.114382
0.687312 0.270287 0.119343
0.702622 0.27918 0.124285
0.717235 0.288138 0.129208
0.731216 0.297153 0.134116
0.744622 0.306222 0.139011
0.0847077 0.16018 -0.0194758
0.0934266 0.160357 -0.0183336
0.0953452 0.160399 -0.0180571
0.097205 0.160442 -0.0177796
0.104773 0.160627 -0.016544
0.11852 0.161021 -0.0137366
0.137336 0.161694 -0.00746824
0.159768 0.16272 0.0112906
0.184607 0.164174 0.0190159
0.211007 0.166116 0.0254177
0.238409 0.168586 0.0313029
0.266456 0.171602 0.0369047
0.29492 0.175163 0.0423249
0.323658 0.179251 0.0476175
0.352577 0.183839 0.0528154
0.381618 0.188892 0.0579406
0.410742 0.194374 0.0630083
0.439924 0.200247 0.06803
0.469145 0.206473 0.0730141
0.498395 0.213018 0.0779671
0.526384 0.219849 0.0828944
0.551882 0.226938 0.0878
0.575332 0.234257 0.0926872
0.597065 0.241782 0.0975587
0.617339 0.249492 0.102417
0.636352 0.257368 0.107263
0.654266 0.265393 0.112099
0.671209 0.273552 0.116927
0.687291 0.281831 0.121747
0.7026 0.290219 0.12656
0.717213 0.298705 0.131366
0.731195 0.30728 0.136168
0.744601 0.315936 0.140965
0.106661 0.192302 0.0301833
0.113208 0.192441 0.0307707
0.114684 0.192474 0.0309064
0.116126 0.192507 0.0310401
0.1221 0.192651 0.0316057
0.133334 0.192951 0.0327178
0.149356 0.193454 0.0344028
0.169196 0.194209 0.0366298
0.191856 0.195271 0.0393334
0.21652 0.19669 0.0424354
0.242581 0.198507 0.0458589
0.269609 0.200756 0.0495373
0.297306 0.203455 0.0534153
0.325467 0.20661 0.0574494
0.353953 0.210217 0.061606
0.382668 0.214264 0.0658588
0.411544 0.218731 0.0701883
0.440537 0.223595 0.074579
0.469614 0.228832 0.0790195
0.498752 0.234416 0.0835003
0.526631 0.24032 0.0880146
0.552052 0.246518 0.0925563
0.575448 0.252987 0.0971214
0.597144 0.259703 0.101706
0.61739 0.266645 0.106307
0.636384 0.273793 0.110922
0.654283 0.28113 0.11555
0.671216 0.288639 0.120188
0.68729 0.296304 0.124836
0.702594 0.304113 0.129491
0.717203 0.312052 0.134154
0.731182 0.320112 0.138823
0.744586 0.328281 0.143498
0.127603 0.224412 0.0485049
0.132792 0.224526 0.0488277
0.133976 0.224552 0.0489029
0.135139 0.224579 0.0489773
0.140005 0.224694 0.0492947
0.149359 0.224934 0.0499312
0.163085 0.22533 0.0509264
0.180585 0.225918 0.052296
0.201102 0.226736 0.0540364
0.223923 0.227823 0.0561299
0.24846 0.229216 0.058549
0.274257 0.230946 0.0612612
0.300974 0.23304 0.0642326
0.328362 0.235513 0.0674301
0.35624 0.238376 0.0708227
0.384478 0.24163 0.0743833
0.41298 0.24527 0.0780876
0.441678 0.249286 0.0819152
0.470522 0.253665 0.0858483
0.499476 0.258391 0.089872
0.527155 0.263446 0.0939735
0.552434 0.268811 0.0981424
0.575728 0.274465 0.102369
0.59735 0.280391 0.106647
0.617542 0.286569 0.110969
0.636495 0.292982 0.11533
0.654364 0.299612 0.119724
0.671275 0.306444 0.124149
0.687331 0.313461 0.1286
0.702622 0.320652 0.133074
0.71722 0.328001 0.13757
0.731191 0.335498 0.142084
0.744589 0.343131 0.146616
0.147999 0.256516 0.0629366
0.152261 0.25661 0.0631625
0.153242 0.256632 0.0632153
0.154206 0.256654 0.0632677
0.15827 0.25675 0.0634911
0.166194 0.256947 0.0639419
0.178056 0.257271 0.0646537
0.193519 0.257747 0.0656468
0.21204 0.258404 0.06693
0.233037 0.25927 0.0685035
0.255978 0.260376 0.0703596
0.280418 0.261749 0.0724854
0.306004 0.263415 0.0748636
0.332461 0.265394 0.0774749
0.359578 0.2677 0.0802987
0.387197 0.270344 0.0833147
0.415197 0.27333 0.0865033
0.443488 0.276657 0.0898459
0.472002 0.280321 0.0933259
0.500687 0.284315 0.0969276
0.528057 0.288628 0.100638
0.553113 0.293248 0.104443
0.576243 0.298161 0.108334
0.597744 0.303354 0.112301
0.617844 0.308811 0.116335
0.636728 0.314518 0.120428
0.654544 0.32046 0.124576
0.671413 0.326624 0.128771
0.687438 0.332994 0.133009
0.702703 0.339558 0.137285
0.717282 0.346303 0.141596
0.731238 0.353218 0.145939
0.744623 0.360291 0.150309
0.168069 0.288614 0.0757939
0.17166 0.288694 0.0759678
0.172489 0.288713 0.0760084
0.173307 0.288732 0.0760487
0.176769 0.288813 0.0762211
0.183584 0.28898 0.0765698
0.193933 0.289252 0.077123
0.207653 0.289649 0.0778997
0.224373 0.290192 0.0789118
0.243638 0.290904 0.0801653
0.264991 0.291808 0.0816605
0.288024 0.292929 0.0833938
0.312389 0.294287 0.0853577
0.337803 0.295903 0.0875418
0.364039 0.297794 0.0899339
0.390919 0.299972 0.0925204
0.418302 0.302446 0.0952872
0.44608 0.305224 0.0982203
0.474168 0.308305 0.101306
0.502488 0.311689 0.10453
0.529426 0.315372 0.10788
0.554165 0.319348 0.111345
0.57706 0.323609 0.114914
0.598382 0.328145 0.118578
0.618347 0.332946 0.122326
0.637126 0.338001 0.126151
0.654859 0.343299 0.130046
0.671664 0.348827 0.134005
0.687638 0.354574 0.13802
0.702863 0.360529 0.142088
0.71741 0.36668 0.146203
0.731339 0.373017 0.150361
0.744704 0.379528 0.154558
0.187926 0.320709 0.0878032
0.191011 0.320779 0.0879441
0.191726 0.320795 0.0879771
0.192432 0.320812 0.0880098
0.195428 0.320881 0.0881498
0.201367 0.321025 0.0884333
0.21048 0.321258 0.0888843
0.222719 0.321596 0.0895199
0.237841 0.322056 0.0903519
0.255503 0.322656 0.0913884
0.275331 0.323414 0.0926332
0.296959 0.32435 0.094087
0.320065 0.325482 0.0957477
0.344369 0.326828 0.0976103
0.36964 0.328405 0.0996682
0.395688 0.330226 0.101913
0.422359 0.332302 0.104335
0.449529 0.334643 0.106925
0.477101 0.337254 0.109671
0.50495 0.340137 0.112563
0.531334 0.343295 0.115591
0.555659 0.346725 0.118744
0.578239 0.350423 0.122013
0.59932 0.354385 0.125389
0.619098 0.358603 0.128862
0.63773 0.363072 0.132426
0.655348 0.367782 0.136072
0.672061 0.372724 0.139793
0.687961 0.37789 0.143584
0.703127 0.383269 0.147438
0.717625 0.388853 0.151351
0.731516 0.394633 0.155318
0.744849 0.400598 0.159333
0.207638 0.352802 0.0992911
0.210329 0.352863 0.0994094
0.210955 0.352878 0.0994371
0.211572 0.352892 0.0994645
0.2142 0.352953 0.099582
0.219434 0.353078 0.0998203
0.227529 0.353281 0.1002
0.238508 0.353574 0.100736
0.252226 0.353971 0.10144
0.268432 0.354487 0.102319
0.286823 0.355135 0.103381
0.30709 0.355932 0.104627
0.328937 0.356894 0.106057
0.352102 0.358035 0.107671
0.376357 0.359372 0.109465
0.401507 0.360916 0.111435
0.427392 0.362681 0.113574
0.453878 0.364675 0.115876
0.480856 0.366907 0.118333
0.508118 0.369383 0.120936
0.53383 0.372105 0.123678
0.557643 0.375076 0.126551
0.57983 0.378296 0.129545
0.600604 0.381763 0.132653
0.620139 0.385473 0.135868
0.63858 0.389423 0.139181
0.656045 0.393607 0.142586
0.672634 0.39802 0.146076
0.688435 0.402654 0.149645
0.703519 0.407502 0.153287
0.717952 0.412558 0.156997
0.731787 0.417812 0.160769
0.745075 0.423258 0.164599
0.227246 0.384894 0.110433
0.229624 0.384948 0.110534
0.230178 0.384961 0.110558
0.230724 0.384973 0.110582
0.233055 0.385027 0.110683
0.237713 0.385138 0.110887
0.244961 0.385317 0.111214
0.254866 0.385574 0.111676
0.267354 0.385922 0.112284
0.282247 0.386372 0.113046
0.299309 0.386935 0.113967
0.318279 0.387625 0.115052
0.338898 0.388456 0.116303
0.360923 0.389439 0.117721
0.384137 0.390589 0.119303
0.408349 0.391917 0.121049
0.433396 0.393435 0.122954
0.459139 0.395153 0.125014
0.485462 0.39708 0.127223
0.512005 0.399222 0.129577
0.536939 0.401585 0.132067
0.560151 0.404174 0.134689
0.581866 0.40699 0.137435
0.602268 0.410034 0.140299
0.621507 0.413305 0.143273
0.639709 0.416803 0.146352
0.656981 0.420523 0.149528
0.673414 0.424463 0.152797
0.689086 0.428619 0.156151
0.704065 0.432985 0.159585
0.71841 0.437555 0.163094
0.732174 0.442324 0.166673
0.745401 0.447285 0.170318
0.24678 0.416984 0.121331
0.248902 0.417032 0.121419
0.249396 0.417043 0.12144
0.249885 0.417055 0.121461
0.251971 0.417103 0.121549
0.256153 0.417202 0.121728
0.262687 0.417361 0.122014
0.271674 0.417591 0.122419
0.283086 0.417899 0.122953
0.296803 0.418296 0.123622
0.312644 0.418792 0.124434
0.330396 0.419398 0.125392
0.349834 0.420125 0.1265
0.370742 0.420984 0.127758
0.392914 0.421986 0.129168
0.41617 0.423142 0.130729
0.440346 0.424464 0.132438
0.465304 0.425959 0.134294
0.490922 0.427638 0.136292
0.516596 0.429508 0.138428
0.540665 0.431575 0.140699
0.563196 0.433845 0.143099
0.58437 0.43632 0.145622
0.604337 0.439005 0.148264
0.623226 0.4419 0.151018
0.641143 0.445005 0.153879
0.658182 0.44832 0.156841
0.674424 0.451844 0.159899
0.689938 0.455573 0.163048
0.704786 0.459505 0.166283
0.719022 0.463636 0.169597
0.732694 0.467962 0.172988
0.745845 0.472477 0.17645
0.266256 0.449073 0.132051
0.268166 0.449117 0.13213
0.268612 0.449127 0.132148
0.269052 0.449137 0.132166
0.270934 0.449181 0.132245
0.274716 0.449269 0.132404
0.280646 0.449413 0.132657
0.288842 0.449619 0.133017
0.29931 0.449895 0.133491
0.311976 0.45025 0.134087
0.326704 0.450692 0.13481
0.343322 0.45123 0.135665
0.36164 0.451873 0.136656
0.381466 0.452632 0.137784
0.402613 0.453516 0.139051
0.42491 0.454534 0.140457
0.448201 0.455696 0.142002
0.472347 0.457011 0.143683
0.497226 0.458488 0.1455
0.521859 0.460134 0.147449
0.544993 0.461956 0.149526
0.566776 0.463959 0.151729
0.587347 0.466148 0.154054
0.606825 0.468528 0.156495
0.625313 0.4711 0.159048
0.642902 0.473867 0.161709
0.659669 0.47683 0.164473
0.675685 0.479988 0.167335
0.691011 0.483341 0.17029
0.705702 0.486886 0.173335
0.719806 0.490623 0.176463
0.733367 0.494548 0.179671
0.746423 0.498658 0.182955
0.285687 0.481161 0.142638
0.28742 0.481201 0.142708
0.287825 0.48121 0.142725
0.288225 0.481219 0.142741
0.289935 0.481259 0.142811
0.293376 0.48134 0.142954
0.29879 0.48147 0.143181
0.3063 0.481656 0.143504
0.315939 0.481905 0.143929
0.327666 0.482225 0.144464
0.341382 0.482622 0.145115
0.356952 0.483105 0.145885
0.374216 0.483681 0.146779
0.393007 0.484358 0.147799
0.413157 0.485145 0.148946
0.434507 0.48605 0.150222
0.45691 0.487082 0.151626
0.480231 0.48825 0.153159
0.504316 0.48956 0.154819
0.527744 0.49102 0.156604
0.549893 0.492637 0.158513
0.570877 0.494418 0.160542
0.590794 0.496366 0.162688
0.609734 0.498487 0.164949
0.627777 0.500782 0.167321
0.644996 0.50324 0.169799
0.661455 0.505854 0.172379
0.677212 0.50862 0.175059
0.692321 0.511535 0.177833
0.706828 0.514592 0.180699
0.720776 0.517787 0.18365
0.734205 0.521114 0.186684
0.747149 0.524565 0.189797
0.305084 0.512944 0.153121
0.306666 0.512979 0.153184
0.307035 0.512987 0.153199
0.307401 0.512995 0.153214
0.308964 0.51303 0.153278
0.312115 0.5131 0.153406
0.317082 0.513213 0.153612
0.323994 0.513375 0.153904
0.332903 0.513591 0.154289
0.34379 0.513868 0.154774
0.356589 0.51421 0.155365
0.371193 0.514625 0.156064
0.387471 0.515117 0.156876
0.405279 0.515694 0.157804
0.424468 0.516362 0.158849
0.444894 0.517127 0.160014
0.466418 0.517996 0.161298
0.488912 0.518974 0.162703
0.511998 0.520067 0.164227
0.53419 0.52128 0.165869
0.555326 0.522618 0.167629
0.575473 0.524083 0.169504
0.594696 0.52568 0.171492
0.613058 0.527409 0.173591
0.630617 0.529273 0.175798
0.64743 0.531272 0.178109
0.663547 0.533404 0.180522
0.679015 0.53567 0.183033
0.693878 0.538068 0.185639
0.708176 0.540593 0.188337
0.721947 0.543243 0.191122
0.735223 0.546015 0.193991
0.748036 0.548903 0.196941
0.324453 0.542039 0.163522
0.325906 0.542068 0.16358
0.326245 0.542075 0.163594
0.326581 0.542081 0.163607
0.328017 0.54211 0.163665
0.330916 0.542168 0.163783
0.335495 0.542262 0.16397
0.341884 0.542396 0.164236
0.350145 0.542575 0.164588
0.360281 0.542803 0.16503
0.372248 0.543086 0.165569
0.385964 0.543427 0.166208
0.401324 0.543832 0.166951
0.418204 0.544305 0.167801
0.436475 0.544852 0.168759
0.456006 0.545479 0.169828
0.476669 0.546189 0.171009
0.498343 0.546989 0.172301
0.520173 0.547882 0.173706
0.541134 0.548874 0.175224
0.561243 0.549968 0.176852
0.580529 0.551168 0.17859
0.59903 0.552477 0.180437
0.616782 0.553898 0.18239
0.633827 0.555432 0.184448
0.650202 0.557081 0.186608
0.665947 0.558846 0.188867
0.681098 0.560726 0.191223
0.69569 0.562721 0.193674
0.709755 0.56483 0.196215
0.723325 0.567051 0.198844
0.736429 0.569381 0.201558
0.749093 0.571819 0.204353
0.3438 0.568466 0.173859
0.34514 0.56849 0.173912
0.345453 0.568496 0.173924
0.345763 0.568501 0.173937
0.34709 0.568525 0.17399
0.349769 0.568575 0.174097
0.354008 0.568654 0.174269
0.359935 0.568766 0.174513
0.367621 0.568917 0.174836
0.377083 0.569108 0.175242
0.388295 0.569345 0.175737
0.401197 0.569631 0.176324
0.415704 0.56997 0.177008
0.431713 0.570365 0.17779
0.44911 0.570822 0.178673
0.46778 0.571344 0.179659
0.487605 0.571935 0.180749
0.508348 0.5726 0.181944
0.528756 0.573342 0.183245
0.548509 0.574166 0.184652
0.567592 0.575076 0.186164
0.586008 0.576074 0.18778
0.603767 0.577163 0.1895
0.620888 0.578347 0.191323
0.637392 0.579627 0.193246
0.653305 0.581006 0.195268
0.668652 0.582484 0.197387
0.683461 0.584062 0.199601
0.697758 0.58574 0.201907
0.711569 0.587519 0.204303
0.724918 0.589397 0.206787
0.737831 0.591374 0.209355
0.750329 0.593447 0.212005
0.363128 0.592715 0.184142
0.36437 0.592736 0.184191
0.36466 0.592741 0.184202
0.364947 0.592746 0.184214
0.366178 0.592766 0.184263
0.368664 0.592808 0.184362
0.372603 0.592876 0.184521
0.378122 0.592972 0.184746
0.385295 0.5931 0.185043
0.39415 0.593264 0.185418
0.404676 0.593465 0.185875
0.416832 0.593708 0.186418
0.430548 0.593995 0.187049
0.44574 0.59433 0.187773
0.462311 0.594717 0.18859
0.480157 0.595158 0.189503
0.499173 0.595657 0.190514
0.518622 0.596218 0.191624
0.537668 0.596844 0.192833
0.556248 0.597539 0.194141
0.574321 0.598305 0.195549
0.591867 0.599146 0.197057
0.608877 0.600065 0.198664
0.62535 0.601064 0.200368
0.641296 0.602145 0.20217
0.656726 0.60331 0.204067
0.671655 0.604561 0.206058
0.686101 0.605899 0.208141
0.700083 0.607325 0.210315
0.713619 0.608839 0.212576
0.726729 0.610441 0.214924
0.739433 0.612131 0.217356
0.751748 0.613909 0.219869
0.382441 0.61515 0.194381
0.383596 0.615168 0.194427
0.383866 0.615173 0.194437
0.384134 0.615177 0.194448
0.385279 0.615194 0.194493
0.387596 0.615231 0.194585
0.391269 0.615289 0.194732
0.396423 0.615372 0.194941
0.403137 0.615483 0.195216
0.411444 0.615623 0.195564
0.421347 0.615797 0.195988
0.432817 0.616006 0.196491
0.445802 0.616253 0.197078
0.460231 0.61654 0.19775
0.476021 0.616871 0.198509
0.493083 0.617249 0.199359
0.511097 0.617676 0.2003
0.529081 0.618155 0.201333
0.546838 0.61869 0.20246
0.564289 0.619282 0.203682
0.581377 0.619936 0.204998
0.598063 0.620653 0.206408
0.614323 0.621436 0.207912
0.630143 0.622288 0.209511
0.645518 0.623211 0.211202
0.66045 0.624206 0.212985
0.674945 0.625276 0.214859
0.689011 0.626421 0.216822
0.702659 0.627643 0.218874
0.715904 0.628942 0.221011
0.728758 0.63032 0.223234
0.741236 0.631776 0.225538
0.753353 0.63331 0.227924
0.401741 0.636047 0.204584
0.402819 0.636062 0.204627
0.403072 0.636066 0.204636
0.403321 0.63607 0.204646
0.404391 0.636085 0.204688
0.406557 0.636117 0.204774
0.409993 0.636168 0.204911
0.414822 0.63624 0.205105
0.421122 0.636336 0.205361
0.428934 0.636459 0.205685
0.438269 0.63661 0.20608
0.44911 0.636791 0.206549
0.461417 0.637006 0.207095
0.475133 0.637255 0.207722
0.490189 0.637542 0.20843
0.506431 0.637868 0.209223
0.523026 0.638237 0.210102
0.539654 0.638651 0.211068
0.5562 0.639112 0.212122
0.572574 0.639623 0.213266
0.588709 0.640186 0.214498
0.604553 0.640804 0.215821
0.62007 0.641479 0.217234
0.635236 0.642213 0.218736
0.650035 0.643008 0.220327
0.66446 0.643865 0.222006
0.678508 0.644788 0.223773
0.69218 0.645776 0.225627
0.705481 0.646832 0.227566
0.718419 0.647956 0.229588
0.731003 0.649149 0.231694
0.743241 0.650412 0.23388
0.755147 0.651745 0.236146
0.42103 0.655619 0.214757
0.42204 0.655633 0.214796
0.422276 0.655636 0.214805
0.42251 0.655639 0.214814
0.423513 0.655653 0.214854
0.425543 0.655681 0.214934
0.428768 0.655726 0.215061
0.433304 0.655789 0.215243
0.43923 0.655874 0.215482
0.446593 0.655982 0.215785
0.455409 0.656114 0.216154
0.465672 0.656273 0.216592
0.477352 0.656461 0.217103
0.490404 0.656679 0.217689
0.504728 0.65693 0.218352
0.519672 0.657215 0.219095
0.534902 0.657537 0.219918
0.550282 0.657897 0.220824
0.565696 0.658299 0.221813
0.58105 0.658744 0.222886
0.596269 0.659233 0.224045
0.611295 0.65977 0.225288
0.626083 0.660357 0.226617
0.6406 0.660994 0.228032
0.654823 0.661685 0.229532
0.668735 0.662431 0.231117
0.682328 0.663233 0.232786
0.695596 0.664092 0.234538
0.708539 0.665011 0.236374
0.721158 0.665991 0.238291
0.733458 0.667031 0.240288
0.745445 0.668134 0.242365
0.757127 0.669298 0.244519
0.440309 0.674039 0.224903
0.441258 0.674051 0.22494
0.44148 0.674054 0.224948
0.4417 0.674057 0.224957
0.442643 0.674069 0.224994
0.444551 0.674094 0.225069
0.447585 0.674133 0.225189
0.451857 0.67419 0.225358
0.457445 0.674265 0.225583
0.464399 0.67436 0.225867
0.472741 0.674477 0.226213
0.482471 0.674618 0.226624
0.493571 0.674783 0.227103
