sample/src/main/assets/lut/NBCU-FinalCut/2-NBCU_SDR2HLG_SL_Adobe_v1.cube
TITLE "SDR to HLG Scene-Light Conversion 3D Look-Up-Table"
# PLEASE DO NOT ALTER THE LINES BELOW
# 
# © 2020 NBCUniversal, LLC - Please do not remove this line
#
# Built using tools from and in collaboration with Cromorama and Nick Shaw - the creators of ORION-CONVERT
#
# Parameters designed by Chris Seeger, NBCU Advanced Technology (chris.seeger@nbcuni.com)
# In collaboration with Michael Drazin, NBCU Sports Group (michael.drazin@nbcuni.com)
#
# 100% SDR maps to 75% HLG (ITU-R BT.2408 Mode)
# SDR 100-109% preserved into HLG above 75% (preserves additional color volume from SDR)
# Highlight compression from 95% to 109% SDR
#
# Scene-Light Conversion converts SDR-BT.709 Chromaticity to HLG-BT.2100 Chromaticity
# Scene-Light Conversion provides a better SDR-camera match with native-HLG cameras
# Scene-Light Conversion will appear slightly less saturated and affects colors differently
#
# No Matrix Compensation (so make sure your device is using the correct matrix)
#
# Type III LUT - Full Range Processing for Narrow Range Signals
LUT_3D_SIZE 33
# 2021-04-08
# Input and Output values have been changed from narrow range encoding to extended full range encoding
# According to formula Full range value = (-16 + (1023*NarrowRangeValue)/4)/219
# Narrow range filename was 2-NBCU_SDR2HLG_SL_v1.cube
DOMAIN_MIN -0.0730594 -0.0730594 -0.0730594
DOMAIN_MAX 1.09475 1.09475 1.09475
-0.0651372 -0.0651372 -0.0651372
-0.0474095 -0.063428 -0.0647358
-0.0397601 -0.0628465 -0.064601
-0.0303194 -0.062264 -0.0644672
0.0327219 -0.0604786 -0.0640627
0.0662504 -0.0573777 -0.0633824
0.0950573 -0.0527298 -0.0624174
0.12252 -0.0460692 -0.0611541
0.149381 -0.0363046 -0.0595736
0.175916 -0.0191669 -0.0576498
0.202254 0.0270108 -0.0553469
0.228464 0.0444167 -0.0526151
0.254583 0.0579861 -0.0493833
0.280639 0.0699873 -0.0455453
0.306647 0.0811196 -0.0409309
0.332618 0.0916997 -0.0352362
0.35856 0.1019 -0.0278053
0.384479 0.111824 -0.0164308
0.41038 0.12154 0.0163674
0.436265 0.131094 0.0289907
0.462138 0.140519 0.0380492
0.488 0.149839 0.0457134
0.513521 0.159073 0.0525966
0.537137 0.168235 0.0589728
0.558954 0.177337 0.0649915
0.57925 0.186386 0.0707438
0.598245 0.19539 0.0762902
0.61611 0.204356 0.0816725
0.632983 0.213288 0.0869214
0.64898 0.22219 0.0920595
0.664193 0.231066 0.0971044
0.678703 0.239918 0.10207
0.692576 0.248749 0.106968
-0.0565306 -0.0363132 -0.0629521
-0.0346485 -0.03315 -0.0625367
-0.0231026 -0.0320232 -0.0623973
0.0113081 -0.0308645 -0.0622585
0.0460203 -0.0270824 -0.0618396
0.0737309 -0.0191832 -0.0611346
0.100414 0.0119901 -0.0601336
0.126721 0.0283164 -0.0588212
0.152845 0.0400771 -0.0571762
0.178868 0.0505651 -0.0551689
0.204827 0.0604466 -0.0527578
0.230744 0.0699788 -0.0498844
0.256632 0.079288 -0.0464632
0.282498 0.0884445 -0.0423614
0.308349 0.0974914 -0.0373556
0.334188 0.106457 -0.0310113
0.360017 0.115359 -0.0222091
0.385838 0.124213 0.00314888
0.411654 0.133027 0.0234048
0.437464 0.141809 0.0334716
0.46327 0.150565 0.0415648
0.489072 0.159298 0.0486786
0.514489 0.168013 0.0551932
0.537986 0.176713 0.0612999
0.559705 0.185398 0.0671102
0.579921 0.194072 0.0726951
0.598848 0.202735 0.078103
0.616656 0.21139 0.0833684
0.63348 0.220036 0.0885167
0.649434 0.228676 0.0935673
0.664611 0.237309 0.0985351
0.679088 0.245936 0.103432
0.692933 0.254559 0.108268
-0.0533456 -0.0184765 -0.0622047
-0.0291645 -0.0110294 -0.0617843
-0.0135564 -0.00694355 -0.0616431
0.0218593 0.00496494 -0.0615027
0.0496772 0.0156145 -0.0610786
0.0760671 0.0246835 -0.0603648
0.102142 0.0334818 -0.0593507
0.128094 0.0421793 -0.0580207
0.153986 0.0508276 -0.0563523
0.179843 0.0594483 -0.0543145
0.205679 0.0680518 -0.0518638
0.231501 0.076644 -0.0489379
0.257313 0.0852283 -0.0454455
0.283117 0.0938068 -0.0412425
0.308916 0.102381 -0.036082
0.334711 0.110952 -0.0294645
0.360503 0.11952 -0.0199926
0.386292 0.128086 0.0101713
0.412079 0.136651 0.0253243
0.437864 0.145214 0.0348409
0.463647 0.153776 0.0426751
0.48943 0.162337 0.0496301
0.514812 0.170897 0.0560341
0.538269 0.179456 0.0620582
0.559956 0.188015 0.0678035
0.580145 0.196574 0.0733357
0.59905 0.205131 0.0786995
0.616838 0.213689 0.0839276
0.633646 0.222246 0.0890435
0.649586 0.230803 0.0940658
0.66475 0.239359 0.0990087
0.679217 0.247915 0.103883
0.693052 0.256471 0.108699
-0.0499852 0.0250656 -0.0614541
-0.0224351 0.0291207 -0.0610286
0.0127851 0.0303554 -0.0608857
0.0287239 0.0315328 -0.0607435
0.053057 0.034835 -0.0603141
0.0783163 0.0397358 -0.059591
0.103828 0.0457241 -0.0585636
0.129443 0.0524285 -0.0572152
0.155109 0.059608 -0.0555227
0.180806 0.0671101 -0.0534534
0.206522 0.0748379 -0.0509612
0.23225 0.0827282 -0.0479803
0.257987 0.0907387 -0.0444126
0.28373 0.0988401 -0.0401016
0.309478 0.107012 -0.0347721
0.335229 0.115239 -0.0278451
0.360984 0.12351 -0.0175184
0.386741 0.131817 0.0140095
0.4125 0.140154 0.0270948
0.43826 0.148515 0.0361483
0.464022 0.156897 0.043749
0.489784 0.165296 0.0505564
0.515131 0.173711 0.0568563
0.538549 0.182138 0.0628016
0.560204 0.190576 0.0684845
0.580367 0.199025 0.0739657
0.599249 0.207481 0.0792871
0.617019 0.215946 0.0844787
0.633811 0.224417 0.0895632
0.649736 0.232894 0.0945579
0.664888 0.241376 0.0994762
0.679344 0.249863 0.104329
0.69317 0.258355 0.109125
-0.0381327 0.0595388 -0.0591392
0.0232611 0.0613563 -0.0586968
0.0347544 0.0619519 -0.0585483
0.0432374 0.0625372 -0.0584006
0.0621246 0.0642655 -0.0579536
0.0847222 0.0670487 -0.0572009
0.108741 0.0707622 -0.0561296
0.133416 0.0752684 -0.0547214
0.15844 0.0804344 -0.0529492
0.183672 0.0861414 -0.050775
0.209035 0.0922892 -0.0481443
0.234487 0.0987955 -0.0449772
0.260003 0.105594 -0.0411499
0.285564 0.112632 -0.0364552
0.311161 0.119867 -0.0304949
0.336784 0.127266 -0.0222752
0.362428 0.134801 -0.00526634
0.388089 0.142451 0.0218043
0.413764 0.150199 0.0318322
0.43945 0.158029 0.0398229
0.465146 0.165931 0.0468309
0.490849 0.173895 0.0532458
0.516088 0.181912 0.0592604
0.539389 0.189976 0.0649861
0.560948 0.198081 0.0704932
0.581032 0.206222 0.0758293
0.599848 0.214395 0.0810284
0.617561 0.222596 0.0861151
0.634304 0.230823 0.0911083
0.650188 0.239073 0.0960227
0.665303 0.247344 0.10087
0.679727 0.255633 0.105659
0.693524 0.263939 0.110397
0.0169556 0.0916972 -0.0550631
0.0477774 0.0928876 -0.0545877
0.054309 0.0932821 -0.0544279
0.0600923 0.0936718 -0.0542689
0.0748403 0.0948344 -0.0537877
0.0944429 0.0967421 -0.0529757
0.116474 0.0993519 -0.0518173
0.139791 0.10261 -0.0502884
0.163844 0.106458 -0.048354
0.188353 0.110833 -0.0459629
0.21316 0.115675 -0.0430392
0.238172 0.12093 -0.0394644
0.263331 0.126545 -0.0350401
0.288598 0.132474 -0.0293849
0.313947 0.138678 -0.0215506
0.339359 0.145121 -0.00553891
0.364822 0.151772 0.020923
0.390326 0.158606 0.0306746
0.415863 0.165599 0.0384551
0.441427 0.172733 0.045292
0.467014 0.179991 0.051562
0.49262 0.187358 0.057451
0.517673 0.194822 0.0630659
0.540781 0.202372 0.0684741
0.562182 0.209999 0.0737211
0.582135 0.217695 0.0788391
0.600841 0.225452 0.0838517
0.618461 0.233265 0.0887768
0.635124 0.241129 0.0936282
0.650938 0.249037 0.0984168
0.665993 0.256987 0.103151
0.680363 0.264975 0.107839
0.694113 0.272997 0.112485
0.0522138 0.123365 -0.0487861
0.0687129 0.124252 -0.0482489
0.0734048 0.124547 -0.048068
0.0777808 0.124839 -0.047888
0.0896653 0.125714 -0.047342
0.106575 0.127159 -0.0464173
0.126511 0.129156 -0.0450907
0.148257 0.131679 -0.0433251
0.171125 0.134698 -0.041064
0.19472 0.138182 -0.0382196
0.218806 0.142096 -0.0346484
0.243238 0.146405 -0.0300929
0.267921 0.151076 -0.023999
0.292792 0.156077 -0.0145469
0.317807 0.161375 0.0136905
0.342934 0.166945 0.0249235
0.36815 0.172758 0.0330096
0.393438 0.178791 0.0399097
0.418785 0.185023 0.046159
0.444181 0.191435 0.0519926
0.469618 0.198008 0.057537
0.495089 0.204728 0.0628687
0.519869 0.21158 0.068038
0.542712 0.218552 0.0730791
0.563897 0.225632 0.078017
0.583669 0.232812 0.0828701
0.602224 0.240081 0.0876525
0.619714 0.247433 0.0923752
0.636266 0.25486 0.0970469
0.651984 0.262355 0.101675
0.666954 0.269913 0.106264
0.68125 0.277529 0.11082
0.694935 0.285198 0.115347
0.0765654 0.154843 -0.0392667
0.0886421 0.15555 -0.0385973
0.0923268 0.155786 -0.038371
0.0958427 0.15602 -0.038145
0.105716 0.156721 -0.0374574
0.120392 0.157882 -0.0362817
0.138351 0.159495 -0.0345682
0.158481 0.161545 -0.0322313
0.180055 0.164015 -0.0291212
0.202612 0.166888 -0.0249505
0.225858 0.170143 -0.0190343
0.249601 0.173758 -0.0082084
0.273711 0.177712 0.0161942
0.2981 0.181982 0.0250319
0.322703 0.186546 0.0320255
0.347476 0.191384 0.0382019
0.372385 0.196475 0.0439071
0.397403 0.201801 0.0493051
0.422512 0.207343 0.0544873
0.447697 0.213084 0.0595099
0.472945 0.219008 0.0644105
0.498246 0.225102 0.0692148
0.522653 0.231351 0.0739417
0.545165 0.237744 0.0786051
0.566077 0.244269 0.0832158
0.585623 0.250916 0.0877819
0.603986 0.257675 0.0923102
0.621312 0.264538 0.0968059
0.637724 0.271497 0.101273
0.653319 0.278545 0.105716
0.668183 0.285675 0.110137
0.682385 0.292882 0.114539
0.695986 0.300158 0.118924
0.0984653 0.186227 -0.0227447
0.108123 0.186816 -0.0215685
0.111164 0.187012 -0.0211608
0.114101 0.187207 -0.0207483
0.122511 0.187792 -0.0194551
0.135379 0.188762 -0.0170823
0.151572 0.190113 -0.013054
0.170145 0.191836 -0.00378159
0.190402 0.193921 0.0132858
0.21186 0.196357 0.0200507
0.23419 0.19913 0.0257342
0.257165 0.202228 0.0309383
0.280626 0.205635 0.0358722
0.304461 0.209336 0.0406344
0.328589 0.213316 0.0452791
0.352949 0.21756 0.0498391
0.377496 0.222051 0.0543359
0.402197 0.226777 0.058784
0.427024 0.231722 0.0631935
0.451958 0.236873 0.0675721
0.47698 0.242217 0.0719254
0.502071 0.24774 0.0762578
0.525999 0.253432 0.0805725
0.548118 0.259281 0.0848723
0.568707 0.265276 0.0891595
0.587982 0.271409 0.0934356
0.606116 0.27767 0.0977022
0.623247 0.284051 0.10196
0.63949 0.290543 0.106211
0.654939 0.297139 0.110456
0.669673 0.303833 0.114694
0.683762 0.310619 0.118928
0.697263 0.317489 0.123157
0.119272 0.217558 0.0263359
0.127361 0.218063 0.0273077
0.129953 0.218231 0.0276247
0.132474 0.218398 0.0279358
0.139783 0.218899 0.0288514
0.151188 0.219732 0.0303167
0.165845 0.220894 0.0322567
0.182974 0.222378 0.034592
0.201948 0.22418 0.0372481
0.222295 0.22629 0.0401613
0.243671 0.228701 0.0432799
0.265827 0.231403 0.0465626
0.288585 0.234386 0.0499772
0.311812 0.23764 0.0534981
0.335411 0.241153 0.0571059
0.359309 0.244915 0.0607852
0.38345 0.248914 0.0645236
0.40779 0.253139 0.0683114
0.432297 0.257578 0.072141
0.456942 0.262222 0.0760059
0.481706 0.267058 0.079901
0.506494 0.272078 0.0838221
0.529874 0.27727 0.0877658
0.551546 0.282626 0.0917291
0.571766 0.288137 0.0957096
0.590731 0.293793 0.0997051
0.608601 0.299586 0.103714
0.625507 0.305509 0.107735
0.641554 0.311555 0.111766
0.656833 0.317715 0.115807
0.671419 0.323984 0.119857
0.685376 0.330356 0.123914
0.69876 0.336824 0.127978
0.139475 0.248857 0.0457257
0.146453 0.249298 0.0462922
0.148712 0.249445 0.0464799
0.15092 0.249591 0.0466655
0.157375 0.25003 0.0472193
0.167586 0.25076 0.0481285
0.18092 0.251778 0.0493737
0.196741 0.253082 0.05093
0.214501 0.254666 0.05277
0.233758 0.256525 0.0548652
0.254171 0.258655 0.0571875
0.275485 0.261047 0.0597104
0.297504 0.263695 0.0624097
0.320085 0.266591 0.0652633
0.343115 0.269728 0.0682521
0.366511 0.273096 0.0713589
0.390207 0.276688 0.0745691
0.41415 0.280495 0.0778698
0.438301 0.284508 0.08125
0.462627 0.288718 0.0847003
0.487102 0.293118 0.0882124
0.511465 0.297699 0.0917791
0.534243 0.302452 0.0953944
0.555423 0.307369 0.0990529
0.575231 0.312443 0.10275
0.593851 0.317667 0.106482
0.611427 0.323033 0.110245
0.628079 0.328533 0.114036
0.643908 0.334162 0.117852
0.658995 0.339913 0.121691
0.673412 0.34578 0.125551
0.687221 0.351757 0.129429
0.700472 0.357839 0.133326
0.159305 0.280134 0.0606172
0.165448 0.280526 0.0610455
0.167451 0.280657 0.0611881
0.169415 0.280786 0.0613292
0.17519 0.281176 0.0617516
0.184418 0.281825 0.0624496
0.196613 0.282732 0.0634141
0.211263 0.283893 0.0646333
0.227893 0.285306 0.0660929
0.246104 0.286968 0.0677775
0.265571 0.288873 0.0696707
0.286036 0.291017 0.0717561
0.3073 0.293394 0.0740173
0.32921 0.296 0.0764389
0.351643 0.298828 0.079006
0.374507 0.301872 0.081705
0.397726 0.305125 0.084523
0.421242 0.308581 0.0874489
0.445009 0.312233 0.090472
0.468987 0.316075 0.0935828
0.493146 0.320099 0.096773
0.516937 0.324298 0.100035
0.53907 0.328667 0.103362
0.559716 0.333198 0.106748
0.57908 0.337885 0.110187
0.597322 0.342721 0.113675
0.614576 0.3477 0.117207
0.630951 0.352816 0.12078
0.646538 0.358064 0.124389
0.661414 0.363437 0.128032
0.675645 0.36893 0.131706
0.689288 0.374537 0.135409
0.702393 0.380255 0.139138
0.178885 0.311395 0.0737861
0.184378 0.311748 0.0741384
0.186177 0.311866 0.0742559
0.187945 0.311982 0.0743722
0.193167 0.312333 0.0747209
0.201573 0.312918 0.0752988
0.212788 0.313734 0.0761006
0.226393 0.314782 0.0771195
0.241986 0.316057 0.0783469
0.259209 0.317557 0.0797731
0.277758 0.319279 0.0813877
0.297386 0.32122 0.0831798
0.317892 0.323376 0.0851382
0.339118 0.325742 0.0872517
0.360936 0.328314 0.0895092
0.383246 0.331087 0.0919002
0.405965 0.334056 0.0944145
0.42903 0.337216 0.0970427
0.452387 0.340561 0.0997754
0.475994 0.344086 0.102605
0.499814 0.347786 0.105522
0.522862 0.351655 0.108522
0.544315 0.355688 0.111596
0.564397 0.359879 0.114739
0.583285 0.364222 0.117945
0.601124 0.368713 0.12121
0.618032 0.373346 0.124529
0.634107 0.378115 0.127897
0.649433 0.383016 0.131311
0.664079 0.388044 0.134767
0.678108 0.393193 0.138263
0.691571 0.39846 0.141794
0.704516 0.403839 0.145359
0.19829 0.342645 0.0860273
0.203259 0.342966 0.0863296
0.204893 0.343073 0.0864305
0.206501 0.343179 0.0865305
0.211264 0.343498 0.0868304
0.218977 0.34403 0.0873281
0.229342 0.344773 0.0880205
0.242018 0.345726 0.0889028
0.256664 0.346887 0.0899696
0.272962 0.348255 0.0912142
0.290635 0.349826 0.0926297
0.309447 0.351599 0.0942083
0.329203 0.353569 0.0959418
0.349743 0.355734 0.097822
0.370937 0.358091 0.099841
0.392678 0.360635 0.10199
0.414882 0.363362 0.104261
0.437477 0.366269 0.106647
0.460406 0.369352 0.10914
0.483621 0.372605 0.111732
0.506995 0.376024 0.114417
0.529189 0.379606 0.117189
0.549938 0.383344 0.120041
0.569431 0.387236 0.122969
0.587821 0.391276 0.125966
0.605235 0.39546 0.129028
0.621775 0.399783 0.13215
0.637532 0.40424 0.135329
0.652578 0.408828 0.13856
0.66698 0.413542 0.14184
0.680791 0.418378 0.145165
0.694061 0.423331 0.148532
0.706833 0.428398 0.151939
0.217567 0.373887 0.09769
0.222105 0.374181 0.0979565
0.223601 0.374279 0.0980453
0.225075 0.374376 0.0981334
0.229453 0.374669 0.098398
0.236574 0.375156 0.0988376
0.246199 0.375838 0.0994497
0.258049 0.376712 0.100232
0.271832 0.377778 0.101179
0.287271 0.379035 0.102287
0.304113 0.380479 0.103552
0.322139 0.382109 0.104966
0.341161 0.383923 0.106525
0.361021 0.385918 0.108221
0.381589 0.388091 0.110049
0.402756 0.39044 0.112003
0.424433 0.392961 0.114075
0.446545 0.39565 0.116259
0.469031 0.398505 0.11855
0.491839 0.401522 0.120941
0.514542 0.404698 0.123426
0.535872 0.408027 0.126
0.555901 0.411508 0.128657
0.574787 0.415136 0.131392
0.592661 0.418907 0.134202
0.609631 0.422817 0.13708
0.625787 0.426863 0.140023
0.641209 0.431041 0.143027
0.655962 0.435346 0.146087
0.670103 0.439776 0.149202
0.683684 0.444326 0.152366
0.696749 0.448993 0.155578
0.709337 0.453774 0.158834
0.236746 0.405123 0.10896
0.240923 0.405394 0.109199
0.242303 0.405485 0.109279
0.243664 0.405574 0.109358
0.247714 0.405844 0.109595
0.254324 0.406294 0.10999
0.263301 0.406924 0.110541
0.274413 0.407731 0.111245
0.287413 0.408717 0.112099
0.302056 0.409878 0.1131
0.318117 0.411214 0.114245
0.335391 0.412723 0.115528
0.353701 0.414403 0.116946
0.372894 0.416252 0.118494
0.392841 0.418267 0.120166
0.413432 0.420448 0.121957
0.434576 0.422789 0.123863
0.456197 0.42529 0.125878
0.478229 0.427948 0.127996
0.500618 0.430759 0.130214
0.5224 0.43372 0.132525
0.542863 0.436828 0.134926
0.562164 0.440081 0.13741
0.580432 0.443475 0.139975
0.597777 0.447007 0.142615
0.61429 0.450674 0.145327
0.630049 0.454472 0.148106
0.645122 0.458398 0.150949
0.659568 0.462449 0.153852
0.673438 0.466622 0.156812
0.686777 0.470913 0.159826
0.699626 0.475319 0.162891
0.712019 0.479837 0.166004
0.25585 0.436353 0.119949
0.25972 0.436605 0.120166
0.261001 0.436689 0.120238
0.262265 0.436773 0.12031
0.266032 0.437023 0.120526
0.272197 0.437441 0.120885
0.280603 0.438026 0.121386
0.291055 0.438776 0.122027
0.303343 0.439692 0.122807
0.317252 0.440772 0.123722
0.332579 0.442014 0.124769
0.349139 0.443418 0.125945
0.366763 0.444982 0.127247
0.385306 0.446705 0.128671
0.404641 0.448584 0.130212
0.424661 0.450617 0.131867
0.445272 0.452803 0.133632
0.466397 0.455139 0.135501
0.487969 0.457623 0.137472
0.509759 0.460253 0.139538
0.530516 0.463025 0.141698
0.550119 0.465939 0.143945
0.568691 0.46899 0.146277
0.586336 0.472176 0.148689
0.603143 0.475495 0.151177
0.619189 0.478943 0.153738
0.63454 0.482519 0.156367
0.649254 0.486219 0.159063
0.663383 0.49004 0.161821
0.676971 0.493979 0.164637
0.690059 0.498034 0.167511
0.702682 0.502194 0.170437
0.714872 0.506407 0.173415
0.274895 0.46758 0.130726
0.2785 0.467815 0.130926
0.279695 0.467893 0.130992
0.280875 0.467971 0.131058
0.284395 0.468205 0.131256
0.290171 0.468595 0.131586
0.29807 0.469141 0.132047
0.30793 0.469842 0.132636
0.319569 0.470697 0.133354
0.332801 0.471706 0.134197
0.347443 0.472867 0.135163
0.363326 0.47418 0.136249
0.380293 0.475643 0.137454
0.398206 0.477254 0.138773
0.416944 0.479014 0.140203
0.436399 0.480918 0.141741
0.456481 0.482967 0.143384
0.47711 0.485158 0.145128
0.498219 0.487489 0.14697
0.519082 0.489958 0.148905
0.538841 0.492564 0.15093
0.557598 0.495303 0.153042
0.575446 0.498175 0.155237
0.592467 0.501173 0.157512
0.608732 0.504271 0.159863
0.624305 0.507456 0.162287
0.639241 0.510723 0.16478
0.653588 0.514067 0.16734
0.667391 0.517482 0.169963
0.680689 0.520964 0.172648
0.693517 0.524506 0.17539
0.705907 0.528105 0.178187
0.717886 0.531756 0.181037
0.293891 0.498803 0.141342
0.297266 0.499023 0.141526
0.298386 0.499097 0.141587
0.299492 0.49917 0.141648
0.302797 0.499389 0.141832
0.308227 0.499755 0.142137
0.315675 0.500267 0.142563
0.325002 0.500922 0.14311
0.33605 0.501721 0.143775
0.348657 0.50266 0.144557
0.362659 0.503737 0.145454
0.377903 0.504951 0.146465
0.394243 0.506297 0.147586
0.41155 0.507774 0.148815
0.429706 0.509377 0.15015
0.448608 0.511104 0.151587
0.468167 0.51295 0.153125
0.488302 0.514912 0.154759
0.508806 0.516986 0.156487
0.528539 0.519168 0.158306
0.547332 0.521453 0.160212
0.565261 0.523837 0.162204
0.582395 0.526317 0.164276
0.598796 0.528887 0.166427
0.61452 0.531543 0.168654
0.629618 0.534281 0.170953
0.644133 0.537097 0.173322
0.658108 0.539986 0.175757
0.671579 0.542944 0.178257
0.68458 0.545967 0.180818
0.697142 0.549052 0.183438
0.709291 0.552193 0.186114
0.721053 0.555388 0.188845
0.312849 0.528524 0.151828
0.316021 0.528711 0.152
0.317075 0.528774 0.152057
0.318116 0.528836 0.152114
0.321229 0.529022 0.152285
0.326353 0.529333 0.152569
0.333396 0.529767 0.152966
0.34224 0.530323 0.153476
0.352749 0.531001 0.154096
0.364779 0.531798 0.154826
0.378185 0.532714 0.155664
0.392827 0.533746 0.156609
0.408571 0.534893 0.157658
0.425295 0.536152 0.158809
0.442888 0.537521 0.16006
0.46125 0.538998 0.16141
0.480294 0.540579 0.162854
0.499941 0.542261 0.164392
0.519434 0.544042 0.16602
0.538085 0.545919 0.167735
0.555948 0.547889 0.169536
0.573073 0.549947 0.171419
0.589507 0.552092 0.173381
0.605296 0.554319 0.175421
0.620482 0.556625 0.177535
0.635104 0.559007 0.17972
0.649198 0.561462 0.181975
0.662798 0.563986 0.184296
0.675933 0.566575 0.186682
0.688632 0.569227 0.189129
0.700921 0.571938 0.191635
0.712825 0.574705 0.194198
0.724364 0.577524 0.196816
0.331774 0.555438 0.162211
0.334767 0.555599 0.162372
0.335761 0.555653 0.162426
0.336745 0.555706 0.162479
0.339687 0.555867 0.162639
0.344537 0.556134 0.162905
0.351216 0.556508 0.163277
0.359622 0.556987 0.163755
0.369637 0.557571 0.164336
0.381134 0.558258 0.165021
0.393984 0.559048 0.165808
0.408059 0.55994 0.166695
0.423237 0.560931 0.16768
0.439403 0.56202 0.168763
0.456452 0.563205 0.169941
0.47429 0.564485 0.171213
0.49283 0.565856 0.172575
0.511746 0.567318 0.174027
0.530055 0.568867 0.175566
0.547683 0.570502 0.177189
0.564655 0.57222 0.178894
0.581002 0.574018 0.18068
0.596754 0.575894 0.182543
0.611942 0.577845 0.184481
0.626596 0.579868 0.186492
0.640746 0.581962 0.188574
0.654418 0.584123 0.190724
0.66764 0.586348 0.19294
0.680437 0.588635 0.19522
0.692831 0.590981 0.197561
0.704844 0.593384 0.199962
0.716498 0.59584 0.20242
0.72781 0.598347 0.204933
0.350671 0.580075 0.17251
0.353505 0.580215 0.172661
0.354446 0.580262 0.172711
0.355379 0.580309 0.172761
0.358167 0.580449 0.172912
0.36277 0.580682 0.173162
0.369119 0.581007 0.173512
0.377126 0.581425 0.173962
0.386688 0.581934 0.174509
0.397693 0.582535 0.175154
0.410024 0.583225 0.175896
0.423567 0.584004 0.176732
0.438208 0.58487 0.177662
0.453841 0.585823 0.178684
0.470367 0.586861 0.179798
0.487696 0.587983 0.181
0.505687 0.589186 0.182289
0.523433 0.59047 0.183664
0.540637 0.591831 0.185123
0.557298 0.59327 0.186663
0.57342 0.594783 0.188282
0.589019 0.596369 0.18998
0.604108 0.598025 0.191752
0.618709 0.59975 0.193598
0.63284 0.601542 0.195516
0.646522 0.603398 0.197502
0.659775 0.605316 0.199556
0.672621 0.607294 0.201675
0.685078 0.609329 0.203857
0.697165 0.611421 0.206101
0.7089 0.613565 0.208403
0.7203 0.615761 0.210763
0.731382 0.618006 0.213177
0.369546 0.602824 0.182738
0.372235 0.602948 0.18288
0.37313 0.602989 0.182928
0.374016 0.60303 0.182975
0.376667 0.603153 0.183117
0.381046 0.603358 0.183354
0.387095 0.603645 0.183685
0.394738 0.604013 0.184109
0.403883 0.604462 0.184627
0.414431 0.604992 0.185236
0.426279 0.6056 0.185937
0.43932 0.606288 0.186729
0.453453 0.607053 0.187609
0.468578 0.607895 0.188578
0.484602 0.608813 0.189633
0.501436 0.609805 0.190773
0.518393 0.610871 0.191997
0.534976 0.612008 0.193303
0.551152 0.613216 0.194689
0.566902 0.614493 0.196154
0.582217 0.615838 0.197696
0.597097 0.617248 0.199313
0.611546 0.618723 0.201003
0.625575 0.62026 0.202765
0.639193 0.621858 0.204597
0.652415 0.623516 0.206496
0.665254 0.625231 0.208461
0.677725 0.627001 0.210491
0.689843 0.628825 0.212582
0.701623 0.630702 0.214734
0.713078 0.632628 0.216945
0.724223 0.634603 0.219213
0.735071 0.636625 0.221536
0.388401 0.623979 0.192906
0.390961 0.624089 0.193042
0.391812 0.624126 0.193087
0.392656 0.624162 0.193131
0.395182 0.624271 0.193266
0.399358 0.624454 0.19349
0.405134 0.624709 0.193804
0.412443 0.625036 0.194206
0.421204 0.625435 0.194697
0.431329 0.625906 0.195275
0.442724 0.626448 0.19594
0.455295 0.62706 0.196691
0.468946 0.627741 0.197527
0.483587 0.628492 0.198447
0.499129 0.62931 0.19945
0.515078 0.630195 0.200535
0.530843 0.631146 0.201699
0.546359 0.632162 0.202943
0.561578 0.633241 0.204264
0.576472 0.634383 0.20566
0.591021 0.635587 0.207132
0.605213 0.63685 0.208676
0.619046 0.638172 0.210291
0.632519 0.639552 0.211975
0.645637 0.640987 0.213728
0.658407 0.642477 0.215547
0.670838 0.644021 0.21743
0.682938 0.645615 0.219377
0.694719 0.64726 0.221384
0.706192 0.648953 0.223452
0.717367 0.650694 0.225577
0.728256 0.65248 0.227759
0.738869 0.654311 0.229995
0.407238 0.643768 0.203025
0.409681 0.643866 0.203153
0.410494 0.643899 0.203196
0.411299 0.643931 0.203238
0.413711 0.644029 0.203366
0.417702 0.644193 0.203579
0.423228 0.644421 0.203877
0.430229 0.644714 0.20426
0.438635 0.645072 0.204726
0.448366 0.645494 0.205276
0.45934 0.64598 0.205909
0.471467 0.646528 0.206624
0.484664 0.64714 0.20742
0.498843 0.647813 0.208297
0.513589 0.648547 0.209252
0.52835 0.649342 0.210286
0.543032 0.650197 0.211397
0.557565 0.651111 0.212584
0.571897 0.652082 0.213845
0.585988 0.65311 0.21518
0.599811 0.654194 0.216586
0.613348 0.655333 0.218063
0.626587 0.656526 0.219609
0.639524 0.657771 0.221223
0.652156 0.659068 0.222903
0.664484 0.660416 0.224648
0.676513 0.661812 0.226456
0.688247 0.663256 0.228325
0.699695 0.664747 0.230255
