sample/src/main/assets/lut/NBCU-FinalCut/2-NBCU_SDR2HLG_SL_Adobe_v1.cube
TITLE "SDR to HLG Scene-Light Conversion 3D Look-Up-Table"
# PLEASE DO NOT ALTER THE LINES BELOW
# 
# © 2020 NBCUniversal, LLC - Please do not remove this line
#
# Built using tools from and in collaboration with Cromorama and Nick Shaw - the creators of ORION-CONVERT
#
# Parameters designed by Chris Seeger, NBCU Advanced Technology (chris.seeger@nbcuni.com)
# In collaboration with Michael Drazin, NBCU Sports Group (michael.drazin@nbcuni.com)
#
# 100% SDR maps to 75% HLG (ITU-R BT.2408 Mode)
# SDR 100-109% preserved into HLG above 75% (preserves additional color volume from SDR)
# Highlight compression from 95% to 109% SDR
#
# Scene-Light Conversion converts SDR-BT.709 Chromaticity to HLG-BT.2100 Chromaticity
# Scene-Light Conversion provides a better SDR-camera match with native-HLG cameras
# Scene-Light Conversion will appear slightly less saturated and affects colors differently
#
# No Matrix Compensation (so make sure your device is using the correct matrix)
#
# Type III LUT - Full Range Processing for Narrow Range Signals
LUT_3D_SIZE 5
# 2021-04-08
# Input and Output values have been changed from narrow range encoding to extended full range encoding
# According to formula Full range value = (-16 + (1023*NarrowRangeValue)/4)/219
# Narrow range filename was 2-NBCU_SDR2HLG_SL_v1.cube
DOMAIN_MIN -0.0730594 -0.0730594 -0.0730594
DOMAIN_MAX 1.09475 1.09475 1.09475
-0.0651372 -0.0651372 -0.0651372
0.149381 -0.0363046 -0.0595736
0.35856 0.1019 -0.0278053
0.558954 0.177337 0.0649915
0.692576 0.248749 0.106968
0.0984653 0.186227 -0.0227447
0.190402 0.193921 0.0132858
0.377496 0.222051 0.0543359
0.568707 0.265276 0.0891595
0.697263 0.317489 0.123157
0.25585 0.436353 0.119949
0.303343 0.439692 0.122807
0.445272 0.452803 0.133632
0.603143 0.475495 0.151177
0.714872 0.506407 0.173415
0.407238 0.643768 0.203025
0.438635 0.645072 0.204726
0.543032 0.650197 0.211397
0.652156 0.659068 0.222903
0.742768 0.671153 0.238546
0.552371 0.768922 0.282802
0.571164 0.769571 0.284026
0.631219 0.772144 0.288871
0.70533 0.776685 0.297395
0.776654 0.783047 0.309292
-0.0490861 -0.0613342 0.183485
0.155396 -0.0289321 0.185366
0.361107 0.104233 0.192709
0.560267 0.178688 0.205265
0.6932 0.249714 0.222153
0.107372 0.187514 0.193371
0.195157 0.195157 0.195157
0.379917 0.223132 0.202144
0.569951 0.266181 0.214148
0.69787 0.318246 0.230385
0.259408 0.436904 0.228686
0.30635 0.440238 0.230198
0.447326 0.453334 0.236151
0.60417 0.476 0.246504
0.715423 0.50687 0.260734
0.409483 0.643983 0.281298
0.44072 0.645286 0.282529
0.544468 0.650405 0.2874
0.652937 0.659266 0.295965
0.743239 0.671337 0.307918
0.553734 0.769029 0.343346
0.572391 0.769678 0.344355
0.632097 0.772249 0.348362
0.705911 0.776787 0.355462
0.777044 0.783146 0.365474
0.0701826 -0.0428682 0.430506
0.177435 0.0329718 0.431311
0.371125 0.113087 0.434517
0.565429 0.183993 0.44023
0.695673 0.253537 0.448353
0.137346 0.192576 0.434811
0.213123 0.200026 0.435609
0.389451 0.227403 0.438783
0.574844 0.269772 0.444441
0.70028 0.321255 0.452489
0.273181 0.439101 0.451626
0.318096 0.442419 0.452393
0.455451 0.455451 0.455451
0.60822 0.478017 0.460904
0.717608 0.508713 0.468669
0.418344 0.644841 0.480414
0.448964 0.646138 0.481135
0.550098 0.651233 0.484011
0.656029 0.660054 0.489146
0.745111 0.672074 0.49647
0.559085 0.769456 0.518558
0.577219 0.770103 0.519182
0.635567 0.772669 0.521659
0.708215 0.777196 0.526032
0.778595 0.78354 0.532166
0.134647 0.0403258 0.638144
0.211394 0.0674611 0.638465
0.388507 0.127486 0.63974
0.57436 0.193177 0.642013
0.70004 0.260279 0.645246
0.179076 0.201369 0.639857
0.242127 0.208505 0.640174
0.406049 0.234896 0.641437
0.583328 0.276117 0.643689
0.704537 0.326601 0.646892
0.296365 0.443027 0.646549
0.338215 0.446316 0.646854
0.469723 0.459238 0.648071
0.615288 0.481627 0.650241
0.721477 0.511982 0.65333
0.433838 0.646375 0.657998
0.463436 0.647661 0.658284
0.559808 0.652713 0.659426
0.661464 0.661464 0.661464
0.748434 0.673392 0.664366
0.568331 0.770222 0.67334
0.585594 0.770866 0.673603
0.64165 0.773421 0.674652
0.71229 0.77793 0.676524
0.781354 0.784249 0.679194
0.192881 0.081423 0.763755
0.252509 0.0977473 0.763913
0.412324 0.145795 0.764547
0.586522 0.20572 0.765682
0.706166 0.26972 0.767308
0.226145 0.213432 0.764605
0.278745 0.220177 0.764763
0.428893 0.245315 0.765394
0.594914 0.285034 0.766523
0.710514 0.334173 0.768142
0.326964 0.448639 0.767968
0.365326 0.451887 0.768123
0.489605 0.464654 0.768741
0.625028 0.486793 0.76985
0.726921 0.516601 0.771439
0.45529 0.648569 0.773866
0.483577 0.649839 0.774015
0.572964 0.654831 0.774614
0.669034 0.663481 0.775687
0.753126 0.67528 0.777225
0.580895 0.771323 0.782056
0.597038 0.771963 0.782199
0.650086 0.774502 0.782771
0.718017 0.778984 0.783796
0.785266 0.785266 0.785266
