sample/src/main/assets/lut/NBCU-FinalCut/2-NBCU_SDR2HLG_SL_Adobe_v1.cube
TITLE "SDR to HLG Scene-Light Conversion 3D Look-Up-Table"
# PLEASE DO NOT ALTER THE LINES BELOW
# 
# © 2020 NBCUniversal, LLC - Please do not remove this line
#
# Built using tools from and in collaboration with Cromorama and Nick Shaw - the creators of ORION-CONVERT
#
# Parameters designed by Chris Seeger, NBCU Advanced Technology (chris.seeger@nbcuni.com)
# In collaboration with Michael Drazin, NBCU Sports Group (michael.drazin@nbcuni.com)
#
# 100% SDR maps to 75% HLG (ITU-R BT.2408 Mode)
# SDR 100-109% preserved into HLG above 75% (preserves additional color volume from SDR)
# Highlight compression from 95% to 109% SDR
#
# Scene-Light Conversion converts SDR-BT.709 Chromaticity to HLG-BT.2100 Chromaticity
# Scene-Light Conversion provides a better SDR-camera match with native-HLG cameras
# Scene-Light Conversion will appear slightly less saturated and affects colors differently
#
# No Matrix Compensation (so make sure your device is using the correct matrix)
#
# Type III LUT - Full Range Processing for Narrow Range Signals
LUT_3D_SIZE 9
# 2021-04-08
# Input and Output values have been changed from narrow range encoding to extended full range encoding
# According to formula Full range value = (-16 + (1023*NarrowRangeValue)/4)/219
# Narrow range filename was 2-NBCU_SDR2HLG_SL_v1.cube
DOMAIN_MIN -0.0730594 -0.0730594 -0.0730594
DOMAIN_MAX 1.09475 1.09475 1.09475
-0.0651372 -0.0651372 -0.0651372
0.0327219 -0.0604786 -0.0640627
0.149381 -0.0363046 -0.0595736
0.254583 0.0579861 -0.0493833
0.35856 0.1019 -0.0278053
0.462138 0.140519 0.0380492
0.558954 0.177337 0.0649915
0.632983 0.213288 0.0869214
0.692576 0.248749 0.106968
-0.0381327 0.0595388 -0.0591392
0.0621246 0.0642655 -0.0579536
0.15844 0.0804344 -0.0529492
0.260003 0.105594 -0.0411499
0.362428 0.134801 -0.00526634
0.465146 0.165931 0.0468309
0.560948 0.198081 0.0704932
0.634304 0.230823 0.0911083
0.693524 0.263939 0.110397
0.0984653 0.186227 -0.0227447
0.122511 0.187792 -0.0194551
0.190402 0.193921 0.0132858
0.280626 0.205635 0.0358722
0.377496 0.222051 0.0543359
0.47698 0.242217 0.0719254
0.568707 0.265276 0.0891595
0.63949 0.290543 0.106211
0.697263 0.317489 0.123157
0.178885 0.311395 0.0737861
0.193167 0.312333 0.0747209
0.241986 0.316057 0.0783469
0.317892 0.323376 0.0851382
0.405965 0.334056 0.0944145
0.499814 0.347786 0.105522
0.583285 0.364222 0.117945
0.649433 0.383016 0.131311
0.704516 0.403839 0.145359
0.25585 0.436353 0.119949
0.266032 0.437023 0.120526
0.303343 0.439692 0.122807
0.366763 0.444982 0.127247
0.445272 0.452803 0.133632
0.530516 0.463025 0.141698
0.603143 0.475495 0.151177
0.663383 0.49004 0.161821
0.714872 0.506407 0.173415
0.331774 0.555438 0.162211
0.339687 0.555867 0.162639
0.369637 0.557571 0.164336
0.423237 0.560931 0.16768
0.49283 0.565856 0.172575
0.564655 0.57222 0.178894
0.626596 0.579868 0.186492
0.680437 0.588635 0.19522
0.72781 0.598347 0.204933
0.407238 0.643768 0.203025
0.413711 0.644029 0.203366
0.438635 0.645072 0.204726
0.484664 0.64714 0.20742
0.543032 0.650197 0.211397
0.599811 0.654194 0.216586
0.652156 0.659068 0.222903
0.699695 0.664747 0.230255
0.742768 0.671153 0.238546
0.48246 0.712389 0.243119
0.487936 0.712568 0.243405
0.50909 0.713279 0.244542
0.545509 0.714694 0.246802
0.589151 0.716795 0.250154
0.634514 0.719559 0.254554
0.67867 0.722955 0.25995
0.720362 0.726947 0.26628
0.759208 0.731494 0.273481
0.552371 0.768922 0.282802
0.556293 0.769052 0.283047
0.571164 0.769571 0.284026
0.597649 0.770605 0.285974
0.631219 0.772144 0.288871
0.66798 0.774177 0.29269
0.70533 0.776685 0.297395
0.741796 0.779649 0.302944
0.776654 0.783047 0.309292
-0.0622577 -0.0643942 0.0578107
0.037915 -0.0596777 0.0589991
0.150603 -0.0349541 0.0635288
0.255303 0.05881 0.0717371
0.359071 0.102371 0.0825336
0.462535 0.140861 0.0950403
0.559217 0.177608 0.108668
0.633158 0.213514 0.123046
0.692701 0.248942 0.137938
-0.0329739 0.0603415 0.0639333
0.0650099 0.0650099 0.0650099
0.159594 0.0810304 0.069147
0.260707 0.106049 0.0767568
0.362933 0.135157 0.0869321
0.46554 0.166221 0.0988841
0.561209 0.198324 0.112046
0.634477 0.231032 0.126038
0.693648 0.264121 0.140614
0.100311 0.186485 0.084069
0.123999 0.188048 0.0848907
0.191363 0.194169 0.088099
0.281279 0.205869 0.0941898
0.377982 0.222268 0.102651
0.477365 0.242415 0.112952
0.568956 0.265458 0.124637
0.639658 0.290708 0.137353
0.697384 0.317641 0.150839
0.179908 0.31155 0.114146
0.194114 0.312487 0.114752
0.242743 0.316209 0.117146
0.318469 0.323525 0.121793
0.406417 0.3342 0.128449
0.500181 0.347925 0.136821
0.583515 0.364355 0.146615
0.649592 0.383142 0.157567
0.704632 0.403958 0.169453
0.256566 0.436464 0.148232
0.26672 0.437133 0.148699
0.303947 0.439801 0.150554
0.367262 0.445091 0.154197
0.445684 0.452909 0.159506
0.530825 0.463129 0.166323
0.603349 0.475596 0.174469
0.66353 0.490138 0.183768
0.714982 0.5065 0.194055
0.332326 0.555509 0.184113
0.340227 0.555937 0.184489
0.370132 0.55764 0.185987
0.42367 0.560999 0.188949
0.493202 0.565923 0.193306
0.56491 0.572284 0.198968
0.626777 0.57993 0.205826
0.68057 0.588693 0.213765
0.727912 0.598403 0.222671
0.407689 0.643811 0.220916
0.414154 0.644073 0.22123
0.439053 0.645115 0.222481
0.485042 0.647182 0.224962
0.54332 0.650239 0.228634
0.60002 0.654235 0.233441
0.652312 0.659108 0.239313
0.699815 0.664786 0.246175
0.742862 0.671189 0.253947
0.48284 0.712419 0.258248
0.488311 0.712597 0.258517
0.509438 0.713308 0.259588
0.545793 0.714723 0.261718
0.589374 0.716823 0.264881
0.634687 0.719587 0.26904
0.678805 0.722982 0.274151
0.720469 0.726974 0.280161
0.759294 0.73152 0.287014
0.552645 0.768943 0.295908
0.55656 0.769074 0.296143
0.57141 0.769592 0.297078
0.597861 0.770626 0.298941
0.631395 0.772165 0.301714
0.668123 0.774197 0.305372
0.705447 0.776705 0.309884
0.741891 0.77967 0.315214
0.776732 0.783067 0.32132
-0.0490861 -0.0613342 0.183485
0.0538899 -0.0563622 0.183863
0.155396 -0.0289321 0.185366
0.258159 0.0619947 0.188338
0.361107 0.104233 0.192709
0.464118 0.14222 0.198387
0.560267 0.178688 0.205265
0.633853 0.214413 0.213225
0.6932 0.249714 0.222153
0.0194755 0.0634494 0.185506
0.0754512 0.0679044 0.185879
0.164124 0.0833705 0.187366
0.263505 0.107847 0.190306
0.364948 0.136573 0.194633
0.467112 0.167374 0.200257
0.562247 0.199291 0.207072
0.635167 0.231863 0.214966
0.694144 0.264849 0.223824
0.107372 0.187514 0.193371
0.129778 0.189068 0.19373
0.195157 0.195157 0.195157
0.283874 0.206801 0.197981
0.379917 0.223132 0.202144
0.478898 0.243207 0.207564
0.569951 0.266181 0.214148
0.640328 0.291369 0.22179
0.69787 0.318246 0.230385
0.183938 0.312166 0.208217
0.197856 0.313102 0.20855
0.245745 0.316816 0.209876
0.320763 0.324119 0.212505
0.408217 0.334775 0.216388
0.50164 0.348477 0.22146
0.584432 0.364882 0.227642
0.650226 0.383644 0.234845
0.705099 0.404434 0.242979
0.259408 0.436904 0.228686
0.269456 0.437573 0.22899
0.30635 0.440238 0.230198
0.369254 0.445523 0.232597
0.447326 0.453334 0.236151
0.532055 0.463545 0.240807
0.60417 0.476 0.246504
0.664116 0.49053 0.253171
0.715423 0.50687 0.260734
0.334525 0.555791 0.253421
0.342375 0.556218 0.253695
0.372108 0.557919 0.254786
0.425397 0.561273 0.256956
0.494687 0.566189 0.260177
0.565928 0.572541 0.26441
0.627497 0.580176 0.269609
0.681104 0.588928 0.275718
0.728322 0.598625 0.282679
0.409483 0.643983 0.281298
0.415921 0.644244 0.281545
0.44072 0.645286 0.282529
0.486551 0.647351 0.284487
0.544468 0.650405 0.2874
0.600857 0.654397 0.291238
0.652937 0.659266 0.295965
0.700294 0.664939 0.301541
0.743239 0.671337 0.307918
0.484356 0.712536 0.311475
0.489811 0.712714 0.311698
0.510824 0.713425 0.312587
0.546924 0.714838 0.314358
0.590261 0.716938 0.316996
0.635376 0.7197 0.32048
0.679344 0.723093 0.324782
0.720896 0.727082 0.329871
0.759638 0.731626 0.335711
0.553734 0.769029 0.343346
0.557626 0.769159 0.343548
0.572391 0.769678 0.344355
0.598707 0.770711 0.345963
0.632097 0.772249 0.348362
0.668695 0.77428 0.351535
0.705911 0.776787 0.355462
0.74227 0.77975 0.360117
0.777044 0.783146 0.365474
0.0229005 -0.0547014 0.307134
0.0764068 -0.0490617 0.30736
0.164566 -0.00821109 0.308262
0.26378 0.0679189 0.310057
0.365147 0.107862 0.312732
0.467268 0.1449 0.316262
0.56235 0.180828 0.320621
0.635235 0.2162 0.325775
0.694193 0.25125 0.331687
0.0575602 0.0692493 0.308345
0.0928802 0.073353 0.30857
0.172831 0.0878652 0.309468
0.269014 0.111358 0.311257
0.368946 0.139362 0.313921
0.470242 0.169658 0.317439
0.564307 0.201213 0.321782
0.63654 0.233517 0.326917
0.695132 0.266298 0.332809
0.120261 0.189555 0.31314
0.140628 0.191092 0.313362
0.202534 0.197119 0.314246
0.288995 0.208654 0.316008
0.383759 0.22485 0.318632
0.481952 0.244785 0.322099
0.571924 0.267623 0.32638
0.641662 0.292687 0.331444
0.698838 0.319453 0.337256
0.191748 0.313397 0.322519
0.205136 0.314329 0.322734
0.251644 0.318029 0.323593
0.325304 0.325304 0.325304
0.411795 0.335922 0.327854
0.504524 0.34958 0.331224
0.586253 0.365935 0.335388
0.651488 0.384645 0.340319
0.706028 0.405384 0.345982
0.265003 0.437784 0.336098
0.274846 0.438452 0.336304
0.311101 0.441112 0.337129
0.373205 0.446385 0.338771
0.450594 0.454182 0.341221
0.534491 0.464374 0.34446
0.605801 0.476808 0.348466
0.665284 0.491314 0.353214
0.7163 0.507609 0.358674
0.338882 0.556353 0.353393
0.346633 0.55678 0.35359
0.37603 0.558475 0.354374
0.428832 0.561818 0.355937
0.497643 0.56672 0.358269
0.567946 0.573053 0.361355
0.62893 0.580667 0.365176
0.682166 0.589395 0.369709
0.729138 0.599068 0.374929
0.41305 0.644327 0.373889
0.419433 0.644588 0.374075
0.444036 0.645627 0.374816
0.489557 0.647688 0.376294
0.546741 0.650736 0.378501
0.602518 0.654722 0.381423
0.65418 0.659581 0.385045
0.701249 0.665244 0.389347
0.74399 0.671632 0.394307
0.487375 0.71277 0.397091
0.492796 0.712948 0.397266
0.513564 0.713658 0.397964
0.549167 0.71507 0.399356
0.592024 0.717167 0.401436
0.636747 0.719925 0.404193
0.680417 0.723314 0.407613
0.721747 0.727298 0.411679
0.760323 0.731836 0.416373
0.555894 0.7692 0.422553
0.559739 0.76933 0.422717
0.574338 0.769848 0.423373
0.600389 0.77088 0.424682
0.633493 0.772417 0.426639
0.669834 0.774446 0.429234
0.706836 0.776951 0.432455
0.743025 0.779911 0.43629
0.777666 0.783304 0.440722
0.0701826 -0.0428682 0.430506
0.101189 -0.0353907 0.430667
0.177435 0.0329718 0.431311
0.271995 0.0759443 0.432596
0.371125 0.113087 0.434517
0.471954 0.148831 0.437065
0.565429 0.183993 0.44023
0.63729 0.218854 0.443997
0.695673 0.253537 0.448353
0.0878313 0.0771364 0.431371
0.11414 0.0808407 0.431532
0.185126 0.0942064 0.432174
0.277074 0.116427 0.433457
0.374863 0.143445 0.435374
0.474899 0.173027 0.437917
0.567352 0.204062 0.441076
0.638579 0.235976 0.444836
0.696604 0.268457 0.449184
0.137346 0.192576 0.434811
0.155491 0.19409 0.434971
0.213123 0.200026 0.435609
0.296512 0.211402 0.436881
0.389451 0.227403 0.438783
0.486496 0.247132 0.441307
0.574844 0.269772 0.444441
0.643644 0.294653 0.448173
0.70028 0.321255 0.452489
0.2029 0.315233 0.441614
0.215597 0.31616 0.441771
0.260242 0.319839 0.442399
0.332 0.327074 0.443652
0.417105 0.337637 0.445525
0.508765 0.351227 0.44801
0.58895 0.367509 0.451098
0.653365 0.386143 0.454776
0.707414 0.406806 0.459029
0.273181 0.439101 0.451626
0.282739 0.439766 0.45178
0.318096 0.442419 0.452393
0.379056 0.447677 0.453619
0.455451 0.455451 0.455451
0.538084 0.465615 0.457883
0.60822 0.478017 0.460904
0.667023 0.492488 0.464504
0.717608 0.508713 0.468669
0.345315 0.557194 0.464641
0.352925 0.557618 0.46479
0.381837 0.559305 0.465387
0.433933 0.562634 0.466578
0.502039 0.567513 0.46836
0.57093 0.573819 0.470724
0.631057 0.581401 0.473664
0.683749 0.590094 0.477168
0.730356 0.59973 0.481223
0.418344 0.644841 0.480414
0.424647 0.645101 0.480558
0.448964 0.646138 0.481135
0.494031 0.648193 0.482288
0.550098 0.651233 0.484011
0.604982 0.655207 0.4863
0.656029 0.660054 0.489146
0.702671 0.665702 0.49254
0.745111 0.672074 0.49647
0.49187 0.713121 0.498684
0.497242 0.713299 0.498823
0.517598 0.714007 0.499379
0.552479 0.715416 0.500489
0.594635 0.717509 0.502142
0.638784 0.720262 0.504323
0.682015 0.723645 0.507013
0.723016 0.727621 0.510188
0.761347 0.732152 0.513822
0.559085 0.769456 0.518558
0.562863 0.769586 0.518683
0.577219 0.770103 0.519182
0.602882 0.771134 0.520177
0.635567 0.772669 0.521659
0.671528 0.774695 0.523615
0.708215 0.777196 0.526032
0.744153 0.780152 0.528889
0.778595 0.78354 0.532166
0.103895 -0.0172688 0.549235
0.126916 0.0169405 0.54934
0.193265 0.0512504 0.549761
0.282577 0.0854811 0.550599
0.378949 0.1197 0.55185
0.47813 0.153916 0.553504
0.569453 0.18813 0.555551
0.639993 0.222343 0.557976
0.697627 0.256555 0.560765
0.116545 0.086542 0.5498
0.137464 0.0898593 0.549905
0.20035 0.102051 0.550324
0.287469 0.122861 0.55116
0.382611 0.148714 0.552407
0.481038 0.17742 0.554056
0.571335 0.207799 0.556096
0.641263 0.239216 0.558514
0.698548 0.271309 0.561295
0.157265 0.196533 0.552041
0.173338 0.198016 0.552145
0.226472 0.203838 0.552559
0.306248 0.215012 0.553385
0.396913 0.230763 0.554616
0.492491 0.250227 0.556245
0.578664 0.27261 0.558261
0.646253 0.297254 0.56065
0.702185 0.323642 0.563398
0.21688 0.317666 0.556443
0.228802 0.318586 0.556544
0.271283 0.322236 0.556949
0.340723 0.329419 0.557754
0.424081 0.339909 0.558956
0.514267 0.353412 0.560546
0.592483 0.369598 0.562514
0.655837 0.388132 0.564847
0.709244 0.408694 0.567532
0.283719 0.44085 0.56285
0.292933 0.441513 0.562947
0.327191 0.444155 0.563337
0.386719 0.449393 0.564115
0.461849 0.457138 0.565275
0.542765 0.467266 0.56681
0.611396 0.479625 0.56871
0.669314 0.494048 0.570965
0.719338 0.510173 0.57356
0.35371 0.558308 0.57105
0.361143 0.55873 0.571143
0.389446 0.560407 0.571516
0.440643 0.563715 0.572259
0.507748 0.568565 0.573367
0.574835 0.574835 0.574835
0.633855 0.582374 0.576652
0.685837 0.591022 0.578809
0.731968 0.600609 0.581293
0.4253 0.645525 0.580799
0.431502 0.645784 0.580887
0.455453 0.646816 0.58124
0.499936 0.648864 0.581943
0.554479 0.651892 0.582993
0.608215 0.655852 0.584384
0.658465 0.660682 0.586108
0.704551 0.666311 0.588154
0.746595 0.672661 0.590513
0.4978 0.713588 0.591836
0.503091 0.713765 0.591919
0.522839 0.714472 0.592251
0.556803 0.715877 0.592912
0.598059 0.717965 0.5939
0.641465 0.720711 0.595209
0.684123 0.724085 0.596832
0.724695 0.728052 0.59876
0.762703 0.732572 0.600984
0.563253 0.769797 0.603907
0.566945 0.769926 0.603985
0.580989 0.770443 0.604295
0.606153 0.771471 0.604914
0.638296 0.773003 0.605838
0.673763 0.775026 0.607062
0.710038 0.777523 0.608581
0.745645 0.780473 0.610388
0.779827 0.783855 0.612472
0.134647 0.0403258 0.638144
0.153112 0.0470252 0.638209
0.211394 0.0674611 0.638465
0.295272 0.0960803 0.638976
0.388507 0.127486 0.63974
0.485741 0.160045 0.640754
0.57436 0.193177 0.642013
0.643315 0.226629 0.643512
0.70004 0.260279 0.645246
0.144633 0.0970252 0.638488
0.161963 0.0999955 0.638552
0.21789 0.11108 0.638808
0.299957 0.130457 0.639318
0.39208 0.155049 0.640081
0.488603 0.182763 0.641093
0.576191 0.212379 0.642349
0.644562 0.243205 0.643846
0.700949 0.274832 0.645577
0.179076 0.201369 0.639857
0.193343 0.202817 0.63992
0.242127 0.208505 0.640174
0.317999 0.219442 0.64068
0.406049 0.234896 0.641437
0.499883 0.254043 0.642441
0.583328 0.276117 0.643689
0.649462 0.300473 0.645174
0.704537 0.326601 0.646892
0.233179 0.32068 0.642564
0.244307 0.321592 0.642626
0.284482 0.325209 0.642876
0.351323 0.332327 0.643375
0.432644 0.342728 0.64412
0.520915 0.356124 0.64511
0.596804 0.372192 0.646339
0.65888 0.390603 0.647802
0.711507 0.411041 0.649495
0.296365 0.443027 0.646549
0.305198 0.443687 0.64661
0.338215 0.446316 0.646854
0.39609 0.451529 0.647342
0.469723 0.459238 0.648071
0.548449 0.46932 0.649039
0.615288 0.481627 0.650241
0.672138 0.495992 0.651674
0.721477 0.511982 0.65333
0.363932 0.559692 0.651728
0.37116 0.56011 0.651787
0.398753 0.561774 0.652025
0.44889 0.565057 0.652498
0.514639 0.569872 0.653207
0.579598 0.576097 0.654147
0.637292 0.583584 0.655316
0.688413 0.592175 0.656708
0.733962 0.601702 0.658319
0.433838 0.646375 0.657998
0.43992 0.646633 0.658055
0.463436 0.647661 0.658284
0.507127 0.649699 0.658742
0.559808 0.652713 0.659426
0.612177 0.656655 0.660335
0.661464 0.661464 0.661464
0.706873 0.667068 0.662809
0.748434 0.673392 0.664366
0.505068 0.71417 0.665243
0.51016 0.714347 0.665298
0.529182 0.715051 0.665518
0.562064 0.716452 0.665958
0.602249 0.718533 0.666615
0.64476 0.72127 0.667487
0.686724 0.724634 0.668572
0.726771 0.728589 0.669866
0.764383 0.733095 0.671363
0.568331 0.770222 0.67334
0.571921 0.770351 0.673393
0.585594 0.770866 0.673603
0.61016 0.771893 0.674024
0.64165 0.773421 0.674652
0.676518 0.775439 0.675486
0.71229 0.77793 0.676524
0.747492 0.780874 0.677761
0.781354 0.784249 0.679194
0.164112 0.0627334 0.707055
0.179573 0.067236 0.707099
0.23128 0.082827 0.707273
0.30982 0.107428 0.707621
0.399676 0.136242 0.708142
0.49472 0.167104 0.708834
0.580076 0.199064 0.709695
0.647222 0.231668 0.710724
0.702894 0.264678 0.711916
0.1724 0.108274 0.707289
0.187177 0.110943 0.707333
0.237232 0.121029 0.707507
0.314288 0.139027 0.707854
0.40315 0.162326 0.708374
0.49753 0.188975 0.709066
0.581849 0.217748 0.709926
0.648442 0.247907 0.710953
0.703788 0.279002 0.712144
0.202166 0.207024 0.708222
0.214906 0.208432 0.708265
0.25967 0.213971 0.708438
0.331552 0.224642 0.708784
0.416748 0.239761 0.709301
0.508481 0.258548 0.709989
0.588769 0.280268 0.710845
0.653239 0.304292 0.711867
0.70732 0.330118 0.713052
0.251348 0.324261 0.710073
0.261704 0.325162 0.710116
0.299555 0.32874 0.710287
0.363636 0.335783 0.710629
0.4427 0.34608 0.711141
0.52858 0.359352 0.711822
0.601855 0.375282 0.712669
0.662464 0.393548 0.713681
0.714184 0.413841 0.714854
0.310862 0.445626 0.712814
0.319294 0.446282 0.712857
0.350988 0.448896 0.713025
0.407051 0.454079 0.713362
0.479002 0.461746 0.713867
0.55504 0.471774 0.714537
0.61985 0.484018 0.715372
0.675469 0.498314 0.716368
0.72401 0.514128 0.717523
0.375832 0.561338 0.716406
0.382836 0.561753 0.716447
0.409642 0.563402 0.716613
0.45859 0.566655 0.716943
0.522571 0.571428 0.717437
0.585151 0.577599 0.718095
0.641332 0.585026 0.718913
0.691457 0.593549 0.71989
0.736325 0.603005 0.721022
0.443868 0.647391 0.720796
0.449814 0.647648 0.720837
0.472839 0.648669 0.720998
0.515393 0.650696 0.72132
0.566 0.653694 0.721803
0.616817 0.657614 0.722444
0.664997 0.662397 0.723243
0.70962 0.667973 0.724196
0.750615 0.674266 0.725302
0.513426 0.714866 0.725926
0.518289 0.715042 0.725965
0.536507 0.715744 0.726122
0.56818 0.717139 0.726435
0.607151 0.719212 0.726904
0.648636 0.721939 0.727528
0.689796 0.72529 0.728304
0.729231 0.729231 0.729231
0.766379 0.733721 0.730306
0.574239 0.770731 0.731731
0.577714 0.77086 0.731769
0.590967 0.771373 0.731921
0.614852 0.772397 0.732224
0.645593 0.773921 0.732678
0.679769 0.775933 0.733282
0.714956 0.778417 0.734033
0.749685 0.781353 0.734931
0.783171 0.784719 0.735973
0.192881 0.081423 0.763755
0.206196 0.0849405 0.763787
0.252509 0.0977473 0.763913
0.325974 0.11931 0.764167
0.412324 0.145795 0.764547
0.504949 0.17498 0.765052
0.586522 0.20572 0.765682
0.651675 0.237412 0.766434
0.706166 0.26972 0.767308
0.19998 0.120073 0.763925
0.212851 0.122485 0.763957
0.257972 0.13169 0.764084
0.330223 0.1484 0.764337
0.415692 0.170423 0.764717
0.507641 0.195974 0.765221
0.588233 0.223849 0.76585
0.652865 0.253283 0.766602
0.707044 0.283789 0.767475
0.226145 0.213432 0.764605
0.237603 0.214798 0.764637
0.278745 0.220177 0.764763
0.346694 0.230561 0.765016
0.428893 0.245315 0.765394
0.518017 0.263707 0.765896
0.594914 0.285034 0.766523
0.657546 0.308687 0.767272
0.710514 0.334173 0.768142
0.271009 0.328389 0.765958
0.280641 0.329279 0.765989
0.316233 0.332813 0.766114
0.377494 0.339772 0.766365
0.454152 0.349951 0.76674
0.537126 0.363081 0.767239
0.607574 0.378854 0.767861
0.666557 0.396956 0.768604
0.717258 0.417083 0.769468
0.326964 0.448639 0.767968
0.334991 0.449291 0.767999
0.365326 0.451887 0.768123
0.419477 0.457036 0.76837
0.489605 0.464654 0.768741
0.562434 0.474621 0.769235
0.625028 0.486793 0.76985
0.679278 0.501009 0.770585
0.726921 0.516601 0.771439
0.389255 0.56324 0.770613
0.396022 0.56365 0.770643
0.421992 0.565282 0.770766
0.469655 0.568502 0.77101
0.531402 0.573226 0.771375
0.59142 0.579336 0.771862
0.645932 0.586693 0.772468
0.694943 0.595139 0.773192
0.739044 0.604513 0.774034
0.45529 0.648569 0.773866
0.461089 0.648824 0.773896
0.483577 0.649839 0.774015
0.524576 0.651852 0.774255
0.572964 0.654831 0.774614
0.622083 0.658727 0.775092
0.669034 0.663481 0.775687
0.712773 0.669023 0.776399
0.753126 0.67528 0.777225
0.522709 0.715675 0.777692
0.527328 0.71585 0.777722
0.544691 0.716548 0.777839
0.575061 0.717937 0.778074
0.612705 0.720001 0.778425
0.653054 0.722716 0.778893
0.693315 0.726053 0.779475
0.732059 0.729977 0.780172
0.76868 0.734449 0.780982
0.580895 0.771323 0.782056
0.584244 0.771451 0.782084
0.597038 0.771963 0.782199
0.620176 0.772983 0.782428
0.650086 0.774502 0.782771
0.683489 0.776508 0.783227
0.718017 0.778984 0.783796
0.752209 0.781911 0.784476
0.785266 0.785266 0.785266
