sample/src/main/assets/lut/NBCU-FinalCut/5-NBCU_PQ2SDR_DL_Adobe_v1.cube
TITLE "PQ-BT.2100 to SDR-BT.709 Display-Light Conversion 3D Look-Up-Table"
#
# PLEASE DO NOT ALTER THE LINES BELOW
# 
# Â© 2020 NBCUniversal, LLC - Please do not remove this line
#
# Built using tools from and in collaboration with Cromorama and Nick Shaw - the creators of ORION-CONVERT
#
# MaxRGB 2-stage highlight compression knee
#
# Parameters designed by Chris Seeger, NBCU Advanced Technology (chris.seeger@nbcuni.com)
#
# 58% PQ maps to 94% SDR (before highlight compression)
# Highlight compression from 94% to 109% SDR
# Stage 1 Pre-rolled-off HDR highlights
# Stage 2 Post-Rolled off converted SDR highlights
#
# Sophisticated Highlight Knee REQUIRES the use of devices using Tetrehedral Interpolation
#
# No Matrix Compensation (so make sure your device is using the correct matrix)
# Type III LUT - Full Range Processing for Narrow Range Signals
#
# Unscaled code values in and out
LUT_3D_SIZE 9
# 2021-04-08
# Input and Output values have been changed from narrow range encoding to extended full range encoding
# According to formula Full range value = (-16 + (1023*NarrowRangeValue)/4)/219
# Narrow range filename was 5-NBCU_PQ2SDR_DL_v1.cube
DOMAIN_MIN -0.0730594 -0.0730594 -0.0730594
DOMAIN_MAX 1.09475 1.09475 1.09475
-0.049221 -0.049221 -0.049221
0.0698064 -0.0539901 -0.0499561
0.223358 -0.0684931 -0.0570167
0.49028 -0.0684931 -0.0684931
0.907998 -0.0684931 -0.0684931
1.07111 -0.0684931 -0.0684931
1.09018 -0.0684931 -0.0684931
1.09018 -0.0684931 -0.0684931
1.09018 -0.0684931 -0.0684931
-0.0680063 0.0542037 -0.0531185
0.0519941 0.049464 -0.0537802
0.220438 -0.0605353 -0.0602383
0.489316 -0.0684931 -0.0684931
0.907764 -0.0684931 -0.0684931
1.07111 -0.0684931 -0.0684931
1.09018 -0.0684931 -0.0684931
1.09018 -0.0684931 -0.0684931
1.09018 -0.0684931 -0.0684931
-0.0684931 0.189482 -0.0684931
-0.0684931 0.188708 -0.0684931
0.18506 0.18014 -0.0684931
0.478847 0.10853 -0.0684931
0.905225 -0.0684931 -0.0684931
1.07109 -0.0684931 -0.0684931
1.09018 -0.0684931 -0.0684931
1.09018 -0.0684931 -0.0684931
1.09018 -0.0684931 -0.0684931
-0.0684931 0.417753 -0.0684931
-0.0684931 0.417498 -0.0684931
-0.0684931 0.414756 -0.0684931
0.408324 0.397844 -0.0684931
0.888739 0.303765 -0.0684931
1.07081 -0.0684931 -0.0684931
1.09018 -0.0684931 -0.0684931
1.09018 -0.0684931 -0.0684931
1.09018 -0.0684931 -0.0684931
-0.0684931 0.795541 -0.0684931
-0.0684931 0.795438 -0.0684931
-0.0684931 0.79433 -0.0684931
-0.0684931 0.787675 -0.0684931
0.777669 0.757808 -0.0684931
1.06788 0.451487 -0.0684931
1.09018 0.300639 -0.0684931
1.09018 0.166942 -0.0684931
1.09018 -0.0684931 -0.0684931
-0.0684931 1.04646 -0.0684931
-0.0684931 1.04645 -0.0684931
-0.0684931 1.04639 -0.0684931
-0.0684931 1.04605 -0.0684931
-0.0684931 1.04448 -0.0684931
1.04381 1.01718 -0.0684931
1.08888 0.797147 -0.0684931
1.09018 0.684373 -0.0684931
1.09018 0.57667 -0.0684931
-0.0684931 1.07927 -0.0684931
-0.0684931 1.07927 -0.0684931
-0.0684931 1.07926 -0.0684931
-0.0684931 1.07918 -0.0684931
-0.0684931 1.07883 -0.0684931
0.737133 1.07712 -0.0684931
1.07931 1.05177 -0.0684931
1.09018 0.961476 -0.0684931
1.09018 0.90638 -0.0684931
-0.0684931 1.08903 -0.0684931
-0.0684931 1.08903 -0.0684931
-0.0684931 1.08903 -0.0684931
-0.0684931 1.08898 -0.0684931
-0.0684931 1.08879 -0.0684931
0.46471 1.08785 -0.0684931
0.991353 1.08627 -0.0684931
1.08942 1.06164 -0.0684931
1.09018 1.01124 -0.0684931
-0.0684931 1.09018 -0.0684931
-0.0684931 1.09018 -0.0684931
-0.0684931 1.09018 -0.0684931
-0.0684931 1.09018 -0.0684931
-0.0684931 1.09018 -0.0684931
-0.0684931 1.09018 -0.0684931
0.910596 1.09018 -0.0684931
1.05458 1.09018 -0.0684931
1.09018 1.06647 -0.0684931
-0.0520846 -0.0495611 0.0536937
0.067944 -0.0542891 0.0530304
0.222999 -0.0684931 0.0450606
0.49016 -0.0684931 -0.0582603
0.907969 -0.0684931 -0.0684931
1.07111 -0.0684931 -0.0684931
1.09018 -0.0684931 -0.0684931
1.09018 -0.0684931 -0.0684931
1.09018 -0.0684931 -0.0684931
-0.0684931 0.053904 0.0498602
0.0491232 0.0491232 0.0491232
0.220072 -0.0607903 0.0400136
0.489196 -0.0684931 -0.061392
0.907735 -0.0684931 -0.0684931
1.07111 -0.0684931 -0.0684931
1.09018 -0.0684931 -0.0684931
1.09018 -0.0684931 -0.0684931
1.09018 -0.0684931 -0.0684931
-0.0684931 0.18943 -0.0514575
-0.0684931 0.188656 -0.0521488
0.184593 0.180085 -0.0588537
0.478724 0.108417 -0.0684931
0.905195 -0.0684931 -0.0684931
1.07109 -0.0684931 -0.0684931
1.09018 -0.0684931 -0.0684931
1.09018 -0.0684931 -0.0684931
1.09018 -0.0684931 -0.0684931
-0.0684931 0.417736 -0.0684931
-0.0684931 0.417481 -0.0684931
-0.0684931 0.414738 -0.0684931
0.40817 0.397825 -0.0684931
0.888704 0.303744 -0.0684931
1.07081 -0.0684931 -0.0684931
1.09018 -0.0684931 -0.0684931
1.09018 -0.0684931 -0.0684931
1.09018 -0.0684931 -0.0684931
-0.0684931 0.795534 -0.0684931
-0.0684931 0.795431 -0.0684931
-0.0684931 0.794323 -0.0684931
-0.0684931 0.787668 -0.0684931
0.777606 0.757801 -0.0684931
1.06788 0.451484 -0.0684931
1.09018 0.300633 -0.0684931
1.09018 0.16693 -0.0684931
1.09018 -0.0684931 -0.0684931
-0.0684931 1.04646 -0.0684931
-0.0684931 1.04645 -0.0684931
-0.0684931 1.04639 -0.0684931
-0.0684931 1.04605 -0.0684931
-0.0684931 1.04448 -0.0684931
1.04381 1.0172 -0.0684931
1.08888 0.797151 -0.0684931
1.09018 0.684376 -0.0684931
1.09018 0.576671 -0.0684931
-0.0684931 1.07927 -0.0684931
-0.0684931 1.07927 -0.0684931
-0.0684931 1.07926 -0.0684931
-0.0684931 1.07918 -0.0684931
-0.0684931 1.07883 -0.0684931
0.73711 1.07712 -0.0684931
1.0793 1.05178 -0.0684931
1.09018 0.961482 -0.0684931
1.09018 0.906384 -0.0684931
-0.0684931 1.08903 -0.0684931
-0.0684931 1.08903 -0.0684931
-0.0684931 1.08903 -0.0684931
-0.0684931 1.08898 -0.0684931
-0.0684931 1.08879 -0.0684931
0.464679 1.08785 -0.0684931
0.991343 1.08627 -0.0684931
1.08942 1.06164 -0.0684931
1.09018 1.01125 -0.0684931
-0.0684931 1.09018 -0.0684931
-0.0684931 1.09018 -0.0684931
-0.0684931 1.09018 -0.0684931
-0.0684931 1.09018 -0.0684931
-0.0684931 1.09018 -0.0684931
-0.0684931 1.09018 -0.0684931
0.910587 1.09018 -0.0684931
1.05457 1.09018 -0.0684931
1.09018 1.06648 -0.0684931
-0.0684931 -0.0530069 0.188452
0.0401909 -0.0573495 0.188338
0.21911 -0.0684931 0.18712
0.488883 -0.0684931 0.179613
0.907658 -0.0684931 0.136428
1.0711 -0.0684931 -0.0684931
1.09018 -0.0684931 -0.0684931
1.09018 -0.0684931 -0.0684931
1.09018 -0.0684931 -0.0684931
-0.0684931 0.0505447 0.187822
-0.0385899 0.0452514 0.187708
0.216109 -0.063426 0.186484
0.487915 -0.0684931 0.178939
0.907423 -0.0684931 0.13552
1.0711 -0.0684931 -0.0684931
1.09018 -0.0684931 -0.0684931
1.09018 -0.0684931 -0.0684931
1.09018 -0.0684931 -0.0684931
-0.0684931 0.188876 0.1809
-0.0684931 0.188098 0.18078
0.17949 0.17949 0.17949
0.477403 0.107199 0.171507
0.904876 -0.0684931 0.125178
1.07108 -0.0684931 -0.0684931
1.09018 -0.0684931 -0.0684931
1.09018 -0.0684931 -0.0684931
1.09018 -0.0684931 -0.0684931
-0.0684931 0.417553 0.128189
-0.0684931 0.417297 0.127995
-0.0684931 0.414553 0.125888
0.406517 0.397629 0.112143
0.888335 0.303525 -0.0684931
1.07079 -0.0684931 -0.0684931
1.09018 -0.0684931 -0.0684931
1.09018 -0.0684931 -0.0684931
1.09018 -0.0684931 -0.0684931
-0.0684931 0.79546 -0.0684931
-0.0684931 0.795357 -0.0684931
-0.0684931 0.794248 -0.0684931
-0.0684931 0.787592 -0.0684931
0.776938 0.757722 -0.0684931
1.06785 0.451453 -0.0684931
1.09018 0.300565 -0.0684931
1.09018 0.166803 -0.0684931
1.09018 -0.0684931 -0.0684931
-0.0684931 1.04646 -0.0684931
-0.0684931 1.04645 -0.0684931
-0.0684931 1.0464 -0.0684931
-0.0684931 1.04605 -0.0684931
-0.0684931 1.04448 -0.0684931
1.04376 1.01735 -0.0684931
1.08887 0.7972 -0.0684931
1.09018 0.684401 -0.0684931
1.09018 0.576683 -0.0684931
-0.0684931 1.07927 -0.0684931
-0.0684931 1.07927 -0.0684931
-0.0684931 1.07926 -0.0684931
-0.0684931 1.07919 -0.0684931
-0.0684931 1.07883 -0.0684931
0.736866 1.07712 -0.0684931
1.07929 1.05188 -0.0684931
1.09018 0.961547 -0.0684931
1.09018 0.90643 -0.0684931
-0.0684931 1.08904 -0.0684931
-0.0684931 1.08903 -0.0684931
-0.0684931 1.08903 -0.0684931
-0.0684931 1.08899 -0.0684931
-0.0684931 1.08879 -0.0684931
0.464346 1.08785 -0.0684931
0.991236 1.08627 -0.0684931
1.08941 1.06171 -0.0684931
1.09018 1.0113 -0.0684931
-0.0684931 1.09018 -0.0684931
-0.0684931 1.09018 -0.0684931
-0.0684931 1.09018 -0.0684931
-0.0684931 1.09018 -0.0684931
-0.0684931 1.09018 -0.0684931
-0.0684931 1.09018 -0.0684931
0.910495 1.09018 -0.0684931
1.0545 1.09018 -0.0684931
1.09018 1.06653 -0.0684931
-0.0684931 -0.0684931 0.415555
-0.0684931 -0.0684931 0.415517
0.193578 -0.0684931 0.415117
0.481163 -0.0684931 0.412715
0.905785 -0.0684931 0.391827
1.07104 -0.0684931 0.250919
1.09018 -0.0684931 0.18643
1.09018 -0.0684931 0.140548
1.09018 -0.0684931 0.0913995
-0.0684931 0.00502298 0.415347
-0.0684931 -0.0273615 0.41531
0.189996 -0.0684931 0.414909
0.480173 -0.0684931 0.412506
0.905546 -0.0684931 0.391677
1.07104 -0.0684931 0.250755
1.09018 -0.0684931 0.186271
1.09018 -0.0684931 0.140375
1.09018 -0.0684931 0.0911581
-0.0684931 0.185521 0.413119
-0.0684931 0.184723 0.413081
0.143542 0.17588 0.412677
0.469417 0.0994925 0.410255
0.902954 -0.0684931 0.390056
1.07101 -0.0684931 0.248993
1.09018 -0.0684931 0.184553
1.09018 -0.0684931 0.138506
1.09018 -0.0684931 0.0885182
-0.0684931 0.41646 0.399461
-0.0684931 0.416203 0.399421
-0.0684931 0.413449 0.398998
0.396459 0.396459 0.396459
0.886106 0.302206 0.379596
1.07071 -0.0684931 0.23807
1.09018 -0.0684931 0.173711
1.09018 -0.0684931 0.126423
1.09018 -0.0684931 0.0695743
-0.0684931 0.795017 0.330598
-0.0684931 0.794914 0.330546
-0.0684931 0.793805 0.329994
-0.0684931 0.787143 0.326673
0.772932 0.757247 0.311664
1.06772 0.451267 0.177081
1.09018 0.300158 0.104206
1.09018 0.166041 -0.0496968
1.09018 -0.0684931 -0.0684931
-0.0684931 1.04646 -0.0684931
-0.0684931 1.04646 -0.0684931
-0.0684931 1.0464 -0.0684931
-0.0684931 1.04606 -0.0684931
-0.0684931 1.04448 -0.0684931
1.04347 1.01827 -0.0684931
1.08879 0.797493 -0.0684931
1.09018 0.684554 -0.0684931
1.09018 0.576754 -0.0684931
-0.0684931 1.07929 -0.0684931
-0.0684931 1.07929 -0.0684931
-0.0684931 1.07928 -0.0684931
-0.0684931 1.0792 -0.0684931
-0.0684931 1.07885 -0.0684931
0.735412 1.07713 -0.0684931
1.07918 1.05247 -0.0684931
1.09018 0.961936 -0.0684931
1.09018 0.906702 -0.0684931
-0.0684931 1.08905 -0.0684931
-0.0684931 1.08905 -0.0684931
-0.0684931 1.08904 -0.0684931
-0.0684931 1.089 -0.0684931
-0.0684931 1.0888 -0.0684931
0.462355 1.08786 -0.0684931
0.990594 1.08628 -0.0684931
1.08935 1.06214 -0.0684931
1.09018 1.01163 -0.0684931
-0.0684931 1.09018 -0.0684931
-0.0684931 1.09018 -0.0684931
-0.0684931 1.09018 -0.0684931
-0.0684931 1.09018 -0.0684931
-0.0684931 1.09018 -0.0684931
-0.0684931 1.09018 -0.0684931
0.909944 1.09018 -0.0684931
1.05407 1.09018 -0.0684931
1.09018 1.06685 -0.0684931
-0.0684931 -0.0684931 0.791375
-0.0684931 -0.0684931 0.79136
-0.0684931 -0.0684931 0.791197
0.445413 -0.0684931 0.790227
0.897254 -0.0684931 0.770086
1.07074 -0.0684931 0.530906
1.09018 -0.0684931 0.432812
1.09018 -0.0684931 0.372686
1.09018 -0.0684931 0.323483
-0.0684931 -0.0684931 0.791291
-0.0684931 -0.0684931 0.791275
-0.0684931 -0.0684931 0.791113
0.44431 -0.0684931 0.790142
0.896996 -0.0684931 0.770118
1.07073 -0.0684931 0.530871
1.09018 -0.0684931 0.432781
1.09018 -0.0684931 0.372658
1.09018 -0.0684931 0.323454
-0.0684931 0.169847 0.790389
-0.0684931 0.168944 0.790374
-0.0684931 0.158838 0.790211
0.432279 0.0449237 0.789239
0.894194 -0.0684931 0.770447
1.07069 -0.0684931 0.530506
1.09018 -0.0684931 0.432452
1.09018 -0.0684931 0.372355
1.09018 -0.0684931 0.323143
-0.0684931 0.411664 0.784983
-0.0684931 0.411403 0.784968
-0.0684931 0.408604 0.784804
0.347896 0.391315 0.783822
0.875903 0.296197 0.771709
1.07031 -0.0684931 0.528395
1.09018 -0.0684931 0.430457
1.09018 -0.0684931 0.37052
1.09018 -0.0684931 0.32126
-0.0684931 0.79309 0.760873
-0.0684931 0.792986 0.760857
-0.0684931 0.791873 0.760685
-0.0684931 0.785189 0.75966
0.755184 0.755184 0.755184
1.06711 0.450464 0.52021
1.09018 0.298375 0.421215
1.09018 0.162659 0.361948
1.09018 -0.0684931 0.31255
-0.0684931 1.04648 0.50669
-0.0684931 1.04648 0.506685
-0.0684931 1.04642 0.506622
-0.0684931 1.04607 0.506253
-0.0684931 1.04447 0.504682
1.04218 1.02228 0.491605
1.08846 0.798769 0.376711
1.09018 0.685218 0.317806
1.09018 0.577062 0.268518
-0.0684931 1.07937 0.340813
-0.0684931 1.07937 0.3408
-0.0684931 1.07935 0.340664
-0.0684931 1.07928 0.339846
-0.0684931 1.07891 0.336221
0.729042 1.07718 0.321043
1.07872 1.05506 0.289863
1.09018 0.963635 0.223655
1.09018 0.90789 0.120181
-0.0684931 1.0891 0.206729
-0.0684931 1.0891 0.206708
-0.0684931 1.08909 0.206476
-0.0684931 1.08905 0.205085
-0.0684931 1.08885 0.198817
0.453555 1.0879 0.170125
0.987799 1.08631 0.104976
1.08906 1.06402 -0.0684931
1.09018 1.01306 -0.0684931
-0.0684931 1.09018 -0.0684931
-0.0684931 1.09018 -0.0684931
-0.0684931 1.09018 -0.0684931
-0.0684931 1.09018 -0.0684931
-0.0684931 1.09018 -0.0684931
-0.0684931 1.09018 -0.0684931
0.907542 1.09018 -0.0684931
1.05217 1.09018 -0.0684931
1.09018 1.06826 -0.0684931
-0.0684931 -0.0684931 1.01421
-0.0684931 -0.0684931 1.01429
-0.0684931 -0.0684931 1.0151
0.265709 -0.0684931 1.01908
0.702253 -0.0684931 1.02813
1.06937 -0.0684931 0.917917
1.09018 -0.0684931 0.787685
1.09018 -0.0684931 0.701621
1.09018 -0.0684931 0.618808
-0.0684931 -0.0684931 1.0144
-0.0684931 -0.0684931 1.01448
-0.0684931 -0.0684931 1.01529
0.264156 -0.0684931 1.01921
0.70183 -0.0684931 1.02818
1.06936 -0.0684931 0.917997
1.09018 -0.0684931 0.787711
1.09018 -0.0684931 0.701635
1.09018 -0.0684931 0.618815
-0.0684931 0.0950075 1.01634
-0.0684931 0.0937199 1.0164
-0.0684931 0.078073 1.01709
0.246828 -0.0684931 1.0205
0.697323 -0.0684931 1.02869
1.06928 -0.0684931 0.918849
1.09018 -0.0684931 0.787984
1.09018 -0.0684931 0.701789
1.09018 -0.0684931 0.618893
-0.0684931 0.321899 1.02363
-0.0684931 0.321659 1.02366
-0.0684931 0.319085 1.024
-0.041896 0.3033 1.02584
0.67062 0.219996 1.03111
1.0687 -0.0684931 0.923894
1.09018 -0.0684931 0.789603
1.09018 -0.0684931 0.702702
1.09018 -0.0684931 0.619354
-0.0684931 0.624253 1.03374
-0.0684931 0.624157 1.03375
-0.0684931 0.62313 1.03383
-0.0684931 0.617002 1.03433
0.547885 0.590231 1.03609
1.06484 0.447413 0.94573
1.09018 0.291477 0.796564
1.09018 0.148231 0.7066
1.09018 -0.0684931 0.621302
-0.0684931 1.04645 1.00398
-0.0684931 1.04644 1.004
-0.0684931 1.04638 1.00426
-0.0684931 1.04602 1.00579
-0.0684931 1.04436 1.01249
1.03718 1.03718 1.03718
1.08714 0.803625 0.824503
1.09018 0.687836 0.722105
1.09018 0.578268 0.628633
-0.0684931 1.07964 0.822849
-0.0684931 1.07964 0.822857
-0.0684931 1.07963 0.82294
-0.0684931 1.07954 0.823433
-0.0684931 1.07916 0.825589
0.703717 1.07734 0.834075
1.07685 1.0653 0.825132
1.09018 0.97033 0.726138
1.09018 0.912555 0.636612
-0.0684931 1.0893 0.700345
-0.0684931 1.0893 0.70035
-0.0684931 1.08929 0.700395
-0.0684931 1.08925 0.700666
-0.0684931 1.08903 0.701851
0.416858 1.08804 0.706529
0.976833 1.0864 0.709903
1.08791 1.07141 0.689532
1.09018 1.01865 0.622352
-0.0684931 1.09018 0.596878
-0.0684931 1.09018 0.596879
-0.0684931 1.09018 0.596899
-0.0684931 1.09018 0.597017
-0.0684931 1.09018 0.59753
-0.0684931 1.09018 0.599537
0.898128 1.09018 0.602648
1.04477 1.09018 0.600285
1.09018 1.07377 0.577786
-0.0684931 -0.0684931 1.04275
-0.0684931 -0.0684931 1.0428
-0.0684931 -0.0684931 1.04334
0.0987512 -0.0684931 1.04621
0.589928 -0.0684931 1.05436
1.06577 -0.0684931 1.06504
1.09018 -0.0684931 0.938327
1.09018 -0.0684931 0.886934
1.09018 -0.0684931 0.850545
-0.0684931 -0.0684931 1.04288
-0.0684931 -0.0684931 1.04293
-0.0684931 -0.0684931 1.04347
0.094562 -0.0684931 1.04632
0.589584 -0.0684931 1.05441
1.06576 -0.0684931 1.06517
1.09018 -0.0684931 0.938381
1.09018 -0.0684931 0.886969
1.09018 -0.0684931 0.850569
-0.0684931 -0.041069 1.0442
-0.0684931 -0.043761 1.04425
-0.0684931 -0.0642105 1.04474
-0.045264 -0.0684931 1.04736
0.585894 -0.0684931 1.05497
1.06496 -0.0684931 1.06584
1.09018 -0.0684931 0.938953
1.09018 -0.0684931 0.887338
1.09018 -0.0684931 0.850825
-0.0684931 0.271225 1.05016
-0.0684931 0.271022 1.05019
-0.0684931 0.26884 1.0505
-0.0684931 0.255289 1.05223
0.563262 0.179821 1.05778
1.05721 -0.0684931 1.06688
1.09018 -0.0684931 0.942362
1.09018 -0.0684931 0.88954
1.09018 -0.0684931 0.852349
-0.0684931 0.543045 1.06177
-0.0684931 0.542963 1.06178
-0.0684931 0.542083 1.06189
-0.0684931 0.536815 1.06253
0.449715 0.513426 1.0649
1.02241 0.422107 1.07014
1.09018 0.28062 0.957169
1.09018 0.127947 0.899154
1.09018 -0.0684931 0.859009
-0.0684931 0.93832 1.07211
-0.0684931 0.938287 1.07211
-0.0684931 0.937931 1.07214
-0.0684931 0.935807 1.0723
-0.0684931 0.926539 1.07298
0.8796 0.891748 1.07495
1.08605 0.803616 1.01709
1.09018 0.688708 0.938926
1.09018 0.57964 0.886184
-0.0684931 1.07975 1.03593
-0.0684931 1.07974 1.03595
-0.0684931 1.07973 1.03612
-0.0684931 1.07964 1.03714
-0.0684931 1.07924 1.0416
0.676471 1.07738 1.05917
1.07495 1.07495 1.07495
1.09018 0.9777 0.98495
1.09018 0.919485 0.931459
-0.0684931 1.08953 0.970225
-0.0684931 1.08953 0.970236
-0.0684931 1.08952 0.970345
-0.0684931 1.08947 0.971001
-0.0684931 1.08924 0.973863
0.360436 1.08821 0.985182
0.962287 1.08651 0.999664
1.08625 1.0818 0.999415
1.09018 1.0278 0.946686
-0.0684931 1.09018 0.92293
-0.0684931 1.09018 0.922938
-0.0684931 1.09018 0.923013
-0.0684931 1.09018 0.923465
-0.0684931 1.09018 0.925437
-0.0684931 1.09018 0.933207
0.880904 1.09018 0.947422
1.03115 1.09018 0.951973
1.09018 1.08454 0.945511
-0.0684931 -0.0684931 1.05336
-0.0684931 -0.0684931 1.0534
-0.0684931 -0.0684931 1.05377
-0.0684931 -0.0684931 1.05582
0.505842 -0.0684931 1.06229
0.987388 -0.0684931 1.07355
1.09018 -0.0684931 0.994038
1.09018 -0.0684931 0.945008
1.09018 -0.0684931 0.916511
-0.0684931 -0.0684931 1.05345
-0.0684931 -0.0684931 1.05349
-0.0684931 -0.0684931 1.05386
-0.0684931 -0.0684931 1.05589
0.505555 -0.0684931 1.06234
0.987286 -0.0684931 1.07356
1.09018 -0.0684931 0.994096
1.09018 -0.0684931 0.945047
1.09018 -0.0684931 0.916539
-0.0684931 -0.0684931 1.05437
-0.0684931 -0.0684931 1.05441
-0.0684931 -0.0684931 1.05475
-0.0684931 -0.0684931 1.05667
0.502467 -0.0684931 1.06282
0.986192 -0.0684931 1.07374
1.09018 -0.0684931 0.994711
1.09018 -0.0684931 0.945462
1.09018 -0.0684931 0.916836
-0.0684931 0.233928 1.05885
-0.0684931 0.233747 1.05888
-0.0684931 0.231798 1.05913
-0.0684931 0.219618 1.06054
0.483237 0.148801 1.06534
0.979572 -0.0684931 1.07473
1.09018 -0.0684931 0.998378
1.09018 -0.0684931 0.947939
1.09018 -0.0684931 0.918611
-0.0684931 0.486553 1.06921
-0.0684931 0.486486 1.06922
-0.0684931 0.485775 1.06932
-0.0684931 0.481495 1.06994
0.380154 0.46214 1.07228
0.949187 0.37769 1.07802
1.09018 0.256401 1.0144
1.09018 0.0976722 0.958782
1.09018 -0.0684931 0.92638
-0.0684931 0.874797 1.08079
-0.0684931 0.874768 1.08079
-0.0684931 0.874452 1.08082
-0.0684931 0.872566 1.08099
-0.0684931 0.864306 1.08168
0.81426 0.832101 1.08382
1.08542 0.78963 1.08089
1.09018 0.681303 1.00379
1.09018 0.578007 0.958208
-0.0684931 1.05835 1.08323
-0.0684931 1.05833 1.08324
-0.0684931 1.05815 1.08325
-0.0684931 1.05709 1.08335
-0.0684931 1.05245 1.08375
0.621023 1.034 1.08509
1.01056 1.01485 1.08599
1.09015 0.979392 1.06043
1.09018 0.921503 1.01264
-0.0684931 1.08955 1.04534
-0.0684931 1.08955 1.04535
-0.0684931 1.08954 1.04548
-0.0684931 1.08949 1.04622
-0.0684931 1.08926 1.04945
0.323036 1.08822 1.06223
0.956105 1.0865 1.07934
1.08559 1.08559 1.08559
1.09018 1.03109 1.03497
-0.0684931 1.09018 1.01006
-0.0684931 1.09018 1.01007
-0.0684931 1.09018 1.01016
-0.0684931 1.09018 1.01069
-0.0684931 1.09018 1.01298
-0.0684931 1.09018 1.02202
0.873982 1.09018 1.03875
1.0259 1.09018 1.04499
1.09018 1.08872 1.04536
-0.0684931 -0.0684931 1.05909
-0.0684931 -0.0684931 1.05912
-0.0684931 -0.0684931 1.05939
-0.0684931 -0.0684931 1.06089
0.426959 -0.0684931 1.06599
0.897387 -0.0684931 1.07644
1.09018 -0.0684931 1.03024
1.09018 -0.0684931 0.975641
1.09018 -0.0684931 0.948444
-0.0684931 -0.0684931 1.05916
-0.0684931 -0.0684931 1.05918
-0.0684931 -0.0684931 1.05945
-0.0684931 -0.0684931 1.06094
0.42669 -0.0684931 1.06603
0.897301 -0.0684931 1.07646
1.09018 -0.0684931 1.0303
1.09018 -0.0684931 0.97568
1.09018 -0.0684931 0.948473
-0.0684931 -0.0684931 1.05982
-0.0684931 -0.0684931 1.05985
-0.0684931 -0.0684931 1.0601
-0.0684931 -0.0684931 1.06153
0.423793 -0.0684931 1.06643
0.89638 -0.0684931 1.07662
1.09018 -0.0684931 1.03087
1.09018 -0.0684931 0.976091
1.09018 -0.0684931 0.948783
-0.0684931 0.200358 1.06322
-0.0684931 0.200188 1.06324
-0.0684931 0.19836 1.06344
-0.0684931 0.186884 1.06457
0.405679 0.11668 1.06858
0.890794 -0.0684931 1.07755
1.09018 -0.0684931 1.03429
1.09018 -0.0684931 0.978547
1.09018 -0.0684931 0.950633
-0.0684931 0.432754 1.07208
-0.0684931 0.432697 1.07209
-0.0684931 0.432088 1.07219
-0.0684931 0.428415 1.07275
0.304447 0.411719 1.07492
0.864885 0.333001 1.08073
1.0901 0.198748 1.04933
1.09018 -0.0684931 0.989313
1.09018 -0.0684931 0.958738
-0.0684931 0.803441 1.08396
-0.0684931 0.803416 1.08396
-0.0684931 0.803151 1.08399
-0.0684931 0.801561 1.08415
-0.0684931 0.794574 1.08484
0.741657 0.766233 1.08707
1.06093 0.729123 1.08866
1.09018 0.65503 1.03402
1.09018 0.569417 0.991952
-0.0684931 1.02424 1.08787
-0.0684931 1.02422 1.08787
-0.0684931 1.02406 1.08789
-0.0684931 1.0231 1.08798
-0.0684931 1.0189 1.08834
0.532889 1.00214 1.0896
0.975165 0.981913 1.09018
1.08253 0.970409 1.09018
1.09018 0.920543 1.05109
-0.0684931 1.08938 1.08249
-0.0684931 1.08938 1.0825
-0.0684931 1.08937 1.08263
-0.0684931 1.08932 1.08338
-0.0684931 1.0891 1.08668
0.238098 1.0782 1.08972
0.926359 1.05958 1.09018
1.04973 1.05202 1.09018
1.09018 1.03236 1.07651
-0.0684931 1.09018 1.05001
-0.0684931 1.09018 1.05002
-0.0684931 1.09018 1.05011
-0.0684931 1.09018 1.05066
-0.0684931 1.09018 1.05307
-0.0684931 1.09018 1.06258
0.869029 1.09018 1.08045
1.02294 1.09018 1.08736
1.09018 1.09018 1.09018
