sample/src/main/assets/lut/NBCU-FinalCut/5-NBCU_PQ2SDR_DL_Adobe_v1.cube
TITLE "PQ-BT.2100 to SDR-BT.709 Display-Light Conversion 3D Look-Up-Table"
#
# PLEASE DO NOT ALTER THE LINES BELOW
# 
# Â© 2020 NBCUniversal, LLC - Please do not remove this line
#
# Built using tools from and in collaboration with Cromorama and Nick Shaw - the creators of ORION-CONVERT
#
# MaxRGB 2-stage highlight compression knee
#
# Parameters designed by Chris Seeger, NBCU Advanced Technology (chris.seeger@nbcuni.com)
#
# 58% PQ maps to 94% SDR (before highlight compression)
# Highlight compression from 94% to 109% SDR
# Stage 1 Pre-rolled-off HDR highlights
# Stage 2 Post-Rolled off converted SDR highlights
#
# Sophisticated Highlight Knee REQUIRES the use of devices using Tetrehedral Interpolation
#
# No Matrix Compensation (so make sure your device is using the correct matrix)
# Type III LUT - Full Range Processing for Narrow Range Signals
#
# Unscaled code values in and out
LUT_3D_SIZE 5
# 2021-04-08
# Input and Output values have been changed from narrow range encoding to extended full range encoding
# According to formula Full range value = (-16 + (1023*NarrowRangeValue)/4)/219
# Narrow range filename was 5-NBCU_PQ2SDR_DL_v1.cube
DOMAIN_MIN -0.0730594 -0.0730594 -0.0730594
DOMAIN_MAX 1.09475 1.09475 1.09475
-0.049221 -0.049221 -0.049221
0.223358 -0.0684931 -0.0570167
0.907998 -0.0684931 -0.0684931
1.09018 -0.0684931 -0.0684931
1.09018 -0.0684931 -0.0684931
-0.0684931 0.189482 -0.0684931
0.18506 0.18014 -0.0684931
0.905225 -0.0684931 -0.0684931
1.09018 -0.0684931 -0.0684931
1.09018 -0.0684931 -0.0684931
-0.0684931 0.795541 -0.0684931
-0.0684931 0.79433 -0.0684931
0.777669 0.757808 -0.0684931
1.09018 0.300639 -0.0684931
1.09018 -0.0684931 -0.0684931
-0.0684931 1.07927 -0.0684931
-0.0684931 1.07926 -0.0684931
-0.0684931 1.07883 -0.0684931
1.07931 1.05177 -0.0684931
1.09018 0.90638 -0.0684931
-0.0684931 1.09018 -0.0684931
-0.0684931 1.09018 -0.0684931
-0.0684931 1.09018 -0.0684931
0.910596 1.09018 -0.0684931
1.09018 1.06647 -0.0684931
-0.0684931 -0.0530069 0.188452
0.21911 -0.0684931 0.18712
0.907658 -0.0684931 0.136428
1.09018 -0.0684931 -0.0684931
1.09018 -0.0684931 -0.0684931
-0.0684931 0.188876 0.1809
0.17949 0.17949 0.17949
0.904876 -0.0684931 0.125178
1.09018 -0.0684931 -0.0684931
1.09018 -0.0684931 -0.0684931
-0.0684931 0.79546 -0.0684931
-0.0684931 0.794248 -0.0684931
0.776938 0.757722 -0.0684931
1.09018 0.300565 -0.0684931
1.09018 -0.0684931 -0.0684931
-0.0684931 1.07927 -0.0684931
-0.0684931 1.07926 -0.0684931
-0.0684931 1.07883 -0.0684931
1.07929 1.05188 -0.0684931
1.09018 0.90643 -0.0684931
-0.0684931 1.09018 -0.0684931
-0.0684931 1.09018 -0.0684931
-0.0684931 1.09018 -0.0684931
0.910495 1.09018 -0.0684931
1.09018 1.06653 -0.0684931
-0.0684931 -0.0684931 0.791375
-0.0684931 -0.0684931 0.791197
0.897254 -0.0684931 0.770086
1.09018 -0.0684931 0.432812
1.09018 -0.0684931 0.323483
-0.0684931 0.169847 0.790389
-0.0684931 0.158838 0.790211
0.894194 -0.0684931 0.770447
1.09018 -0.0684931 0.432452
1.09018 -0.0684931 0.323143
-0.0684931 0.79309 0.760873
-0.0684931 0.791873 0.760685
0.755184 0.755184 0.755184
1.09018 0.298375 0.421215
1.09018 -0.0684931 0.31255
-0.0684931 1.07937 0.340813
-0.0684931 1.07935 0.340664
-0.0684931 1.07891 0.336221
1.07872 1.05506 0.289863
1.09018 0.90789 0.120181
-0.0684931 1.09018 -0.0684931
-0.0684931 1.09018 -0.0684931
-0.0684931 1.09018 -0.0684931
0.907542 1.09018 -0.0684931
1.09018 1.06826 -0.0684931
-0.0684931 -0.0684931 1.04275
-0.0684931 -0.0684931 1.04334
0.589928 -0.0684931 1.05436
1.09018 -0.0684931 0.938327
1.09018 -0.0684931 0.850545
-0.0684931 -0.041069 1.0442
-0.0684931 -0.0642105 1.04474
0.585894 -0.0684931 1.05497
1.09018 -0.0684931 0.938953
1.09018 -0.0684931 0.850825
-0.0684931 0.543045 1.06177
-0.0684931 0.542083 1.06189
0.449715 0.513426 1.0649
1.09018 0.28062 0.957169
1.09018 -0.0684931 0.859009
-0.0684931 1.07975 1.03593
-0.0684931 1.07973 1.03612
-0.0684931 1.07924 1.0416
1.07495 1.07495 1.07495
1.09018 0.919485 0.931459
-0.0684931 1.09018 0.92293
-0.0684931 1.09018 0.923013
-0.0684931 1.09018 0.925437
0.880904 1.09018 0.947422
1.09018 1.08454 0.945511
-0.0684931 -0.0684931 1.05909
-0.0684931 -0.0684931 1.05939
0.426959 -0.0684931 1.06599
1.09018 -0.0684931 1.03024
1.09018 -0.0684931 0.948444
-0.0684931 -0.0684931 1.05982
-0.0684931 -0.0684931 1.0601
0.423793 -0.0684931 1.06643
1.09018 -0.0684931 1.03087
1.09018 -0.0684931 0.948783
-0.0684931 0.432754 1.07208
-0.0684931 0.432088 1.07219
0.304447 0.411719 1.07492
1.0901 0.198748 1.04933
1.09018 -0.0684931 0.958738
-0.0684931 1.02424 1.08787
-0.0684931 1.02406 1.08789
-0.0684931 1.0189 1.08834
0.975165 0.981913 1.09018
1.09018 0.920543 1.05109
-0.0684931 1.09018 1.05001
-0.0684931 1.09018 1.05011
-0.0684931 1.09018 1.05307
0.869029 1.09018 1.08045
1.09018 1.09018 1.09018
