sample/src/main/assets/lut/NBCU-FinalCut/5-NBCU_PQ2SDR_DL_Adobe_v1.cube
TITLE "PQ-BT.2100 to SDR-BT.709 Display-Light Conversion 3D Look-Up-Table"
#
# PLEASE DO NOT ALTER THE LINES BELOW
# 
# Â© 2020 NBCUniversal, LLC - Please do not remove this line
#
# Built using tools from and in collaboration with Cromorama and Nick Shaw - the creators of ORION-CONVERT
#
# MaxRGB 2-stage highlight compression knee
#
# Parameters designed by Chris Seeger, NBCU Advanced Technology (chris.seeger@nbcuni.com)
#
# 58% PQ maps to 94% SDR (before highlight compression)
# Highlight compression from 94% to 109% SDR
# Stage 1 Pre-rolled-off HDR highlights
# Stage 2 Post-Rolled off converted SDR highlights
#
# Sophisticated Highlight Knee REQUIRES the use of devices using Tetrehedral Interpolation
#
# No Matrix Compensation (so make sure your device is using the correct matrix)
# Type III LUT - Full Range Processing for Narrow Range Signals
#
# Unscaled code values in and out
LUT_3D_SIZE 33
# 2021-04-08
# Input and Output values have been changed from narrow range encoding to extended full range encoding
# According to formula Full range value = (-16 + (1023*NarrowRangeValue)/4)/219
# Narrow range filename was 5-NBCU_PQ2SDR_DL_v1.cube
DOMAIN_MIN -0.0730594 -0.0730594 -0.0730594
DOMAIN_MAX 1.09475 1.09475 1.09475
-0.049221 -0.049221 -0.049221
0.0306041 -0.0511954 -0.0495156
0.041409 -0.0516882 -0.0495913
0.0491894 -0.0521707 -0.0496663
0.0698064 -0.0539901 -0.0499561
0.0988776 -0.0578756 -0.0506134
0.134307 -0.0644456 -0.0518408
0.17571 -0.0684931 -0.0538849
0.223358 -0.0684931 -0.0570167
0.277814 -0.0684931 -0.0615021
0.339825 -0.0684931 -0.0675736
0.410294 -0.0684931 -0.0684931
0.49028 -0.0684931 -0.0684931
0.581012 -0.0684931 -0.0684931
0.683913 -0.0684931 -0.0684931
0.800633 -0.0684931 -0.0684931
0.907998 -0.0684931 -0.0684931
0.977034 -0.0684931 -0.0684931
1.02449 -0.0684931 -0.0684931
1.05555 -0.0684931 -0.0684931
1.07111 -0.0684931 -0.0684931
1.08024 -0.0684931 -0.0684931
1.08625 -0.0684931 -0.0684931
1.09018 -0.0684931 -0.0684931
1.09018 -0.0684931 -0.0684931
1.09018 -0.0684931 -0.0684931
1.09018 -0.0684931 -0.0684931
1.09018 -0.0684931 -0.0684931
1.09018 -0.0684931 -0.0684931
1.09018 -0.0684931 -0.0684931
1.09018 -0.0684931 -0.0684931
1.09018 -0.0684931 -0.0684931
1.09018 -0.0684931 -0.0684931
-0.0577431 -0.0188283 -0.0508237
-0.0221634 -0.025099 -0.0511055
0.0248254 -0.0263977 -0.0511779
0.0378227 -0.0276027 -0.0512496
0.0635455 -0.0317112 -0.0515271
0.0951739 -0.0390781 -0.0521569
0.131928 -0.0494062 -0.0533351
0.174087 -0.062366 -0.0553028
0.222201 -0.0684931 -0.0583299
0.276963 -0.0684931 -0.0626863
0.339184 -0.0684931 -0.0684931
0.409802 -0.0684931 -0.0684931
0.489896 -0.0684931 -0.0684931
0.580709 -0.0684931 -0.0684931
0.683672 -0.0684931 -0.0684931
0.80044 -0.0684931 -0.0684931
0.907905 -0.0684931 -0.0684931
0.97699 -0.0684931 -0.0684931
1.02447 -0.0684931 -0.0684931
1.05554 -0.0684931 -0.0684931
1.07111 -0.0684931 -0.0684931
1.08024 -0.0684931 -0.0684931
1.08625 -0.0684931 -0.0684931
1.09018 -0.0684931 -0.0684931
1.09018 -0.0684931 -0.0684931
1.09018 -0.0684931 -0.0684931
1.09018 -0.0684931 -0.0684931
1.09018 -0.0684931 -0.0684931
1.09018 -0.0684931 -0.0684931
1.09018 -0.0684931 -0.0684931
1.09018 -0.0684931 -0.0684931
1.09018 -0.0684931 -0.0684931
1.09018 -0.0684931 -0.0684931
-0.0596757 0.0212299 -0.0512264
-0.0284348 0.0120169 -0.051505
0.0165255 0.00670066 -0.0515766
0.0339759 -0.00901314 -0.0516476
0.0617814 -0.0200323 -0.051922
0.094184 -0.0314857 -0.0525453
0.131304 -0.0442979 -0.0537116
0.173664 -0.0588007 -0.0556609
0.221901 -0.0684931 -0.0586624
0.276743 -0.0684931 -0.062987
0.339018 -0.0684931 -0.0684931
0.409674 -0.0684931 -0.0684931
0.489797 -0.0684931 -0.0684931
0.580631 -0.0684931 -0.0684931
0.68361 -0.0684931 -0.0684931
0.80039 -0.0684931 -0.0684931
0.907881 -0.0684931 -0.0684931
0.976978 -0.0684931 -0.0684931
1.02447 -0.0684931 -0.0684931
1.05554 -0.0684931 -0.0684931
1.07111 -0.0684931 -0.0684931
1.08024 -0.0684931 -0.0684931
1.08625 -0.0684931 -0.0684931
1.09018 -0.0684931 -0.0684931
1.09018 -0.0684931 -0.0684931
1.09018 -0.0684931 -0.0684931
1.09018 -0.0684931 -0.0684931
1.09018 -0.0684931 -0.0684931
1.09018 -0.0684931 -0.0684931
1.09018 -0.0684931 -0.0684931
1.09018 -0.0684931 -0.0684931
1.09018 -0.0684931 -0.0684931
1.09018 -0.0684931 -0.0684931
-0.0615093 0.0322863 -0.0516212
-0.0331612 0.0282808 -0.0518969
-0.0137381 0.027108 -0.0519678
0.0294376 0.0258703 -0.052038
0.0599595 0.0199863 -0.0523096
0.0931878 -0.0197427 -0.0529265
0.130681 -0.0382498 -0.0540814
0.173244 -0.0549379 -0.0560127
0.221603 -0.0684931 -0.0589895
0.276524 -0.0684931 -0.0632834
0.338853 -0.0684931 -0.0684931
0.409548 -0.0684931 -0.0684931
0.489699 -0.0684931 -0.0684931
0.580554 -0.0684931 -0.0684931
0.683549 -0.0684931 -0.0684931
0.800341 -0.0684931 -0.0684931
0.907857 -0.0684931 -0.0684931
0.976967 -0.0684931 -0.0684931
1.02446 -0.0684931 -0.0684931
1.05554 -0.0684931 -0.0684931
1.07111 -0.0684931 -0.0684931
1.08024 -0.0684931 -0.0684931
1.08625 -0.0684931 -0.0684931
1.09018 -0.0684931 -0.0684931
1.09018 -0.0684931 -0.0684931
1.09018 -0.0684931 -0.0684931
1.09018 -0.0684931 -0.0684931
1.09018 -0.0684931 -0.0684931
1.09018 -0.0684931 -0.0684931
1.09018 -0.0684931 -0.0684931
1.09018 -0.0684931 -0.0684931
1.09018 -0.0684931 -0.0684931
1.09018 -0.0684931 -0.0684931
-0.0680063 0.0542037 -0.0531185
-0.0460616 0.0523876 -0.0533834
-0.0372401 0.0519041 -0.0534515
-0.0237541 0.0514181 -0.053519
0.0519941 0.049464 -0.0537802
0.0891627 0.0445052 -0.054374
0.128217 0.0318187 -0.0554871
0.171594 -0.0337692 -0.057353
0.220438 -0.0605353 -0.0602383
0.27567 -0.0684931 -0.0644178
0.338212 -0.0684931 -0.0684931
0.409056 -0.0684931 -0.0684931
0.489316 -0.0684931 -0.0684931
0.580252 -0.0684931 -0.0684931
0.683309 -0.0684931 -0.0684931
0.800148 -0.0684931 -0.0684931
0.907764 -0.0684931 -0.0684931
0.976923 -0.0684931 -0.0684931
1.02444 -0.0684931 -0.0684931
1.05553 -0.0684931 -0.0684931
1.07111 -0.0684931 -0.0684931
1.08024 -0.0684931 -0.0684931
1.08625 -0.0684931 -0.0684931
1.09018 -0.0684931 -0.0684931
1.09018 -0.0684931 -0.0684931
1.09018 -0.0684931 -0.0684931
1.09018 -0.0684931 -0.0684931
1.09018 -0.0684931 -0.0684931
1.09018 -0.0684931 -0.0684931
1.09018 -0.0684931 -0.0684931
1.09018 -0.0684931 -0.0684931
1.09018 -0.0684931 -0.0684931
1.09018 -0.0684931 -0.0684931
-0.0684931 0.0811675 -0.0563528
-0.0646221 0.0801507 -0.0565969
-0.0595743 0.0798852 -0.0566596
-0.0538945 0.0796206 -0.0567218
0.0163881 0.0785797 -0.0569628
0.0787864 0.0761113 -0.057511
0.122286 0.0710381 -0.0585419
0.167716 0.0607395 -0.0602777
0.217727 0.0342282 -0.0629792
0.273695 -0.058734 -0.0669243
0.336731 -0.0684931 -0.0684931
0.407923 -0.0684931 -0.0684931
0.488435 -0.0684931 -0.0684931
0.579558 -0.0684931 -0.0684931
0.682757 -0.0684931 -0.0684931
0.799706 -0.0684931 -0.0684931
0.907549 -0.0684931 -0.0684931
0.976821 -0.0684931 -0.0684931
1.02439 -0.0684931 -0.0684931
1.05552 -0.0684931 -0.0684931
1.07111 -0.0684931 -0.0684931
1.08024 -0.0684931 -0.0684931
1.08625 -0.0684931 -0.0684931
1.09018 -0.0684931 -0.0684931
1.09018 -0.0684931 -0.0684931
1.09018 -0.0684931 -0.0684931
1.09018 -0.0684931 -0.0684931
1.09018 -0.0684931 -0.0684931
1.09018 -0.0684931 -0.0684931
1.09018 -0.0684931 -0.0684931
1.09018 -0.0684931 -0.0684931
1.09018 -0.0684931 -0.0684931
1.09018 -0.0684931 -0.0684931
-0.0684931 0.112506 -0.061915
-0.0684931 0.111865 -0.062129
-0.0684931 0.111699 -0.0621841
-0.0684931 0.111534 -0.0622387
-0.0653959 0.110887 -0.0624504
0.0501019 0.109383 -0.0629331
0.109628 0.106414 -0.0638441
0.159911 0.100952 -0.0653873
0.212394 0.0909827 -0.0678108
0.269852 0.0711606 -0.0684931
0.333868 -0.0382767 -0.0684931
0.405739 -0.0684931 -0.0684931
0.486739 -0.0684931 -0.0684931
0.578225 -0.0684931 -0.0684931
0.681698 -0.0684931 -0.0684931
0.798857 -0.0684931 -0.0684931
0.907137 -0.0684931 -0.0684931
0.976625 -0.0684931 -0.0684931
1.02429 -0.0684931 -0.0684931
1.05549 -0.0684931 -0.0684931
1.07111 -0.0684931 -0.0684931
1.08024 -0.0684931 -0.0684931
1.08626 -0.0684931 -0.0684931
1.09018 -0.0684931 -0.0684931
1.09018 -0.0684931 -0.0684931
1.09018 -0.0684931 -0.0684931
1.09018 -0.0684931 -0.0684931
1.09018 -0.0684931 -0.0684931
1.09018 -0.0684931 -0.0684931
1.09018 -0.0684931 -0.0684931
1.09018 -0.0684931 -0.0684931
1.09018 -0.0684931 -0.0684931
1.09018 -0.0684931 -0.0684931
-0.0684931 0.148454 -0.0684931
-0.0684931 0.148021 -0.0684931
-0.0684931 0.147908 -0.0684931
-0.0684931 0.147797 -0.0684931
-0.0684931 0.147362 -0.0684931
-0.0684931 0.146356 -0.0684931
0.0806142 0.144401 -0.0684931
0.144884 0.140906 -0.0684931
0.202639 0.134904 -0.0684931
0.262976 0.124632 -0.0684931
0.3288 0.106172 -0.0684931
0.401897 0.0643056 -0.0684931
0.483769 -0.0684931 -0.0684931
0.575895 -0.0684931 -0.0684931
0.679849 -0.0684931 -0.0684931
0.797377 -0.0684931 -0.0684931
0.906416 -0.0684931 -0.0684931
0.976284 -0.0684931 -0.0684931
1.02411 -0.0684931 -0.0684931
1.05544 -0.0684931 -0.0684931
1.0711 -0.0684931 -0.0684931
1.08025 -0.0684931 -0.0684931
1.08627 -0.0684931 -0.0684931
1.09018 -0.0684931 -0.0684931
1.09018 -0.0684931 -0.0684931
1.09018 -0.0684931 -0.0684931
1.09018 -0.0684931 -0.0684931
1.09018 -0.0684931 -0.0684931
1.09018 -0.0684931 -0.0684931
1.09018 -0.0684931 -0.0684931
1.09018 -0.0684931 -0.0684931
1.09018 -0.0684931 -0.0684931
1.09018 -0.0684931 -0.0684931
-0.0684931 0.189482 -0.0684931
-0.0684931 0.189174 -0.0684931
-0.0684931 0.189094 -0.0684931
-0.0684931 0.189015 -0.0684931
-0.0684931 0.188708 -0.0684931
-0.0684931 0.187998 -0.0684931
-0.0684931 0.186626 -0.0684931
0.113974 0.184205 -0.0684931
0.18506 0.18014 -0.0684931
0.251133 0.173478 -0.0684931
0.320254 0.162563 -0.0684931
0.395491 0.144059 -0.0684931
0.478847 0.10853 -0.0684931
0.572048 -0.0684931 -0.0684931
0.676804 -0.0684931 -0.0684931
0.794945 -0.0684931 -0.0684931
0.905225 -0.0684931 -0.0684931
0.975721 -0.0684931 -0.0684931
1.02383 -0.0684931 -0.0684931
1.05535 -0.0684931 -0.0684931
1.07109 -0.0684931 -0.0684931
1.08026 -0.0684931 -0.0684931
1.08629 -0.0684931 -0.0684931
1.09018 -0.0684931 -0.0684931
1.09018 -0.0684931 -0.0684931
1.09018 -0.0684931 -0.0684931
1.09018 -0.0684931 -0.0684931
1.09018 -0.0684931 -0.0684931
1.09018 -0.0684931 -0.0684931
1.09018 -0.0684931 -0.0684931
1.09018 -0.0684931 -0.0684931
1.09018 -0.0684931 -0.0684931
1.09018 -0.0684931 -0.0684931
-0.0684931 0.236178 -0.0684931
-0.0684931 0.235952 -0.0684931
-0.0684931 0.235894 -0.0684931
-0.0684931 0.235836 -0.0684931
-0.0684931 0.23561 -0.0684931
-0.0684931 0.23509 -0.0684931
-0.0684931 0.23409 -0.0684931
-0.0611163 0.232334 -0.0684931
0.151387 0.229416 -0.0684931
0.230754 0.224722 -0.0684931
0.306136 0.217285 -0.0684931
0.385116 0.20548 -0.0684931
0.470964 0.186225 -0.0684931
0.565927 0.152057 -0.0684931
0.67198 0.0590508 -0.0684931
0.791099 -0.0684931 -0.0684931
0.903325 -0.0684931 -0.0684931
0.974828 -0.0684931 -0.0684931
1.02338 -0.0684931 -0.0684931
1.05521 -0.0684931 -0.0684931
1.07107 -0.0684931 -0.0684931
1.08027 -0.0684931 -0.0684931
1.08631 -0.0684931 -0.0684931
1.09018 -0.0684931 -0.0684931
1.09018 -0.0684931 -0.0684931
1.09018 -0.0684931 -0.0684931
1.09018 -0.0684931 -0.0684931
1.09018 -0.0684931 -0.0684931
1.09018 -0.0684931 -0.0684931
1.09018 -0.0684931 -0.0684931
1.09018 -0.0684931 -0.0684931
1.09018 -0.0684931 -0.0684931
1.09018 -0.0684931 -0.0684931
-0.0684931 0.289236 -0.0684931
-0.0684931 0.289066 -0.0684931
-0.0684931 0.289022 -0.0684931
-0.0684931 0.288978 -0.0684931
-0.0684931 0.288808 -0.0684931
-0.0684931 0.288418 -0.0684931
-0.0684931 0.287667 -0.0684931
-0.0684931 0.286354 -0.0684931
0.045278 0.284184 -0.0684931
0.193635 0.280726 -0.0684931
0.282652 0.275333 -0.0684931
0.368491 0.267002 -0.0684931
0.458571 0.254088 -0.0684931
0.556408 0.233597 -0.0684931
0.664525 0.198922 -0.0684931
0.785182 0.125675 -0.0684931
0.900363 -0.0684931 -0.0684931
0.973447 -0.0684931 -0.0684931
1.02269 -0.0684931 -0.0684931
1.05499 -0.0684931 -0.0684931
1.07102 -0.0684931 -0.0684931
1.08029 -0.0684931 -0.0684931
1.08635 -0.0684931 -0.0684931
1.09018 -0.0684931 -0.0684931
1.09018 -0.0684931 -0.0684931
1.09018 -0.0684931 -0.0684931
1.09018 -0.0684931 -0.0684931
1.09018 -0.0684931 -0.0684931
1.09018 -0.0684931 -0.0684931
1.09018 -0.0684931 -0.0684931
1.09018 -0.0684931 -0.0684931
1.09018 -0.0684931 -0.0684931
1.09018 -0.0684931 -0.0684931
-0.0684931 0.349454 -0.0684931
-0.0684931 0.349323 -0.0684931
-0.0684931 0.34929 -0.0684931
-0.0684931 0.349256 -0.0684931
-0.0684931 0.349126 -0.0684931
-0.0684931 0.348826 -0.0684931
-0.0684931 0.348252 -0.0684931
-0.0684931 0.347248 -0.0684931
-0.0684931 0.345595 -0.0684931
0.102921 0.342974 -0.0684931
0.241443 0.33892 -0.0684931
0.341541 0.332745 -0.0684931
0.439162 0.323392 -0.0684931
0.541771 0.309153 -0.0684931
0.653184 0.287016 -0.0684931
0.776239 0.25073 -0.0684931
0.895792 0.177849 -0.0684931
0.971343 -0.0684931 -0.0684931
1.02164 -0.0684931 -0.0684931
1.05464 -0.0684931 -0.0684931
1.07095 -0.0684931 -0.0684931
1.0803 -0.0684931 -0.0684931
1.0864 -0.0684931 -0.0684931
1.09018 -0.0684931 -0.0684931
1.09018 -0.0684931 -0.0684931
1.09018 -0.0684931 -0.0684931
1.09018 -0.0684931 -0.0684931
1.09018 -0.0684931 -0.0684931
1.09018 -0.0684931 -0.0684931
1.09018 -0.0684931 -0.0684931
1.09018 -0.0684931 -0.0684931
1.09018 -0.0684931 -0.0684931
1.09018 -0.0684931 -0.0684931
-0.0684931 0.417753 -0.0684931
-0.0684931 0.417651 -0.0684931
-0.0684931 0.417625 -0.0684931
-0.0684931 0.417599 -0.0684931
-0.0684931 0.417498 -0.0684931
-0.0684931 0.417265 -0.0684931
-0.0684931 0.416817 -0.0684931
-0.0684931 0.416038 -0.0684931
-0.0684931 0.414756 -0.0684931
-0.0684931 0.412729 -0.0684931
0.151386 0.40961 -0.0684931
0.295577 0.404896 -0.0684931
0.408324 0.397844 -0.0684931
0.519254 0.387322 -0.0684931
0.636041 0.37153 -0.0684931
0.762862 0.347355 -0.0684931
0.888739 0.303765 -0.0684931
0.968157 0.21813 -0.0684931
1.02007 -0.0684931 -0.0684931
1.05409 -0.0684931 -0.0684931
1.07081 -0.0684931 -0.0684931
1.0803 -0.0684931 -0.0684931
1.08644 -0.0684931 -0.0684931
1.09018 -0.0684931 -0.0684931
1.09018 -0.0684931 -0.0684931
1.09018 -0.0684931 -0.0684931
1.09018 -0.0684931 -0.0684931
1.09018 -0.0684931 -0.0684931
1.09018 -0.0684931 -0.0684931
1.09018 -0.0684931 -0.0684931
1.09018 -0.0684931 -0.0684931
1.09018 -0.0684931 -0.0684931
1.09018 -0.0684931 -0.0684931
-0.0684931 0.495192 -0.0684931
-0.0684931 0.495112 -0.0684931
-0.0684931 0.495091 -0.0684931
-0.0684931 0.495071 -0.0684931
-0.0684931 0.494991 -0.0684931
-0.0684931 0.494807 -0.0684931
-0.0684931 0.494455 -0.0684931
-0.0684931 0.493842 -0.0684931
-0.0684931 0.492834 -0.0684931
-0.0684931 0.491244 -0.0684931
-0.0684931 0.488805 -0.0684931
0.20183 0.485134 -0.0684931
0.356881 0.479682 -0.0684931
0.484037 0.47164 -0.0684931
0.610039 0.459786 -0.0684931
0.742913 0.442189 -0.0684931
0.877714 0.411096 -0.0684931
0.963323 0.343837 -0.0684931
1.01773 0.249729 -0.0684931
1.05322 0.0887187 -0.0684931
1.07055 -0.0684931 -0.0684931
1.08025 -0.0684931 -0.0684931
1.08648 -0.0684931 -0.0684931
1.09018 -0.0684931 -0.0684931
1.09018 -0.0684931 -0.0684931
1.09018 -0.0684931 -0.0684931
1.09018 -0.0684931 -0.0684931
1.09018 -0.0684931 -0.0684931
1.09018 -0.0684931 -0.0684931
1.09018 -0.0684931 -0.0684931
1.09018 -0.0684931 -0.0684931
1.09018 -0.0684931 -0.0684931
1.09018 -0.0684931 -0.0684931
-0.0684931 0.582993 -0.0684931
-0.0684931 0.582929 -0.0684931
-0.0684931 0.582912 -0.0684931
-0.0684931 0.582896 -0.0684931
-0.0684931 0.582833 -0.0684931
-0.0684931 0.582686 -0.0684931
-0.0684931 0.582406 -0.0684931
-0.0684931 0.581918 -0.0684931
-0.0684931 0.581118 -0.0684931
-0.0684931 0.579857 -0.0684931
-0.0684931 0.577925 -0.0684931
-0.0684931 0.575027 -0.0684931
0.256827 0.570741 -0.0684931
0.426307 0.564462 -0.0684931
0.569877 0.555301 -0.0684931
0.712987 0.541926 -0.0684931
0.859955 0.519701 -0.0684931
0.955893 0.457948 -0.0684931
1.01422 0.37444 -0.0684931
1.05184 0.280007 -0.0684931
1.0701 0.197565 -0.0684931
1.08011 0.0992701 -0.0684931
1.08647 -0.0684931 -0.0684931
1.09018 -0.0684931 -0.0684931
1.09018 -0.0684931 -0.0684931
1.09018 -0.0684931 -0.0684931
1.09018 -0.0684931 -0.0684931
1.09018 -0.0684931 -0.0684931
1.09018 -0.0684931 -0.0684931
1.09018 -0.0684931 -0.0684931
1.09018 -0.0684931 -0.0684931
1.09018 -0.0684931 -0.0684931
1.09018 -0.0684931 -0.0684931
-0.0684931 0.682565 -0.0684931
-0.0684931 0.682513 -0.0684931
-0.0684931 0.6825 -0.0684931
-0.0684931 0.682487 -0.0684931
-0.0684931 0.682436 -0.0684931
-0.0684931 0.682319 -0.0684931
-0.0684931 0.682094 -0.0684931
-0.0684931 0.681703 -0.0684931
-0.0684931 0.681062 -0.0684931
-0.0684931 0.680053 -0.0684931
-0.0684931 0.678508 -0.0684931
-0.0684931 0.676196 -0.0684931
-0.0684931 0.672786 -0.0684931
0.317833 0.667811 -0.0684931
0.504941 0.660599 -0.0684931
0.667222 0.650171 -0.0684931
0.829643 0.634937 -0.0684931
0.94415 0.577668 -0.0684931
1.0089 0.492186 -0.0684931
1.04966 0.401584 -0.0684931
1.06929 0.334979 -0.0684931
1.07978 0.283667 -0.0684931
1.08635 0.238099 -0.0684931
1.09018 0.192353 -0.0684931
1.09018 0.138658 -0.0684931
1.09018 -0.0202028 -0.0684931
1.09018 -0.0684931 -0.0684931
1.09018 -0.0684931 -0.0684931
1.09018 -0.0684931 -0.0684931
1.09018 -0.0684931 -0.0684931
1.09018 -0.0684931 -0.0684931
1.09018 -0.0684931 -0.0684931
1.09018 -0.0684931 -0.0684931
-0.0684931 0.795541 -0.0684931
-0.0684931 0.7955 -0.0684931
-0.0684931 0.795489 -0.0684931
-0.0684931 0.795479 -0.0684931
-0.0684931 0.795438 -0.0684931
-0.0684931 0.795343 -0.0684931
-0.0684931 0.795162 -0.0684931
-0.0684931 0.794847 -0.0684931
-0.0684931 0.79433 -0.0684931
-0.0684931 0.793516 -0.0684931
-0.0684931 0.792272 -0.0684931
-0.0684931 0.790412 -0.0684931
-0.0684931 0.787675 -0.0684931
-0.0684931 0.783691 -0.0684931
0.386036 0.777941 -0.0684931
0.594027 0.769677 -0.0684931
0.777669 0.757808 -0.0684931
0.924611 0.711578 -0.0684931
1.0006 0.618343 -0.0684931
1.04617 0.520145 -0.0684931
1.06788 0.451487 -0.0684931
1.07911 0.403559 -0.0684931
1.08601 0.365278 -0.0684931
1.09018 0.331814 -0.0684931
1.09018 0.300639 -0.0684931
1.09018 0.270139 -0.0684931
1.09018 0.238959 -0.0684931
1.09018 0.205491 -0.0684931
1.09018 0.166942 -0.0684931
1.09018 0.115433 -0.0684931
1.09018 -0.0684931 -0.0684931
1.09018 -0.0684931 -0.0684931
1.09018 -0.0684931 -0.0684931
-0.0684931 0.90234 -0.0684931
-0.0684931 0.902319 -0.0684931
-0.0684931 0.902314 -0.0684931
-0.0684931 0.902308 -0.0684931
-0.0684931 0.902288 -0.0684931
-0.0684931 0.90224 -0.0684931
-0.0684931 0.902148 -0.0684931
-0.0684931 0.901989 -0.0684931
-0.0684931 0.901727 -0.0684931
-0.0684931 0.901314 -0.0684931
-0.0684931 0.900681 -0.0684931
-0.0684931 0.899731 -0.0684931
-0.0684931 0.898323 -0.0684931
-0.0684931 0.896254 -0.0684931
-0.0684931 0.893226 -0.0684931
0.455319 0.888785 -0.0684931
0.686202 0.88222 -0.0684931
0.888844 0.866153 -0.0684931
0.987038 0.763051 -0.0684931
1.04048 0.649238 -0.0684931
1.06548 0.570703 -0.0684931
1.07784 0.519448 -0.0684931
1.08526 0.480626 -0.0684931
1.09018 0.448206 -0.0684931
1.09018 0.419327 -0.0684931
1.09018 0.392462 -0.0684931
1.09018 0.366702 -0.0684931
1.09018 0.34143 -0.0684931
1.09018 0.316149 -0.0684931
1.09018 0.290376 -0.0684931
1.09018 0.263542 -0.0684931
1.09018 0.234849 -0.0684931
1.09018 0.20297 -0.0684931
-0.0684931 0.97205 -0.0684931
-0.0684931 0.97204 -0.0684931
-0.0684931 0.972037 -0.0684931
-0.0684931 0.972034 -0.0684931
-0.0684931 0.972024 -0.0684931
-0.0684931 0.972001 -0.0684931
-0.0684931 0.971958 -0.0684931
-0.0684931 0.971881 -0.0684931
-0.0684931 0.971755 -0.0684931
-0.0684931 0.971558 -0.0684931
-0.0684931 0.971255 -0.0684931
-0.0684931 0.970801 -0.0684931
-0.0684931 0.970132 -0.0684931
-0.0684931 0.969154 -0.0684931
-0.0684931 0.967734 -0.0684931
-0.0684931 0.965677 -0.0684931
0.50546 0.962688 -0.0684931
0.750042 0.95831 -0.0684931
0.962881 0.938307 -0.0684931
1.0309 0.799956 -0.0684931
1.06139 0.703088 -0.0684931
1.07554 0.643848 -0.0684931
1.08378 0.600995 -0.0684931
1.08921 0.566374 -0.0684931
1.09018 0.536288 -0.0684931
1.09018 0.508867 -0.0684931
1.09018 0.483088 -0.0684931
1.09018 0.458349 -0.0684931
1.09018 0.434256 -0.0684931
1.09018 0.410521 -0.0684931
1.09018 0.3869 -0.0684931
1.09018 0.363154 -0.0684931
1.09018 0.339023 -0.0684931
-0.0684931 1.0201 -0.0684931
-0.0684931 1.02009 -0.0684931
-0.0684931 1.02009 -0.0684931
-0.0684931 1.02009 -0.0684931
-0.0684931 1.02009 -0.0684931
-0.0684931 1.02008 -0.0684931
-0.0684931 1.02005 -0.0684931
-0.0684931 1.02002 -0.0684931
-0.0684931 1.01996 -0.0684931
-0.0684931 1.01986 -0.0684931
-0.0684931 1.01971 -0.0684931
-0.0684931 1.01949 -0.0684931
-0.0684931 1.01916 -0.0684931
-0.0684931 1.01868 -0.0684931
-0.0684931 1.01799 -0.0684931
-0.0684931 1.01699 -0.0684931
-0.0684931 1.01553 -0.0684931
0.542305 1.01341 -0.0684931
0.794635 1.0103 -0.0684931
1.01364 0.987776 -0.0684931
1.05432 0.859415 -0.0684931
1.07148 0.786201 -0.0684931
1.08105 0.735824 -0.0684931
1.08721 0.696507 -0.0684931
1.09018 0.663118 -0.0684931
1.09018 0.633145 -0.0684931
1.09018 0.60527 -0.0684931
1.09018 0.578765 -0.0684931
1.09018 0.553206 -0.0684931
1.09018 0.528319 -0.0684931
1.09018 0.503911 -0.0684931
1.09018 0.479819 -0.0684931
1.09018 0.455892 -0.0684931
-0.0684931 1.04646 -0.0684931
-0.0684931 1.04645 -0.0684931
-0.0684931 1.04645 -0.0684931
-0.0684931 1.04645 -0.0684931
-0.0684931 1.04645 -0.0684931
-0.0684931 1.04645 -0.0684931
-0.0684931 1.04644 -0.0684931
-0.0684931 1.04642 -0.0684931
-0.0684931 1.04639 -0.0684931
-0.0684931 1.04635 -0.0684931
-0.0684931 1.04629 -0.0684931
-0.0684931 1.04619 -0.0684931
-0.0684931 1.04605 -0.0684931
-0.0684931 1.04585 -0.0684931
-0.0684931 1.04555 -0.0684931
-0.0684931 1.04511 -0.0684931
-0.0684931 1.04448 -0.0684931
0.270939 1.04356 -0.0684931
0.618972 1.0422 -0.0684931
0.86589 1.04019 -0.0684931
1.04381 1.01718 -0.0684931
1.06545 0.928576 -0.0684931
1.07684 0.872169 -0.0684931
1.08396 0.830813 -0.0684931
1.08888 0.797147 -0.0684931
1.09018 0.767448 -0.0684931
1.09018 0.739589 -0.0684931
1.09018 0.712218 -0.0684931
1.09018 0.684373 -0.0684931
1.09018 0.656513 -0.0684931
1.09018 0.629365 -0.0684931
1.09018 0.60279 -0.0684931
1.09018 0.57667 -0.0684931
-0.0684931 1.0604 -0.0684931
-0.0684931 1.0604 -0.0684931
-0.0684931 1.0604 -0.0684931
-0.0684931 1.0604 -0.0684931
-0.0684931 1.0604 -0.0684931
-0.0684931 1.0604 -0.0684931
-0.0684931 1.06039 -0.0684931
-0.0684931 1.06038 -0.0684931
-0.0684931 1.06037 -0.0684931
-0.0684931 1.06034 -0.0684931
-0.0684931 1.06031 -0.0684931
-0.0684931 1.06025 -0.0684931
-0.0684931 1.06017 -0.0684931
-0.0684931 1.06006 -0.0684931
-0.0684931 1.05989 -0.0684931
-0.0684931 1.05964 -0.0684931
-0.0684931 1.05928 -0.0684931
-0.0684931 1.05875 -0.0684931
0.470325 1.05797 -0.0684931
0.744699 1.0568 -0.0684931
0.955944 1.05523 -0.0684931
1.05918 1.03216 -0.0684931
1.07263 0.968386 -0.0684931
1.08073 0.924535 -0.0684931
1.0862 0.891136 -0.0684931
1.09018 0.863593 -0.0684931
1.09018 0.839391 -0.0684931
1.09018 0.817021 -0.0684931
1.09018 0.795513 -0.0684931
1.09018 0.774191 -0.0684931
1.09018 0.752536 -0.0684931
1.09018 0.730101 -0.0684931
1.09018 0.706454 -0.0684931
-0.0684931 1.06905 -0.0684931
-0.0684931 1.06905 -0.0684931
-0.0684931 1.06905 -0.0684931
-0.0684931 1.06905 -0.0684931
-0.0684931 1.06905 -0.0684931
-0.0684931 1.06905 -0.0684931
-0.0684931 1.06905 -0.0684931
-0.0684931 1.06904 -0.0684931
-0.0684931 1.06903 -0.0684931
-0.0684931 1.06901 -0.0684931
-0.0684931 1.06899 -0.0684931
-0.0684931 1.06895 -0.0684931
-0.0684931 1.0689 -0.0684931
-0.0684931 1.06882 -0.0684931
-0.0684931 1.06871 -0.0684931
-0.0684931 1.06854 -0.0684931
-0.0684931 1.0683 -0.0684931
-0.0684931 1.06795 -0.0684931
0.309445 1.06742 -0.0684931
0.644148 1.06663 -0.0684931
0.872779 1.06552 -0.0684931
1.00565 1.06447 -0.0684931
1.0685 1.04125 -0.0684931
1.07769 0.993238 -0.0684931
1.08375 0.958282 -0.0684931
1.08808 0.93078 -0.0684931
1.09018 0.907743 -0.0684931
1.09018 0.887422 -0.0684931
1.09018 0.868725 -0.0684931
1.09018 0.850928 -0.0684931
1.09018 0.833527 -0.0684931
1.09018 0.81614 -0.0684931
1.09018 0.798451 -0.0684931
-0.0684931 1.07496 -0.0684931
-0.0684931 1.07496 -0.0684931
