sample/src/main/assets/lut/hlg2sdr/NBCU_DaVinci_DL_VRT_v1.1.cube
TITLE "HLG-BT.2100 to SDR-BT.709 Display-Light Conversion 3D Look-Up-Table"
# site: https://github.com/digitaltvguy/NBCUniversal-UHD-HDR-SDR-Single-Master-Production-Workflow-Recommendation-LUTs/tree/main
# PLEASE DO NOT ALTER THE LINES BELOW
# 
# © 2020 NBCUniversal, LLC - Please do not remove this line
#
# Version 1.1 (fix for negative values)
#
# Built using tools from and in collaboration with Cromorama and Nick Shaw - the creators of ORION-CONVERT
#
# MaxRGB 2-stage highlight compression knee
#
# Parameters designed by Chris Seeger, NBCU Advanced Technology (chris.seeger@nbcuni.com)
# In collaboration with Michael Drazin, NBCU Sports Group (michael.drazin@nbcuni.com)
#
# 75% HLG maps to 95% SDR (before highlight compression)
# Highlight compression from 95% to 109% SDR
# Stage 1 Pre-rolled-off HDR highlights
# Stage 2 Post-Rolled off converted SDR highlights
#
# Sophisticated Highlight Knee REQUIRES the use of devices using Tetrehedral Interpolation
#
# Display-Light Conversion (absolute chromaticity is preserved from input to output)
# Display-Light Conversion preserves original artistic intent
#
# No Matrix Compensation (so make sure your device is using the correct matrix)
#
# Type III LUT - Full Range Processing for Narrow Range Signals
#
# Knee Method = MaxRGB
# RESOLVE 17 VIDEO RANGE TAGS
LUT_IN_VIDEO_RANGE
LUT_OUT_VIDEO_RANGE
LUT_3D_SIZE 9
0.0039101 0.0039101 0.0039101
0.1561262 0.0039101 0.0039101
0.2918434 0.0039101 0.0039101
0.4485207 0.0039101 0.0039101
0.6041378 0.0039101 0.0039101
0.8073511 0.0039101 0.0039101
0.9419178 0.0039101 0.0039101
0.9858809 0.0039101 0.0039101
0.9960899 0.0039101 0.0039101
0.0039101 0.1334407 0.0039101
0.1359080 0.1323404 0.0039101
0.2959942 0.0772305 0.0039101
0.4507098 0.0039101 0.0039101
0.6056637 0.0039101 0.0039101
0.8081828 0.0039101 0.0039101
0.9420781 0.0039101 0.0039101
0.9859442 0.0039101 0.0039101
0.9960899 0.0039101 0.0039101
0.0039101 0.2771487 0.0039101
0.0039101 0.2765225 0.0039101
0.2784984 0.2724120 0.0039101
0.4492082 0.2583329 0.0039101
0.6074076 0.2236563 0.0039101
0.8101129 0.0039101 0.0039101
0.9425803 0.0039101 0.0039101
0.9861623 0.0039101 0.0039101
0.9960899 0.0039101 0.0039101
0.0039101 0.4200653 0.0039101
0.0039101 0.4196824 0.0039101
0.1185259 0.4177759 0.0039101
0.4219170 0.4124039 0.0039101
0.5981719 0.4011119 0.0039101
0.8091989 0.3683050 0.0039101
0.9430342 0.2050188 0.0039101
0.9864507 0.0039101 0.0039101
0.9960899 0.0039101 0.0039101
0.0039101 0.5632198 0.0039101
0.0039101 0.5629451 0.0039101
0.0039101 0.5617064 0.0039101
0.3378275 0.5586088 0.0039101
0.5656703 0.5525903 0.0039101
0.7997276 0.5351579 0.0039101
0.9426747 0.4067815 0.0039101
0.9865799 0.2855555 0.0039101
0.9960899 0.2239351 0.0039101
0.0039101 0.7559015 0.0039101
0.0039101 0.7557027 0.0039101
0.0039101 0.7548543 0.0039101
0.0039101 0.7529114 0.0039101
0.4550511 0.7494226 0.0039101
0.7591991 0.7412525 0.0039101
0.9395832 0.5967205 0.0039101
0.9860770 0.4742121 0.0039101
0.9960899 0.4285360 0.0039101
0.0039101 0.9217919 0.0039101
0.0039101 0.9217540 0.0039101
0.0039101 0.9215976 0.0039101
0.0039101 0.9212608 0.0039101
0.0039101 0.9206957 0.0039101
0.4968009 0.9194546 0.0039101
0.9230658 0.9010129 0.0039101
0.9823540 0.7205195 0.0039101
0.9960899 0.6611568 0.0039101
0.0039101 0.9732243 0.0039101
0.0039101 0.9732099 0.0039101
0.0039101 0.9731503 0.0039101
0.0039101 0.9730256 0.0039101
0.0039101 0.9728239 0.0039101
0.0039101 0.9724014 0.0039101
0.6965014 0.9712409 0.0039101
0.9740094 0.9506937 0.0039101
0.9912244 0.8662699 0.0039101
0.0039101 0.9870385 0.0039101
0.0039101 0.9870280 0.0039101
0.0039101 0.9869856 0.0039101
0.0039101 0.9868972 0.0039101
0.0039101 0.9867557 0.0039101
0.0039101 0.9864639 0.0039101
0.5896310 0.9856793 0.0039101
0.8951449 0.9845521 0.0039101
0.9877079 0.9640532 0.0039101
0.0039101 0.0039101 0.1383328
0.1514843 0.0039101 0.1319705
0.2922939 0.0039101 0.1376120
0.4486121 0.0039101 0.1352491
0.6041756 0.0039101 0.1168115
0.8073649 0.0039101 0.0039101
0.9419197 0.0039101 0.0039101
0.9858815 0.0039101 0.0039101
0.9960899 0.0039101 0.0039101
0.0039101 0.1347667 0.1293518
0.1325940 0.1325940 0.1325940
0.2957658 0.0684959 0.1346499
0.4506635 0.0039101 0.1276612
0.6056517 0.0039101 0.0993558
0.8081823 0.0039101 0.0039101
0.9420786 0.0039101 0.0039101
0.9859445 0.0039101 0.0039101
0.9960899 0.0039101 0.0039101
0.0039101 0.2773676 0.1066234
0.0039101 0.2767072 0.1038744
0.2773949 0.2724962 0.0863459
0.4488619 0.2582932 0.0146118
0.6072568 0.2234658 0.0039101
0.8100668 0.0039101 0.0039101
0.9425762 0.0039101 0.0039101
0.9861614 0.0039101 0.0039101
0.9960899 0.0039101 0.0039101
0.0039101 0.4201897 0.0039101
0.0039101 0.4197995 0.0039101
0.1061438 0.4178668 0.0039101
0.4212550 0.4124543 0.0039101
0.5978622 0.4011180 0.0039101
0.8090898 0.3682633 0.0039101
0.9430225 0.2047918 0.0039101
0.9864476 0.0039101 0.0039101
0.9960899 0.0039101 0.0039101
0.0039101 0.5633073 0.0039101
0.0039101 0.5630299 0.0039101
0.0039101 0.5617812 0.0039101
0.3365813 0.5586661 0.0039101
0.5651976 0.5526264 0.0039101
0.7995446 0.5351909 0.0039101
0.9426544 0.4067672 0.0039101
0.9865744 0.2854864 0.0039101
0.9960899 0.2238227 0.0039101
0.0039101 0.7559642 0.0039101
0.0039101 0.7557643 0.0039101
0.0039101 0.7549120 0.0039101
0.0039101 0.7529620 0.0039101
0.4541914 0.7494635 0.0039101
0.7588578 0.7412785 0.0039101
0.9395504 0.5967755 0.0039101
0.9860678 0.4742188 0.0039101
0.9960899 0.4285302 0.0039101
0.0039101 0.9218037 0.0039101
0.0039101 0.9217659 0.0039101
0.0039101 0.9216092 0.0039101
0.0039101 0.9212716 0.0039101
0.0039101 0.9207056 0.0039101
0.4961778 0.9194630 0.0039101
0.9230019 0.9011634 0.0039101
0.9823382 0.7205810 0.0039101
0.9960899 0.6611981 0.0039101
0.0039101 0.9732289 0.0039101
0.0039101 0.9732143 0.0039101
0.0039101 0.9731547 0.0039101
0.0039101 0.9730298 0.0039101
0.0039101 0.9728279 0.0039101
0.0039101 0.9724051 0.0039101
0.6962419 0.9712438 0.0039101
0.9739848 0.9508097 0.0039101
0.9912097 0.8663504 0.0039101
0.0039101 0.9870417 0.0039101
0.0039101 0.9870312 0.0039101
0.0039101 0.9869887 0.0039101
0.0039101 0.9869002 0.0039101
0.0039101 0.9867588 0.0039101
0.0039101 0.9864666 0.0039101
0.5893351 0.9856816 0.0039101
0.8949945 0.9845538 0.0039101
0.9876902 0.9641553 0.0039101
0.0039101 0.0039101 0.2336806
0.1336562 0.0039101 0.2164110
0.2932247 0.0039101 0.2580831
0.4488350 0.0039101 0.2735901
0.6042780 0.0039101 0.2817470
0.8074065 0.0039101 0.2836035
0.9419263 0.0039101 0.2359980
0.9858840 0.0039101 0.1891806
0.9960899 0.0039101 0.1684364
0.0039101 0.1373365 0.2445522
0.1127734 0.1328428 0.2510849
0.2944883 0.0376629 0.2643010
0.4503755 0.0039101 0.2751251
0.6055627 0.0039101 0.2815924
0.8081681 0.0039101 0.2823118
0.9420799 0.0039101 0.2340667
0.9859456 0.0039101 0.1868848
0.9960899 0.0039101 0.1658204
0.0039101 0.2781725 0.2685413
0.0039101 0.2773857 0.2695644
0.2727970 0.2727970 0.2727970
0.4474269 0.2581162 0.2766743
0.6066290 0.2226900 0.2790768
0.8098731 0.0039101 0.2763310
0.9425586 0.0039101 0.2258227
0.9861576 0.0039101 0.1769166
0.9960899 0.0039101 0.1541578
0.0039101 0.4206721 0.2690646
0.0039101 0.4202532 0.2691682
0.0039101 0.4182192 0.2694198
0.4185685 0.4126484 0.2692747
0.5966081 0.4011372 0.2678308
0.8086467 0.3680941 0.2606705
0.9429752 0.2038771 0.2061886
0.9864356 0.0039101 0.1511816
0.9960899 0.0039101 0.1193088
0.0039101 0.5636516 0.2485041
0.0039101 0.5633637 0.2481973
0.0039101 0.5620754 0.2469008
0.3315003 0.5588916 0.2439883
0.5632936 0.5527676 0.2388588
0.7988060 0.5353201 0.2260918
0.9425728 0.4067096 0.1619205
0.9865524 0.2852093 0.0066743
0.9960899 0.2233716 0.0039101
0.0039101 0.7562128 0.1438821
0.0039101 0.7560090 0.1419223
0.0039101 0.7551412 0.1332241
0.0039101 0.7531626 0.1078859
0.4507210 0.7496260 0.0039101
0.7574881 0.7413815 0.0039101
0.9394184 0.5969951 0.0039101
0.9860311 0.4742460 0.0039101
0.9960899 0.4285069 0.0039101
0.0039101 0.9218509 0.0039101
0.0039101 0.9218127 0.0039101
0.0039101 0.9216546 0.0039101
0.0039101 0.9213145 0.0039101
0.0039101 0.9207447 0.0039101
0.4936728 0.9194960 0.0039101
0.9227455 0.9017659 0.0039101
0.9822750 0.7208273 0.0039101
0.9960840 0.6613634 0.0039101
0.0039101 0.9732471 0.0039101
0.0039101 0.9732324 0.0039101
0.0039101 0.9731724 0.0039101
0.0039101 0.9730469 0.0039101
0.0039101 0.9728441 0.0039101
0.0039101 0.9724196 0.0039101
0.6952030 0.9712551 0.0039101
0.9738861 0.9512743 0.0039101
0.9911508 0.8666725 0.0039101
0.0039101 0.9870547 0.0039101
0.0039101 0.9870442 0.0039101
0.0039101 0.9870015 0.0039101
0.0039101 0.9869126 0.0039101
0.0039101 0.9867705 0.0039101
0.0039101 0.9864774 0.0039101
0.5881497 0.9856904 0.0039101
0.8943918 0.9845605 0.0039101
0.9876195 0.9645636 0.0039101
0.0039101 0.0039101 0.3297755
0.1119210 0.0039101 0.3452049
0.2922296 0.0039101 0.3713990
0.4486796 0.0039101 0.3924838
0.6042646 0.0039101 0.4076506
0.8074270 0.0039101 0.4186250
0.9419333 0.0039101 0.3624429
0.9858871 0.0039101 0.3109418
0.9960899 0.0039101 0.2914803
0.0039101 0.1379226 0.3583910
0.0039101 0.1312409 0.3643208
0.2904791 0.0220614 0.3797549
0.4493502 0.0039101 0.3961433
0.6051983 0.0039101 0.4093035
0.8080821 0.0039101 0.4189310
0.9420767 0.0039101 0.3619162
0.9859462 0.0039101 0.3102559
0.9960899 0.0039101 0.2907644
0.0039101 0.2794918 0.3896226
0.0039101 0.2784917 0.3913343
0.2626514 0.2732435 0.3971500
0.4443220 0.2576787 0.4055696
0.6052554 0.2210705 0.4138545
0.8094421 0.0039101 0.4195515
0.9425187 0.0039101 0.3597060
0.9861488 0.0039101 0.3074426
0.9960899 0.0039101 0.2878358
0.0039101 0.4215697 0.4064721
0.0039101 0.4210973 0.4070856
0.0039101 0.4188723 0.4093294
0.4129999 0.4129999 0.4129999
0.5940239 0.4011514 0.4170302
0.8077269 0.3677421 0.4186665
0.9428764 0.2020116 0.3547997
0.9864104 0.0039101 0.3014613
0.9960899 0.0039101 0.2816387
0.0039101 0.5643155 0.4105548
0.0039101 0.5640072 0.4107651
0.0039101 0.5626422 0.4115398
0.3208223 0.5593249 0.4128053
0.5594147 0.5530365 0.4141132
0.7972938 0.5355662 0.4135660
0.9424066 0.4065929 0.3462230
0.9865072 0.2846515 0.2914989
0.9960899 0.2224613 0.2713741
0.0039101 0.7567007 0.3974838
0.0039101 0.7564890 0.3974347
0.0039101 0.7555908 0.3972155
0.0039101 0.7535558 0.3966720
0.4436141 0.7499443 0.3956130
0.7547216 0.7415822 0.3929426
0.9391518 0.5974356 0.3257850
0.9859570 0.4743001 0.2688945
0.9960899 0.4284602 0.2481797
0.0039101 0.9219444 0.2808845
0.0039101 0.9219055 0.2805770
0.0039101 0.9217447 0.2793345
0.0039101 0.9213994 0.2767825
0.0039101 0.9208224 0.2727723
0.4885926 0.9195612 0.2646368
0.9222278 0.9029753 0.2396987
0.9821479 0.7213212 0.1735131
0.9960041 0.6616946 0.1436119
0.0039101 0.9732832 0.0039101
0.0039101 0.9732683 0.0039101
0.0039101 0.9732079 0.0039101
0.0039101 0.9730810 0.0039101
0.0039101 0.9728763 0.0039101
0.0039101 0.9724485 0.0039101
0.6931155 0.9712775 0.0039101
0.9736876 0.9522067 0.0039101
0.9910324 0.8673184 0.0039101
0.0039101 0.9870806 0.0039101
0.0039101 0.9870700 0.0039101
0.0039101 0.9870269 0.0039101
0.0039101 0.9869373 0.0039101
0.0039101 0.9867940 0.0039101
0.0039101 0.9864990 0.0039101
0.5857657 0.9857079 0.0039101
0.8931835 0.9845738 0.0039101
0.9874775 0.9653829 0.0039101
0.0039101 0.0039101 0.4563042
0.0039101 0.0039101 0.4640466
0.2863380 0.0039101 0.4845771
0.4472198 0.0039101 0.5070779
0.6037544 0.0039101 0.5260313
0.8073093 0.0039101 0.5420619
0.9419298 0.0039101 0.4717913
0.9858884 0.0039101 0.4082709
0.9960899 0.0039101 0.3848360
0.0039101 0.1348263 0.4732788
0.0039101 0.1258233 0.4782220
0.2815643 0.0071065 0.4931170
0.4468502 0.0039101 0.5117299
0.6042264 0.0039101 0.5286384
0.8078164 0.0039101 0.5431721
0.9420584 0.0039101 0.4718055
0.9859439 0.0039101 0.4080277
0.9960899 0.0039101 0.3845423
0.0039101 0.2809008 0.5050454
0.0039101 0.2796491 0.5070780
0.2446402 0.2735847 0.5142031
0.4390996 0.2568307 0.5251538
0.6029134 0.2184688 0.5368438
0.8086889 0.0039101 0.5469782
0.9424471 0.0039101 0.4718001
0.9861324 0.0039101 0.4070280
0.9960899 0.0039101 0.3833446
0.0039101 0.4227647 0.5298843
0.0039101 0.4222198 0.5307810
0.0039101 0.4197342 0.5341269
0.4041265 0.4134428 0.5398737
0.5899550 0.4011147 0.5467690
0.8062612 0.3671796 0.5524253
0.9427187 0.1991138 0.4715362
0.9863700 0.0039101 0.4049005
0.9960899 0.0039101 0.3808384
0.0039101 0.5652531 0.5444785
0.0039101 0.5649159 0.5449164
0.0039101 0.5634418 0.5465885
0.3032664 0.5599333 0.5495948
0.5534077 0.5534077 0.5534077
0.7949335 0.5359043 0.5569977
0.9421492 0.4064140 0.4706373
0.9864373 0.2838044 0.4013942
0.9960899 0.2210727 0.3767946
0.0039101 0.7574105 0.5501433
0.0039101 0.7571873 0.5503011
0.0039101 0.7562447 0.5509063
0.0039101 0.7541276 0.5520018
0.4324923 0.7504061 0.5533876
0.7504984 0.7418712 0.5552701
0.9387439 0.5981006 0.4676895
0.9858438 0.4743814 0.3938264
0.9960899 0.4283891 0.3682837
0.0039101 0.9220826 0.4617175
0.0039101 0.9220426 0.4617142
0.0039101 0.9218779 0.4616991
0.0039101 0.9215249 0.4616596
0.0039101 0.9209372 0.4615775
0.4807782 0.9196577 0.4613543
0.9214380 0.9048045 0.4553436
0.9819548 0.7220670 0.3710700
0.9958830 0.6621943 0.3435543
0.0039101 0.9733369 0.3541237
0.0039101 0.9733219 0.3540134
0.0039101 0.9732604 0.3535697
0.0039101 0.9731317 0.3526708
0.0039101 0.9729241 0.3512908
0.0039101 0.9724916 0.3486092
0.6899567 0.9713111 0.3420417
0.9733865 0.9536151 0.3285854
0.9908533 0.8682933 0.2990296
0.0039101 0.9871192 0.3047518
0.0039101 0.9871085 0.3045935
0.0039101 0.9870648 0.3039570
0.0039101 0.9869739 0.3026671
0.0039101 0.9868291 0.3006864
0.0039101 0.9865310 0.2968334
0.5821511 0.9857339 0.2873497
0.8913614 0.9845939 0.2746280
0.9872624 0.9666195 0.2634862
0.0039101 0.0039101 0.6171219
0.0039101 0.0039101 0.6220269
0.2659682 0.0039101 0.6378486
0.4414978 0.0039101 0.6594752
0.6014655 0.0039101 0.6806333
0.8066523 0.0039101 0.7005093
0.9418793 0.0039101 0.6088126
0.9858799 0.0039101 0.5274458
0.9960899 0.0039101 0.4978283
0.0039101 0.1219898 0.6286598
0.0039101 0.1062665 0.6325580
0.2567444 0.0039101 0.6456513
0.4396764 0.0039101 0.6645811
0.6012273 0.0039101 0.6839317
0.8069129 0.0039101 0.7023110
0.9419819 0.0039101 0.6092663
0.9859285 0.0039101 0.5275195
0.9960899 0.0039101 0.4978201
0.0039101 0.2822340 0.6579872
0.0039101 0.2806392 0.6601382
0.1966975 0.2733925 0.6679137
0.4276305 0.2547075 0.6805497
0.5977074 0.2130494 0.6949405
0.8069534 0.0039101 0.7088557
0.9422764 0.0039101 0.6110342
0.9860920 0.0039101 0.5278010
0.9960899 0.0039101 0.4977770
0.0039101 0.4245780 0.6880103
0.0039101 0.4239174 0.6891353
0.0039101 0.4210108 0.6933855
0.3857313 0.4140245 0.7008874
0.5817475 0.4008730 0.7102697
0.8032465 0.3660179 0.7196379
0.9423940 0.1933491 0.6144050
0.9862859 0.0039101 0.5283080
0.9960899 0.0039101 0.4976472
0.0039101 0.5668319 0.7108456
0.0039101 0.5664450 0.7114794
0.0039101 0.5647836 0.7139235
0.2634585 0.5609443 0.7184250
0.5415627 0.5540028 0.7243751
0.7902179 0.5364282 0.7318028
0.9416426 0.4060669 0.6192288
0.9862994 0.2821887 0.5289586
0.9960899 0.2184028 0.4973560
0.0039101 0.7586678 0.7301523
0.0039101 0.7584242 0.7304685
0.0039101 0.7574025 0.7317023
0.0039101 0.7551384 0.7340341
0.4100266 0.7512195 0.7372295
0.7423726 0.7423726 0.7423726
0.9379566 0.5993562 0.6280586
0.9856260 0.4745334 0.5299255
0.9960899 0.4282541 0.4965525
0.0039101 0.9223338 0.6411880
0.0039101 0.9222921 0.6413292
0.0039101 0.9221202 0.6418932
0.0039101 0.9217533 0.6430204
0.0039101 0.9211458 0.6447129
0.4655083 0.9198329 0.6478862
0.9199190 0.9082667 0.6497365
0.9815874 0.7234743 0.5314310
0.9956529 0.6631362 0.4937173
0.0039101 0.9734359 0.5345281
0.0039101 0.9734204 0.5345604
0.0039101 0.9733570 0.5346898
0.0039101 0.9732247 0.5349481
0.0039101 0.9730122 0.5353353
0.0039101 0.9725708 0.5360584
0.6839674 0.9713725 0.5376942
0.9728140 0.9562770 0.5326079
0.9905134 0.8701326 0.4886741
0.0039101 0.9871904 0.4919659
0.0039101 0.9871794 0.4919694
0.0039101 0.9871346 0.4919829
0.0039101 0.9870417 0.4920090
0.0039101 0.9868937 0.4920455
0.0039101 0.9865901 0.4921053
0.5752733 0.9857818 0.4922040
0.8879274 0.9846304 0.4922614
0.9868546 0.9689543 0.4852698
0.0039101 0.0039101 0.8447100
0.0039101 0.0039101 0.8465343
0.1545216 0.0039101 0.8528891
0.4012907 0.0039101 0.8625062
0.5599245 0.0039101 0.8725613
0.7517516 0.0039101 0.8846197
0.9415733 0.0039101 0.8166673
0.9858105 0.0039101 0.7051393
0.9960899 0.0039101 0.6651171
0.0039101 0.0069225 0.8491185
0.0039101 0.0039101 0.8506969
0.0917872 0.0039101 0.8562741
0.3963870 0.0039101 0.8649269
0.5575054 0.0039101 0.8742104
0.7504629 0.0039101 0.8856019
0.9416236 0.0039101 0.8176054
0.9858450 0.0039101 0.7055294
0.9960899 0.0039101 0.6653814
0.0039101 0.2711284 0.8619787
0.0039101 0.2688861 0.8629832
0.0039101 0.2593106 0.8666629
0.3739439 0.2367345 0.8727635
0.5466905 0.1886098 0.8798101
0.7447702 0.0039101 0.8890964
0.9417269 0.0039101 0.8213259
0.9859557 0.0039101 0.7070842
0.9960899 0.0039101 0.6664349
0.0039101 0.4034595 0.8768485
0.0039101 0.4023915 0.8774049
0.0039101 0.3979785 0.8795093
0.3131698 0.3884825 0.8832272
0.5204307 0.3725470 0.8878734
0.7312478 0.3366818 0.8945511
0.9415237 0.1782461 0.8286821
0.9860572 0.0039101 0.7101812
0.9960899 0.0039101 0.6685337
0.0039101 0.5281085 0.8889959
0.0039101 0.5274242 0.8893131
0.0039101 0.5246309 0.8905362
0.0039101 0.5187770 0.8927871
0.4700741 0.5093479 0.8957611
0.7067036 0.4897302 0.9003415
0.9403799 0.4052234 0.8397134
0.9859548 0.2783856 0.7148391
0.9960899 0.2119966 0.6716852
0.0039101 0.6908666 0.9006217
0.0039101 0.6904135 0.9007858
0.0039101 0.6885791 0.9014272
0.0039101 0.6848038 0.9026441
0.3175115 0.6788771 0.9043242
0.6488783 0.6670070 0.9070737
0.9360610 0.6022469 0.8610073
0.9851061 0.4748772 0.7237347
0.9960899 0.4279382 0.6776667
0.0039101 0.9228685 0.8878034
0.0039101 0.9228228 0.8880858
0.0039101 0.9226354 0.8892161
0.0039101 0.9222389 0.8914815
0.0039101 0.9215893 0.8948987
0.4272620 0.9202043 0.9013505
0.9162801 0.9162801 0.9162801
0.9807277 0.7267122 0.7457206
0.9951159 0.6652972 0.6921548
0.0039101 0.9736511 0.7604340
0.0039101 0.9736346 0.7605689
0.0039101 0.9735674 0.7611089
0.0039101 0.9734276 0.7621927
0.0039101 0.9732040 0.7638304
0.0039101 0.9727431 0.7669289
0.6700482 0.9715057 0.7741093
0.9714751 0.9624177 0.7770659
0.9897240 0.8743607 0.7120270
0.0039101 0.9873465 0.7116588
0.0039101 0.9873348 0.7117554
0.0039101 0.9872876 0.7121421
0.0039101 0.9871900 0.7129180
0.0039101 0.9870352 0.7140903
0.0039101 0.9867196 0.7163066
0.5591596 0.9858868 0.7214310
0.8800543 0.9847101 0.7276534
0.9859065 0.9743275 0.7238833
0.0039101 0.0039101 0.9285131
0.0039101 0.0039101 0.9291317
0.0039101 0.0039101 0.9314082
0.3218437 0.0039101 0.9352192
0.4795683 0.0039101 0.9396795
0.6534913 0.0039101 0.9456604
0.9027431 0.0039101 0.9539034
0.9856480 0.0039101 0.8546568
0.9960899 0.0039101 0.8051075
0.0039101 0.0039101 0.9300351
0.0039101 0.0039101 0.9306024
0.0039101 0.0039101 0.9327017
0.3154435 0.0039101 0.9362541
0.4765585 0.0039101 0.9404651
0.6518151 0.0039101 0.9461877
0.9018513 0.0039101 0.9541866
0.9856679 0.0039101 0.8552582
0.9960899 0.0039101 0.8055477
0.0039101 0.2399282 0.9350217
0.0039101 0.2376015 0.9354444
0.0039101 0.2277486 0.9370342
0.2865354 0.2046320 0.9398126
0.4638517 0.1520891 0.9432408
0.6448430 0.0039101 0.9481088
0.8981787 0.0039101 0.9552513
0.9857230 0.0039101 0.8576627
0.9960899 0.0039101 0.8073081
0.0039101 0.3592597 0.9418432
0.0039101 0.3581679 0.9421172
0.0039101 0.3537095 0.9431664
0.1975241 0.3443304 0.9450698
0.4351248 0.3289881 0.9475366
0.6297064 0.2952383 0.9512514
0.8903635 0.1494246 0.9571040
0.9857253 0.0039101 0.8624870
0.9960899 0.0039101 0.8108406
0.0039101 0.4672340 0.9482908
0.0039101 0.4665381 0.9484652
0.0039101 0.4637205 0.9491414
0.0039101 0.4579164 0.9504033
0.3818499 0.4487746 0.9521051
0.6042166 0.4302512 0.9548033
0.8775945 0.3803112 0.9593614
0.9854960 0.2736516 0.8698126
0.9960899 0.2037416 0.8161972
0.0039101 0.6055828 0.9553025
0.0039101 0.6051249 0.9554020
0.0039101 0.6032806 0.9557915
0.0039101 0.5995253 0.9565360
0.1901965 0.5937202 0.9575757
0.5471969 0.5823349 0.9593078
0.8508064 0.5540810 0.9624593
0.9844490 0.4752802 0.8839579
0.9960899 0.4275501 0.8264872
0.0039101 0.8193243 0.9628146
0.0039101 0.8190392 0.9628608
0.0039101 0.8178952 0.9630431
0.0039101 0.8155838 0.9633982
0.0039101 0.8120550 0.9639089
0.3313447 0.8052704 0.9647974
0.7770141 0.7890995 0.9665362
0.9796686 0.7306020 0.9193010
0.9944581 0.6678824 0.8517382
0.0039101 0.9738893 0.9368101
0.0039101 0.9738716 0.9370081
0.0039101 0.9738001 0.9378007
0.0039101 0.9736517 0.9393923
0.0039101 0.9734159 0.9417983
0.0039101 0.9729335 0.9463540
0.6530465 0.9716523 0.9569229
0.9698265 0.9698265 0.9698265
0.9887615 0.8794337 0.8865284
0.0039101 0.9875205 0.8802086
0.0039101 0.9875082 0.8803591
0.0039101 0.9874584 0.8809616
0.0039101 0.9873555 0.8821707
0.0039101 0.9871932 0.8839981
0.0039101 0.9868641 0.8874549
0.5392013 0.9860035 0.8954549
0.8706450 0.9847982 0.9051760
0.9847496 0.9807855 0.9072277
0.0039101 0.0039101 0.9495026
0.0039101 0.0039101 0.9499313
0.0039101 0.0039101 0.9515309
0.2832621 0.0039101 0.9542836
0.4453546 0.0039101 0.9576155
0.6140968 0.0039101 0.9622504
0.8511281 0.0039101 0.9689088
0.9855344 0.0039101 0.9188845
0.9960899 0.0039101 0.8650337
0.0039101 0.0039101 0.9505620
0.0039101 0.0039101 0.9509609
0.0039101 0.0039101 0.9524555
0.2759642 0.0039101 0.9550475
0.4422316 0.0039101 0.9582155
0.6123698 0.0039101 0.9626698
0.8501967 0.0039101 0.9691454
0.9855475 0.0039101 0.9195695
0.9960899 0.0039101 0.8655424
0.0039101 0.2262602 0.9541432
0.0039101 0.2239306 0.9544539
0.0039101 0.2140480 0.9556317
0.2419192 0.1906361 0.9577243
0.4291206 0.1334875 0.9603634
0.6052425 0.0039101 0.9642095
0.8463868 0.0039101 0.9700385
0.9855763 0.0039101 0.9223112
0.9960899 0.0039101 0.8675786
0.0039101 0.3413142 0.9592946
0.0039101 0.3402430 0.9595064
0.0039101 0.3358761 0.9603210
0.0054619 0.3267200 0.9618124
0.3996375 0.3117962 0.9637705
0.5899724 0.2790329 0.9667697
0.8383832 0.1290732 0.9716077
0.9855314 0.0039101 0.9278225
0.9960899 0.0039101 0.8716706
0.0039101 0.4435812 0.9644042
0.0039101 0.4429003 0.9645444
0.0039101 0.4401475 0.9650893
0.0039101 0.4344940 0.9661114
0.3444782 0.4256255 0.9675000
0.5645649 0.4077446 0.9697251
0.8254969 0.3597986 0.9735469
0.9852404 0.2711178 0.9362113
0.9960899 0.1991706 0.8778890
0.0039101 0.5736370 0.9702080
0.0039101 0.5731897 0.9702908
0.0039101 0.5713893 0.9706158
0.0039101 0.5677308 0.9712385
0.0039101 0.5620926 0.9721116
0.5081407 0.5510809 0.9735752
0.7988631 0.5239256 0.9762672
0.9840949 0.4754856 0.9524556
0.9960899 0.4273452 0.8898645
0.0039101 0.7732195 0.9767603
0.0039101 0.7729403 0.9768003
0.0039101 0.7718199 0.9769583
0.0039101 0.7695590 0.9772664
0.0039101 0.7661136 0.9777103
0.2872730 0.7595081 0.9784858
0.7265978 0.7438422 0.9800149
0.9676183 0.7242230 0.9814968
0.9941114 0.6692205 0.9193300
0.0039101 0.9452755 0.9803388
0.0039101 0.9450731 0.9803617
0.0039101 0.9442618 0.9804531
0.0039101 0.9426290 0.9806324
0.0039101 0.9401519 0.9808938
0.0039101 0.9354361 0.9813590
0.6138209 0.9244092 0.9823071
0.9064654 0.9108744 0.9832640
0.9882559 0.8820657 0.9599685
0.0039101 0.9876057 0.9499862
0.0039101 0.9875931 0.9501568
0.0039101 0.9875419 0.9508408
0.0039101 0.9874365 0.9522136
0.0039101 0.9872704 0.9542884
0.0039101 0.9869347 0.9582138
0.5285428 0.9860604 0.9673001
0.8657789 0.9848409 0.9783421
0.9841410 0.9841410 0.9841410
