sample/src/main/assets/lut/hlg2sdr/NBCU_FinalCut_DL_Adobe_v1.1.cube
TITLE "HLG-BT.2100 to SDR-BT.709 Display-Light Conversion 3D Look-Up-Table"
# site: https://github.com/digitaltvguy/NBCUniversal-UHD-HDR-SDR-Single-Master-Production-Workflow-Recommendation-LUTs/tree/main
# PLEASE DO NOT ALTER THE LINES BELOW
# 
# © 2020 NBCUniversal, LLC - Please do not remove this line
#
# Built using tools from and in collaboration with Cromorama and Nick Shaw - the creators of ORION-CONVERT
#
# MaxRGB 2-stage highlight compression knee
#
# Parameters designed by Chris Seeger, NBCU Advanced Technology (chris.seeger@nbcuni.com)
# In collaboration with Michael Drazin, NBCU Sports Group (michael.drazin@nbcuni.com)
#
# 75% HLG maps to 95% SDR (before highlight compression)
# Highlight compression from 95% to 109% SDR
# Stage 1 Pre-rolled-off HDR highlights
# Stage 2 Post-Rolled off converted SDR highlights
#
# Sophisticated Highlight Knee REQUIRES the use of devices using Tetrehedral Interpolation
#
# Display-Light Conversion (absolute chromaticity is preserved from input to output)
# Display-Light Conversion preserves original artistic intent
#
# No Matrix Compensation (so make sure your device is using the correct matrix)
#
# Type III LUT - Full Range Processing for Narrow Range Signals
LUT_3D_SIZE 9
# 2021-04-26
# Input and Output values have been changed from narrow range encoding to extended full range encoding
# According to formula Full range value = (-16 + (1023*NarrowRangeValue)/4)/219
# Narrow range filename was 3-NBCU_HLG2SDR_DL_v1.1.cube
DOMAIN_MIN -0.0730594 -0.0730594 -0.0730594
DOMAIN_MAX 1.09475 1.09475 1.09475
-0.0684931 -0.0684931 -0.0684931
0.109266 -0.0684931 -0.0684931
0.267758 -0.0684931 -0.0684931
0.450727 -0.0684931 -0.0684931
0.632458 -0.0684931 -0.0684931
0.869772 -0.0684931 -0.0684931
1.02692 -0.0684931 -0.0684931
1.07826 -0.0684931 -0.0684931
1.09018 -0.0684931 -0.0684931
-0.0684931 0.0827738 -0.0684931
0.0856551 0.0814888 -0.0684931
0.272605 0.0171311 -0.0684931
0.453283 -0.0684931 -0.0684931
0.63424 -0.0684931 -0.0684931
0.870743 -0.0684931 -0.0684931
1.02711 -0.0684931 -0.0684931
1.07833 -0.0684931 -0.0684931
1.09018 -0.0684931 -0.0684931
-0.0684931 0.250597 -0.0684931
-0.0684931 0.249866 -0.0684931
0.252173 0.245066 -0.0684931
0.45153 0.228624 -0.0684931
0.636276 0.188128 -0.0684931
0.872997 -0.0684931 -0.0684931
1.02769 -0.0684931 -0.0684931
1.07859 -0.0684931 -0.0684931
1.09018 -0.0684931 -0.0684931
-0.0684931 0.417496 -0.0684931
-0.0684931 0.417049 -0.0684931
0.0653562 0.414823 -0.0684931
0.419659 0.408549 -0.0684931
0.625491 0.395362 -0.0684931
0.87193 0.35705 -0.0684931
1.02822 0.166363 -0.0684931
1.07893 -0.0684931 -0.0684931
1.09018 -0.0684931 -0.0684931
-0.0684931 0.584673 -0.0684931
-0.0684931 0.584353 -0.0684931
-0.0684931 0.582906 -0.0684931
0.321458 0.579289 -0.0684931
0.587535 0.57226 -0.0684931
0.860869 0.551902 -0.0684931
1.0278 0.401983 -0.0684931
1.07908 0.260415 -0.0684931
1.09018 0.188454 -0.0684931
-0.0684931 0.809689 -0.0684931
-0.0684931 0.809456 -0.0684931
-0.0684931 0.808466 -0.0684931
-0.0684931 0.806197 -0.0684931
0.458353 0.802123 -0.0684931
0.81354 0.792581 -0.0684931
1.02419 0.623796 -0.0684931
1.07849 0.480729 -0.0684931
1.09018 0.427389 -0.0684931
-0.0684931 1.00342 -0.0684931
-0.0684931 1.00337 -0.0684931
-0.0684931 1.00319 -0.0684931
-0.0684931 1.0028 -0.0684931
-0.0684931 1.00214 -0.0684931
0.507109 1.00069 -0.0684931
1.0049 0.979151 -0.0684931
1.07414 0.768369 -0.0684931
1.09018 0.699045 -0.0684931
-0.0684931 1.06348 -0.0684931
-0.0684931 1.06346 -0.0684931
-0.0684931 1.06339 -0.0684931
-0.0684931 1.06325 -0.0684931
-0.0684931 1.06301 -0.0684931
-0.0684931 1.06252 -0.0684931
0.740321 1.06116 -0.0684931
1.0644 1.03717 -0.0684931
1.0845 0.938578 -0.0684931
-0.0684931 1.07961 -0.0684931
-0.0684931 1.0796 -0.0684931
-0.0684931 1.07955 -0.0684931
-0.0684931 1.07945 -0.0684931
-0.0684931 1.07928 -0.0684931
-0.0684931 1.07894 -0.0684931
0.615517 1.07803 -0.0684931
0.972298 1.07671 -0.0684931
1.08039 1.05277 -0.0684931
-0.0684931 -0.0684931 0.0884868
0.103845 -0.0684931 0.0810569
0.268284 -0.0684931 0.0876451
0.450834 -0.0684931 0.0848856
0.632502 -0.0684931 0.0633541
0.869788 -0.0684931 -0.0684931
1.02692 -0.0684931 -0.0684931
1.07826 -0.0684931 -0.0684931
1.09018 -0.0684931 -0.0684931
-0.0684931 0.0843223 0.0779987
0.081785 0.081785 0.081785
0.272338 0.00693071 0.0841859
0.453229 -0.0684931 0.0760244
0.634226 -0.0684931 0.0429692
0.870743 -0.0684931 -0.0684931
1.02711 -0.0684931 -0.0684931
1.07833 -0.0684931 -0.0684931
1.09018 -0.0684931 -0.0684931
-0.0684931 0.250853 0.0514563
-0.0684931 0.250082 0.048246
0.250885 0.245164 0.0277761
0.451125 0.228578 -0.0559956
0.6361 0.187906 -0.0684931
0.872943 -0.0684931 -0.0684931
1.02769 -0.0684931 -0.0684931
1.07859 -0.0684931 -0.0684931
1.09018 -0.0684931 -0.0684931
-0.0684931 0.417642 -0.0684931
-0.0684931 0.417186 -0.0684931
0.0508962 0.414929 -0.0684931
0.418886 0.408608 -0.0684931
0.625129 0.39537 -0.0684931
0.871802 0.357002 -0.0684931
1.02821 0.166098 -0.0684931
1.07892 -0.0684931 -0.0684931
1.09018 -0.0684931 -0.0684931
-0.0684931 0.584776 -0.0684931
-0.0684931 0.584452 -0.0684931
-0.0684931 0.582993 -0.0684931
0.320003 0.579356 -0.0684931
0.586983 0.572302 -0.0684931
0.860655 0.551941 -0.0684931
1.02778 0.401967 -0.0684931
1.07907 0.260334 -0.0684931
1.09018 0.188323 -0.0684931
-0.0684931 0.809762 -0.0684931
-0.0684931 0.809528 -0.0684931
-0.0684931 0.808533 -0.0684931
-0.0684931 0.806256 -0.0684931
0.457349 0.80217 -0.0684931
0.813141 0.792612 -0.0684931
1.02416 0.62386 -0.0684931
1.07848 0.480737 -0.0684931
1.09018 0.427382 -0.0684931
-0.0684931 1.00343 -0.0684931
-0.0684931 1.00339 -0.0684931
-0.0684931 1.0032 -0.0684931
-0.0684931 1.00281 -0.0684931
-0.0684931 1.00215 -0.0684931
0.506381 1.0007 -0.0684931
1.00483 0.979327 -0.0684931
1.07412 0.768441 -0.0684931
1.09018 0.699093 -0.0684931
-0.0684931 1.06349 -0.0684931
-0.0684931 1.06347 -0.0684931
-0.0684931 1.0634 -0.0684931
-0.0684931 1.06325 -0.0684931
-0.0684931 1.06302 -0.0684931
-0.0684931 1.06252 -0.0684931
0.740018 1.06117 -0.0684931
1.06437 1.0373 -0.0684931
1.08448 0.938672 -0.0684931
-0.0684931 1.07962 -0.0684931
-0.0684931 1.0796 -0.0684931
-0.0684931 1.07955 -0.0684931
-0.0684931 1.07945 -0.0684931
-0.0684931 1.07929 -0.0684931
-0.0684931 1.07894 -0.0684931
0.615171 1.07803 -0.0684931
0.972123 1.07671 -0.0684931
1.08037 1.05289 -0.0684931
-0.0684931 -0.0684931 0.199835
0.0830254 -0.0684931 0.179667
0.269371 -0.0684931 0.228332
0.451094 -0.0684931 0.246441
0.632621 -0.0684931 0.255967
0.869837 -0.0684931 0.258135
1.02693 -0.0684931 0.202541
1.07826 -0.0684931 0.147867
1.09018 -0.0684931 0.123642
-0.0684931 0.0873233 0.212531
0.0586383 0.0820756 0.22016
0.270846 -0.0290763 0.235594
0.452893 -0.0684931 0.248234
0.634122 -0.0684931 0.255787
0.870726 -0.0684931 0.256627
1.02711 -0.0684931 0.200286
1.07834 -0.0684931 0.145186
1.09018 -0.0684931 0.120587
-0.0684931 0.251793 0.240545
-0.0684931 0.250874 0.24174
0.245515 0.245515 0.245515
0.449449 0.228371 0.250043
0.635367 0.187 0.252849
0.872717 -0.0684931 0.249642
1.02767 -0.0684931 0.190658
1.07858 -0.0684931 0.133545
1.09018 -0.0684931 0.106967
-0.0684931 0.418205 0.241156
-0.0684931 0.417716 0.241277
-0.0684931 0.41534 0.241571
0.415748 0.408835 0.241402
0.623664 0.395392 0.239716
0.871285 0.356804 0.231354
1.02815 0.16503 0.167729
1.07891 -0.0684931 0.103492
1.09018 -0.0684931 0.0662704
-0.0684931 0.585178 0.217146
-0.0684931 0.584841 0.216787
-0.0684931 0.583337 0.215273
0.314069 0.579619 0.211872
0.58476 0.572467 0.205882
0.859793 0.552092 0.190973
1.02768 0.401899 0.116033
1.07904 0.26001 -0.0652651
1.09018 0.187796 -0.0684931
-0.0684931 0.810052 0.0949673
-0.0684931 0.809814 0.0926787
-0.0684931 0.808801 0.0825208
-0.0684931 0.80649 0.0529307
0.453296 0.80236 -0.0684931
0.811541 0.792732 -0.0684931
1.024 0.624116 -0.0684931
1.07844 0.480769 -0.0684931
1.09018 0.427355 -0.0684931
-0.0684931 1.00349 -0.0684931
-0.0684931 1.00344 -0.0684931
-0.0684931 1.00326 -0.0684931
-0.0684931 1.00286 -0.0684931
-0.0684931 1.00219 -0.0684931
0.503456 1.00074 -0.0684931
1.00453 0.98003 -0.0684931
1.07405 0.768729 -0.0684931
1.09018 0.699286 -0.0684931
-0.0684931 1.06351 -0.0684931
-0.0684931 1.06349 -0.0684931
-0.0684931 1.06342 -0.0684931
-0.0684931 1.06327 -0.0684931
-0.0684931 1.06304 -0.0684931
-0.0684931 1.06254 -0.0684931
0.738804 1.06118 -0.0684931
1.06425 1.03785 -0.0684931
1.08441 0.939048 -0.0684931
-0.0684931 1.07963 -0.0684931
-0.0684931 1.07962 -0.0684931
-0.0684931 1.07957 -0.0684931
-0.0684931 1.07947 -0.0684931
-0.0684931 1.0793 -0.0684931
-0.0684931 1.07896 -0.0684931
0.613787 1.07804 -0.0684931
0.971419 1.07672 -0.0684931
1.08029 1.05337 -0.0684931
-0.0684931 -0.0684931 0.312055
0.0576429 -0.0684931 0.330074
0.268209 -0.0684931 0.360663
0.450912 -0.0684931 0.385286
0.632606 -0.0684931 0.402998
0.869861 -0.0684931 0.415814
1.02694 -0.0684931 0.350204
1.07827 -0.0684931 0.290061
1.09018 -0.0684931 0.267334
-0.0684931 0.0880078 0.345473
-0.0684931 0.0802048 0.352397
0.266165 -0.0472959 0.370422
0.451695 -0.0684931 0.38956
0.633696 -0.0684931 0.404929
0.870626 -0.0684931 0.416172
1.02711 -0.0684931 0.349589
1.07834 -0.0684931 0.28926
1.09018 -0.0684931 0.266498
-0.0684931 0.253333 0.381945
-0.0684931 0.252166 0.383944
0.233667 0.246037 0.390736
0.445824 0.22786 0.400568
0.633763 0.185109 0.410243
0.872214 -0.0684931 0.416896
1.02762 -0.0684931 0.347008
1.07857 -0.0684931 0.285975
1.09018 -0.0684931 0.263078
-0.0684931 0.419253 0.401622
-0.0684931 0.418702 0.402339
-0.0684931 0.416103 0.404959
0.409245 0.409245 0.409245
0.620647 0.395409 0.413952
0.870211 0.356393 0.415863
1.02804 0.162851 0.341279
1.07888 -0.0684931 0.27899
1.09018 -0.0684931 0.255841
-0.0684931 0.585953 0.40639
-0.0684931 0.585593 0.406635
-0.0684931 0.583999 0.40754
0.3016 0.580125 0.409018
0.58023 0.572781 0.410545
0.858027 0.552379 0.409906
1.02749 0.401763 0.331263
1.07899 0.259359 0.267355
1.09018 0.186733 0.243854
-0.0684931 0.810622 0.391125
-0.0684931 0.810375 0.391068
-0.0684931 0.809326 0.390812
-0.0684931 0.806949 0.390177
0.444997 0.802732 0.388941
0.808311 0.792966 0.385822
1.02369 0.624631 0.307395
1.07835 0.480832 0.240958
1.09018 0.4273 0.216767
-0.0684931 1.00359 0.25496
-0.0684931 1.00355 0.254601
-0.0684931 1.00336 0.25315
-0.0684931 1.00296 0.25017
-0.0684931 1.00228 0.245486
0.497523 1.00081 0.235986
1.00393 0.981443 0.206863
1.0739 0.769305 0.129571
1.09008 0.699673 0.0946518
-0.0684931 1.06355 -0.0684931
-0.0684931 1.06353 -0.0684931
-0.0684931 1.06346 -0.0684931
-0.0684931 1.06331 -0.0684931
-0.0684931 1.06307 -0.0684931
-0.0684931 1.06257 -0.0684931
0.736367 1.06121 -0.0684931
1.06402 1.03894 -0.0684931
1.08428 0.939802 -0.0684931
-0.0684931 1.07966 -0.0684931
-0.0684931 1.07965 -0.0684931
-0.0684931 1.0796 -0.0684931
-0.0684931 1.07949 -0.0684931
-0.0684931 1.07933 -0.0684931
-0.0684931 1.07898 -0.0684931
0.611003 1.07806 -0.0684931
0.970008 1.07673 -0.0684931
1.08012 1.05432 -0.0684931
-0.0684931 -0.0684931 0.459816
-0.0684931 -0.0684931 0.468858
0.261329 -0.0684931 0.492834
0.449208 -0.0684931 0.51911
0.63201 -0.0684931 0.541244
0.869723 -0.0684931 0.559965
1.02693 -0.0684931 0.477902
1.07827 -0.0684931 0.403723
1.09018 -0.0684931 0.376355
-0.0684931 0.0843919 0.47964
-0.0684931 0.0738781 0.485412
0.255754 -0.0647603 0.502807
0.448776 -0.0684931 0.524543
0.632561 -0.0684931 0.544289
0.870315 -0.0684931 0.561261
1.02708 -0.0684931 0.477919
1.07833 -0.0684931 0.403439
1.09018 -0.0684931 0.376012
-0.0684931 0.254979 0.516737
-0.0684931 0.253517 0.51911
0.212633 0.246435 0.527431
0.439725 0.22687 0.54022
0.631028 0.18207 0.553871
0.871334 -0.0684931 0.565706
1.02754 -0.0684931 0.477913
1.07855 -0.0684931 0.402271
1.09018 -0.0684931 0.374614
-0.0684931 0.420649 0.545744
-0.0684931 0.420012 0.546791
-0.0684931 0.41711 0.550698
0.398883 0.409763 0.55741
0.615895 0.395366 0.565462
0.868499 0.355736 0.572067
1.02786 0.159467 0.477604
1.07883 -0.0684931 0.399787
1.09018 -0.0684931 0.371687
-0.0684931 0.587048 0.562787
-0.0684931 0.586654 0.563298
-0.0684931 0.584933 0.565251
0.281098 0.580835 0.568762
0.573215 0.573215 0.573215
0.855271 0.552774 0.577407
1.02719 0.401554 0.476555
1.07891 0.25837 0.395692
1.09018 0.185111 0.366964
-0.0684931 0.811451 0.569403
-0.0684931 0.81119 0.569587
-0.0684931 0.810089 0.570294
-0.0684931 0.807617 0.571573
0.432009 0.803271 0.573191
0.803379 0.793304 0.57539
1.02321 0.625407 0.473112
1.07822 0.480927 0.386854
1.09018 0.427217 0.357025
-0.0684931 1.00376 0.466138
-0.0684931 1.00371 0.466134
-0.0684931 1.00352 0.466117
-0.0684931 1.0031 0.466071
-0.0684931 1.00242 0.465975
0.488397 1.00092 0.465714
1.003 0.983579 0.458695
1.07368 0.770176 0.360279
1.08994 0.700257 0.328146
-0.0684931 1.06361 0.340489
-0.0684931 1.06359 0.34036
-0.0684931 1.06352 0.339842
-0.0684931 1.06337 0.338792
-0.0684931 1.06313 0.337181
-0.0684931 1.06262 0.334049
0.732678 1.06125 0.32638
1.06367 1.04058 0.310665
1.08407 0.940941 0.27615
-0.0684931 1.07971 0.282832
-0.0684931 1.07969 0.282647
-0.0684931 1.07964 0.281904
-0.0684931 1.07954 0.280398
-0.0684931 1.07937 0.278085
-0.0684931 1.07902 0.273585
0.606781 1.07809 0.26251
0.96788 1.07676 0.247653
1.07987 1.05577 0.234642
-0.0684931 -0.0684931 0.647621
-0.0684931 -0.0684931 0.653349
0.23754 -0.0684931 0.671825
0.442525 -0.0684931 0.697081
0.629337 -0.0684931 0.72179
0.868956 -0.0684931 0.745001
1.02688 -0.0684931 0.637917
1.07826 -0.0684931 0.542896
1.09018 -0.0684931 0.508309
-0.0684931 0.0694013 0.661095
-0.0684931 0.0510395 0.665647
0.226769 -0.0684931 0.680938
0.440398 -0.0684931 0.703044
0.629059 -0.0684931 0.725642
0.86926 -0.0684931 0.747105
1.02699 -0.0684931 0.638447
1.07832 -0.0684931 0.542982
1.09018 -0.0684931 0.508299
-0.0684931 0.256536 0.695343
-0.0684931 0.254673 0.697855
0.156646 0.246211 0.706936
0.426331 0.22439 0.721692
0.624948 0.175741 0.738498
0.869307 -0.0684931 0.754748
1.02734 -0.0684931 0.640511
1.07851 -0.0684931 0.543311
1.09018 -0.0684931 0.508249
-0.0684931 0.422766 0.730405
-0.0684931 0.421995 0.731719
-0.0684931 0.418601 0.736682
0.377401 0.410442 0.745443
0.60631 0.395083 0.756399
0.864979 0.354379 0.76734
1.02748 0.152735 0.644448
1.07873 -0.0684931 0.543903
1.09018 -0.0684931 0.508097
-0.0684931 0.588892 0.757072
-0.0684931 0.58844 0.757812
-0.0684931 0.5865 0.760666
0.23461 0.582016 0.765923
0.559382 0.57391 0.772872
0.849764 0.553386 0.781546
1.0266 0.401149 0.650081
1.07875 0.256483 0.544663
1.09018 0.181993 0.507757
-0.0684931 0.812919 0.779618
-0.0684931 0.812635 0.779988
-0.0684931 0.811442 0.781429
-0.0684931 0.808797 0.784152
0.405773 0.804221 0.787883
0.793889 0.793889 0.793889
1.02229 0.626874 0.660393
1.07796 0.481105 0.545792
1.09018 0.427059 0.506819
-0.0684931 1.00405 0.675725
-0.0684931 1.004 0.67589
-0.0684931 1.0038 0.676549
-0.0684931 1.00337 0.677865
-0.0684931 1.00266 0.679842
0.470565 1.00113 0.683547
1.00123 0.987622 0.685708
1.07325 0.77182 0.54755
1.08967 0.701357 0.503508
-0.0684931 1.06373 0.551167
-0.0684931 1.06371 0.551205
-0.0684931 1.06363 0.551356
-0.0684931 1.06348 0.551657
-0.0684931 1.06323 0.55211
-0.0684931 1.06272 0.552954
0.725683 1.06132 0.554864
1.063 1.04369 0.548925
1.08367 0.943089 0.497618
-0.0684931 1.07979 0.501462
-0.0684931 1.07978 0.501467
-0.0684931 1.07972 0.501482
-0.0684931 1.07962 0.501513
-0.0684931 1.07944 0.501555
-0.0684931 1.07909 0.501625
0.59875 1.07814 0.501741
0.96387 1.0768 0.501808
1.0794 1.05849 0.493643
-0.0684931 -0.0684931 0.9134
-0.0684931 -0.0684931 0.91553
0.107392 -0.0684931 0.922952
0.395571 -0.0684931 0.934182
0.580825 -0.0684931 0.945925
0.804842 -0.0684931 0.960007
1.02652 -0.0684931 0.880651
1.07818 -0.0684931 0.750408
1.09018 -0.0684931 0.70367
-0.0684931 -0.0649752 0.918548
-0.0684931 -0.0684931 0.920391
0.0341305 -0.0684931 0.926905
0.389845 -0.0684931 0.937009
0.578 -0.0684931 0.947851
0.803337 -0.0684931 0.961154
1.02658 -0.0684931 0.881747
1.07822 -0.0684931 0.750864
1.09018 -0.0684931 0.703979
-0.0684931 0.243567 0.933566
-0.0684931 0.240948 0.93474
-0.0684931 0.229766 0.939037
0.363635 0.203401 0.946161
0.56537 0.147201 0.95439
0.796689 -0.0684931 0.965235
1.0267 -0.0684931 0.886092
1.07835 -0.0684931 0.752679
1.09018 -0.0684931 0.705209
-0.0684931 0.398104 0.950932
-0.0684931 0.396857 0.951581
-0.0684931 0.391703 0.954039
0.292663 0.380614 0.958381
0.534704 0.362004 0.963806
0.780898 0.32012 0.971605
1.02646 0.135098 0.894682
1.07847 -0.0684931 0.756296
1.09018 -0.0684931 0.70766
-0.0684931 0.54367 0.965117
-0.0684931 0.542871 0.965488
-0.0684931 0.539609 0.966916
-0.0684931 0.532773 0.969545
0.475897 0.521761 0.973018
0.752235 0.498852 0.978367
1.02512 0.400164 0.907565
1.07835 0.252042 0.761736
1.09018 0.174512 0.71134
-0.0684931 0.73374 0.978694
-0.0684931 0.733211 0.978886
-0.0684931 0.731069 0.979635
-0.0684931 0.72666 0.981056
0.297733 0.719739 0.983018
0.684706 0.705877 0.986229
1.02008 0.63025 0.932432
1.07736 0.481506 0.772124
1.09018 0.42669 0.718325
-0.0684931 1.00467 0.963725
-0.0684931 1.00462 0.964055
-0.0684931 1.0044 0.965375
-0.0684931 1.00394 0.96802
-0.0684931 1.00318 0.972011
0.425901 1.00156 0.979545
0.99698 0.99698 0.99698
1.07224 0.775601 0.797799
1.08905 0.70388 0.735245
-0.0684931 1.06398 0.814982
-0.0684931 1.06396 0.815139
-0.0684931 1.06388 0.81577
-0.0684931 1.06372 0.817036
-0.0684931 1.06346 0.818948
-0.0684931 1.06292 0.822567
0.709428 1.06147 0.830952
1.06144 1.05086 0.834405
1.08275 0.948026 0.758452
-0.0684931 1.07997 0.758022
-0.0684931 1.07996 0.758134
-0.0684931 1.0799 0.758586
-0.0684931 1.07979 0.759492
-0.0684931 1.07961 0.760861
-0.0684931 1.07924 0.763449
0.579932 1.07827 0.769434
0.954675 1.07689 0.7767
1.07829 1.06477 0.772298
-0.0684931 -0.0684931 1.01127
-0.0684931 -0.0684931 1.01199
-0.0684931 -0.0684931 1.01465
0.302792 -0.0684931 1.0191
0.486984 -0.0684931 1.02431
0.690093 -0.0684931 1.03129
0.981171 -0.0684931 1.04092
1.07799 -0.0684931 0.925016
1.09018 -0.0684931 0.867152
-0.0684931 -0.0684931 1.01304
-0.0684931 -0.0684931 1.01371
-0.0684931 -0.0684931 1.01616
0.295318 -0.0684931 1.02031
0.48347 -0.0684931 1.02522
0.688136 -0.0684931 1.03191
0.98013 -0.0684931 1.04125
1.07801 -0.0684931 0.925718
1.09018 -0.0684931 0.867666
-0.0684931 0.207131 1.01887
-0.0684931 0.204414 1.01936
-0.0684931 0.192907 1.02122
0.261559 0.165912 1.02446
0.46863 0.104552 1.02846
0.679994 -0.0684931 1.03415
0.975841 -0.0684931 1.04249
1.07808 -0.0684931 0.928526
1.09018 -0.0684931 0.869722
-0.0684931 0.346487 1.02683
-0.0684931 0.345212 1.02715
-0.0684931 0.340006 1.02838
0.157611 0.329053 1.0306
0.435083 0.311136 1.03348
0.662317 0.271722 1.03782
0.966714 0.10144 1.04465
1.07808 -0.0684931 0.93416
1.09018 -0.0684931 0.873847
-0.0684931 0.47258 1.03436
-0.0684931 0.471768 1.03457
-0.0684931 0.468477 1.03536
-0.0684931 0.461699 1.03683
0.372868 0.451023 1.03882
0.63255 0.429392 1.04197
0.951803 0.371071 1.04729
1.07781 0.246513 0.942715
1.09018 0.164872 0.880102
-0.0684931 0.634145 1.04255
-0.0684931 0.63361 1.04267
-0.0684931 0.631457 1.04312
-0.0684931 0.627071 1.04399
0.149054 0.620292 1.04521
0.565962 0.606996 1.04723
0.920519 0.574001 1.05091
1.07659 0.481977 0.959234
1.09018 0.426237 0.892119
-0.0684931 0.883754 1.05132
-0.0684931 0.883421 1.05138
-0.0684931 0.882085 1.05159
-0.0684931 0.879386 1.052
-0.0684931 0.875265 1.0526
0.313888 0.867342 1.05364
0.834344 0.848458 1.05567
1.07101 0.780144 1.00051
1.08828 0.706899 0.921608
-0.0684931 1.06426 1.02096
-0.0684931 1.06424 1.02119
-0.0684931 1.06415 1.02211
-0.0684931 1.06398 1.02397
-0.0684931 1.0637 1.02678
-0.0684931 1.06314 1.0321
0.689574 1.06164 1.04444
1.05951 1.05951 1.05951
1.08162 0.953951 0.962236
-0.0684931 1.08018 0.954855
-0.0684931 1.08016 0.955031
-0.0684931 1.0801 0.955735
-0.0684931 1.07998 0.957147
-0.0684931 1.07979 0.959281
-0.0684931 1.07941 0.963318
0.556624 1.0784 0.97266
0.943687 1.077 0.984013
1.07694 1.07231 0.986409
-0.0684931 -0.0684931 1.03578
-0.0684931 -0.0684931 1.03628
-0.0684931 -0.0684931 1.03815
0.257736 -0.0684931 1.04136
0.447029 -0.0684931 1.04525
0.644088 -0.0684931 1.05066
0.920895 -0.0684931 1.05844
1.07786 -0.0684931 1.00002
1.09018 -0.0684931 0.937134
-0.0684931 -0.0684931 1.03701
-0.0684931 -0.0684931 1.03748
-0.0684931 -0.0684931 1.03923
0.249214 -0.0684931 1.04225
0.443382 -0.0684931 1.04595
0.642071 -0.0684931 1.05115
0.919807 -0.0684931 1.05872
1.07787 -0.0684931 1.00082
1.09018 -0.0684931 0.937728
-0.0684931 0.191169 1.0412
-0.0684931 0.188449 1.04156
-0.0684931 0.176908 1.04294
0.209456 0.149567 1.04538
0.428071 0.0828284 1.04846
0.633748 -0.0684931 1.05295
0.915358 -0.0684931 1.05976
1.0779 -0.0684931 1.00402
1.09018 -0.0684931 0.940106
-0.0684931 0.32553 1.04721
-0.0684931 0.324279 1.04746
-0.0684931 0.31918 1.04841
-0.0666809 0.308487 1.05015
0.393641 0.291059 1.05244
0.615915 0.252798 1.05594
0.906011 0.0776734 1.06159
1.07785 -0.0684931 1.01046
1.09018 -0.0684931 0.944885
-0.0684931 0.444958 1.05318
-0.0684931 0.444163 1.05334
-0.0684931 0.440949 1.05398
-0.0684931 0.434346 1.05517
0.329225 0.42399 1.0568
0.586244 0.403108 1.05939
0.890963 0.347116 1.06386
1.07751 0.243554 1.02026
1.09018 0.159534 0.952147
-0.0684931 0.596839 1.05996
-0.0684931 0.596316 1.06005
-0.0684931 0.594214 1.06043
-0.0684931 0.589941 1.06116
-0.0684931 0.583357 1.06218
0.520352 0.570497 1.06389
0.85986 0.538785 1.06703
1.07617 0.482217 1.03923
1.09018 0.425998 0.966132
-0.0684931 0.829913 1.06761
-0.0684931 0.829587 1.06766
-0.0684931 0.828278 1.06784
-0.0684931 0.825638 1.0682
-0.0684931 0.821614 1.06872
0.26242 0.8139 1.06962
0.775468 0.795606 1.07141
1.05693 0.772694 1.07314
1.08787 0.708462 1.00054
-0.0684931 1.03084 1.07179
-0.0684931 1.0306 1.07182
-0.0684931 1.02966 1.07192
-0.0684931 1.02775 1.07213
-0.0684931 1.02486 1.07244
-0.0684931 1.01935 1.07298
0.643766 1.00647 1.07409
0.985518 0.990667 1.0752
1.08103 0.957024 1.048
-0.0684931 1.08027 1.03634
-0.0684931 1.08026 1.03654
-0.0684931 1.0802 1.03734
-0.0684931 1.08008 1.03894
-0.0684931 1.07988 1.04137
-0.0684931 1.07949 1.04595
0.544177 1.07847 1.05656
0.938004 1.07705 1.06946
1.07623 1.07623 1.07623
