sample/src/main/assets/lut/hlg2sdr/NBCU_FinalCut_DL_Adobe_v1.1.cube
TITLE "HLG-BT.2100 to SDR-BT.709 Display-Light Conversion 3D Look-Up-Table"
# site: https://github.com/digitaltvguy/NBCUniversal-UHD-HDR-SDR-Single-Master-Production-Workflow-Recommendation-LUTs/tree/main
# PLEASE DO NOT ALTER THE LINES BELOW
# 
# © 2020 NBCUniversal, LLC - Please do not remove this line
#
# Built using tools from and in collaboration with Cromorama and Nick Shaw - the creators of ORION-CONVERT
#
# MaxRGB 2-stage highlight compression knee
#
# Parameters designed by Chris Seeger, NBCU Advanced Technology (chris.seeger@nbcuni.com)
# In collaboration with Michael Drazin, NBCU Sports Group (michael.drazin@nbcuni.com)
#
# 75% HLG maps to 95% SDR (before highlight compression)
# Highlight compression from 95% to 109% SDR
# Stage 1 Pre-rolled-off HDR highlights
# Stage 2 Post-Rolled off converted SDR highlights
#
# Sophisticated Highlight Knee REQUIRES the use of devices using Tetrehedral Interpolation
#
# Display-Light Conversion (absolute chromaticity is preserved from input to output)
# Display-Light Conversion preserves original artistic intent
#
# No Matrix Compensation (so make sure your device is using the correct matrix)
#
# Type III LUT - Full Range Processing for Narrow Range Signals
LUT_3D_SIZE 33
# 2021-04-26
# Input and Output values have been changed from narrow range encoding to extended full range encoding
# According to formula Full range value = (-16 + (1023*NarrowRangeValue)/4)/219
# Narrow range filename was 3-NBCU_HLG2SDR_DL_v1.1.cube
DOMAIN_MIN -0.0730594 -0.0730594 -0.0730594
DOMAIN_MAX 1.09475 1.09475 1.09475
-0.0684931 -0.0684931 -0.0684931
0.0447452 -0.0684931 -0.0684931
0.0672105 -0.0684931 -0.0684931
0.081643 -0.0684931 -0.0684931
0.109266 -0.0684931 -0.0684931
0.129383 -0.0684931 -0.0684931
0.170013 -0.0684931 -0.0684931
0.220696 -0.0684931 -0.0684931
0.267758 -0.0684931 -0.0684931
0.313895 -0.0684931 -0.0684931
0.359662 -0.0684931 -0.0684931
0.405246 -0.0684931 -0.0684931
0.450727 -0.0684931 -0.0684931
0.496144 -0.0684931 -0.0684931
0.54152 -0.0684931 -0.0684931
0.586867 -0.0684931 -0.0684931
0.632458 -0.0684931 -0.0684931
0.682718 -0.0684931 -0.0684931
0.739705 -0.0684931 -0.0684931
0.804094 -0.0684931 -0.0684931
0.869772 -0.0684931 -0.0684931
0.922269 -0.0684931 -0.0684931
0.964391 -0.0684931 -0.0684931
0.998676 -0.0684931 -0.0684931
1.02692 -0.0684931 -0.0684931
1.04896 -0.0684931 -0.0684931
1.06268 -0.0684931 -0.0684931
1.07178 -0.0684931 -0.0684931
1.07826 -0.0684931 -0.0684931
1.0831 -0.0684931 -0.0684931
1.08685 -0.0684931 -0.0684931
1.08984 -0.0684931 -0.0684931
1.09018 -0.0684931 -0.0684931
-0.0684931 -0.0351239 -0.0684931
-0.0375262 -0.0411386 -0.0684931
0.0385694 -0.0423514 -0.0684931
0.0582419 -0.0430529 -0.0684931
0.0800242 -0.0420266 -0.0643739
0.133308 -0.0588743 -0.0684931
0.179592 -0.0684931 -0.0684931
0.22522 -0.0684931 -0.0684931
0.270656 -0.0684931 -0.0684931
0.316012 -0.0684931 -0.0684931
0.361328 -0.0684931 -0.0684931
0.406621 -0.0684931 -0.0684931
0.451899 -0.0684931 -0.0684931
0.497167 -0.0684931 -0.0684931
0.542429 -0.0684931 -0.0684931
0.587685 -0.0684931 -0.0684931
0.633203 -0.0684931 -0.0684931
0.683396 -0.0684931 -0.0684931
0.740321 -0.0684931 -0.0684931
0.804653 -0.0684931 -0.0684931
0.870159 -0.0684931 -0.0684931
0.922517 -0.0684931 -0.0684931
0.964554 -0.0684931 -0.0684931
0.998783 -0.0684931 -0.0684931
1.02699 -0.0684931 -0.0684931
1.04901 -0.0684931 -0.0684931
1.06271 -0.0684931 -0.0684931
1.07182 -0.0684931 -0.0684931
1.07829 -0.0684931 -0.0684931
1.08313 -0.0684931 -0.0684931
1.08687 -0.0684931 -0.0684931
1.08986 -0.0684931 -0.0684931
1.09018 -0.0684931 -0.0684931
-0.0684931 0.0321597 -0.0684931
-0.0441277 0.0179374 -0.0684931
0.0217414 0.00881614 -0.0678548
0.0395887 -0.0110301 -0.0561487
0.0900658 -0.0292045 -0.0684931
0.135507 -0.0451086 -0.0684931
0.18079 -0.0607328 -0.0684931
0.226042 -0.0684931 -0.0684931
0.271285 -0.0684931 -0.0684931
0.316524 -0.0684931 -0.0684931
0.36176 -0.0684931 -0.0684931
0.406996 -0.0684931 -0.0684931
0.45223 -0.0684931 -0.0684931
0.497465 -0.0684931 -0.0684931
0.542699 -0.0684931 -0.0684931
0.587933 -0.0684931 -0.0684931
0.633431 -0.0684931 -0.0684931
0.683607 -0.0684931 -0.0684931
0.740514 -0.0684931 -0.0684931
0.80483 -0.0684931 -0.0684931
0.870282 -0.0684931 -0.0684931
0.922597 -0.0684931 -0.0684931
0.964606 -0.0684931 -0.0684931
0.998818 -0.0684931 -0.0684931
1.02702 -0.0684931 -0.0684931
1.04903 -0.0684931 -0.0684931
1.06273 -0.0684931 -0.0684931
1.07183 -0.0684931 -0.0684931
1.0783 -0.0684931 -0.0684931
1.08313 -0.0684931 -0.0684931
1.08688 -0.0684931 -0.0684931
1.08987 -0.0684931 -0.0684931
1.09018 -0.0684931 -0.0684931
-0.0684931 0.0485644 -0.0684931
-0.046836 0.0393031 -0.0666139
-0.0229226 0.0406748 -0.0684931
0.0451702 0.0403509 -0.0684931
0.0913046 0.0356871 -0.0684931
0.136413 0.0119557 -0.0684931
0.181502 -0.0430164 -0.0684931
0.226625 -0.0635748 -0.0684931
0.271777 -0.0684931 -0.0684931
0.316949 -0.0684931 -0.0684931
0.362134 -0.0684931 -0.0684931
0.407329 -0.0684931 -0.0684931
0.452531 -0.0684931 -0.0684931
0.497739 -0.0684931 -0.0684931
0.54295 -0.0684931 -0.0684931
0.588165 -0.0684931 -0.0684931
0.633647 -0.0684931 -0.0684931
0.683807 -0.0684931 -0.0684931
0.740699 -0.0684931 -0.0684931
0.805001 -0.0684931 -0.0684931
0.870401 -0.0684931 -0.0684931
0.922675 -0.0684931 -0.0684931
0.964657 -0.0684931 -0.0684931
0.998853 -0.0684931 -0.0684931
1.02704 -0.0684931 -0.0684931
1.04904 -0.0684931 -0.0684931
1.06274 -0.0684931 -0.0684931
1.07184 -0.0684931 -0.0684931
1.07831 -0.0684931 -0.0684931
1.08314 -0.0684931 -0.0684931
1.08689 -0.0684931 -0.0684931
1.08988 -0.0684931 -0.0684931
1.09018 -0.0684931 -0.0684931
-0.0684931 0.0827738 -0.0684931
-0.0684931 0.083178 -0.0684931
-0.0595704 0.0830228 -0.0684931
-0.0303819 0.0827651 -0.0684931
0.0856551 0.0814888 -0.0684931
0.135333 0.0780655 -0.0684931
0.181746 0.0709926 -0.0684931
0.227313 0.0573207 -0.0684931
0.272605 0.0171311 -0.0684931
0.317802 -0.0615746 -0.0684931
0.362967 -0.0684931 -0.0684931
0.408124 -0.0684931 -0.0684931
0.453283 -0.0684931 -0.0684931
0.498447 -0.0684931 -0.0684931
0.543617 -0.0684931 -0.0684931
0.588794 -0.0684931 -0.0684931
0.63424 -0.0684931 -0.0684931
0.684364 -0.0684931 -0.0684931
0.74122 -0.0684931 -0.0684931
0.805485 -0.0684931 -0.0684931
0.870743 -0.0684931 -0.0684931
0.922899 -0.0684931 -0.0684931
0.964806 -0.0684931 -0.0684931
0.998953 -0.0684931 -0.0684931
1.02711 -0.0684931 -0.0684931
1.04909 -0.0684931 -0.0684931
1.06278 -0.0684931 -0.0684931
1.07187 -0.0684931 -0.0684931
1.07833 -0.0684931 -0.0684931
1.08317 -0.0684931 -0.0684931
1.08691 -0.0684931 -0.0684931
1.0899 -0.0684931 -0.0684931
1.09018 -0.0684931 -0.0684931
-0.0684931 0.125325 -0.0684931
-0.0684931 0.125058 -0.0684931
-0.0684931 0.124904 -0.0684931
-0.0684931 0.124723 -0.0684931
0.0590766 0.124025 -0.0684931
0.126994 0.122415 -0.0684931
0.178329 0.119376 -0.0684931
0.22602 0.114303 -0.0684931
0.272354 0.106384 -0.0684931
0.31809 0.0942236 -0.0684931
0.363541 0.074416 -0.0684931
0.408848 0.0231839 -0.0684931
0.454081 -0.0684931 -0.0684931
0.499276 -0.0684931 -0.0684931
0.544452 -0.0684931 -0.0684931
0.589619 -0.0684931 -0.0684931
0.635048 -0.0684931 -0.0684931
0.685148 -0.0684931 -0.0684931
0.741973 -0.0684931 -0.0684931
0.806202 -0.0684931 -0.0684931
0.871258 -0.0684931 -0.0684931
0.923242 -0.0684931 -0.0684931
0.965038 -0.0684931 -0.0684931
0.999111 -0.0684931 -0.0684931
1.02722 -0.0684931 -0.0684931
1.04917 -0.0684931 -0.0684931
1.06284 -0.0684931 -0.0684931
1.07192 -0.0684931 -0.0684931
1.07838 -0.0684931 -0.0684931
1.08321 -0.0684931 -0.0684931
1.08695 -0.0684931 -0.0684931
1.08993 -0.0684931 -0.0684931
1.09018 -0.0684931 -0.0684931
-0.0684931 0.167143 -0.0684931
-0.0684931 0.166838 -0.0684931
-0.0684931 0.166711 -0.0684931
-0.0684931 0.166573 -0.0684931
-0.0684931 0.166092 -0.0684931
0.105591 0.165088 -0.0684931
0.168619 0.163308 -0.0684931
0.220915 0.160457 -0.0684931
0.269635 0.156207 -0.0684931
0.316741 0.150165 -0.0684931
0.363019 0.141804 -0.0684931
0.408841 0.130299 -0.0684931
0.454399 0.114106 -0.0684931
0.499802 0.0893391 -0.0684931
0.54511 0.0296762 -0.0684931
0.59036 -0.0684931 -0.0684931
0.635838 -0.0684931 -0.0684931
0.685966 -0.0684931 -0.0684931
0.742803 -0.0684931 -0.0684931
0.807028 -0.0684931 -0.0684931
0.871869 -0.0684931 -0.0684931
0.923662 -0.0684931 -0.0684931
0.965328 -0.0684931 -0.0684931
0.999312 -0.0684931 -0.0684931
1.02736 -0.0684931 -0.0684931
1.04927 -0.0684931 -0.0684931
1.06292 -0.0684931 -0.0684931
1.07199 -0.0684931 -0.0684931
1.07844 -0.0684931 -0.0684931
1.08326 -0.0684931 -0.0684931
1.087 -0.0684931 -0.0684931
1.08998 -0.0684931 -0.0684931
1.09018 -0.0684931 -0.0684931
-0.0684931 0.208877 -0.0684931
-0.0684931 0.208597 -0.0684931
-0.0684931 0.208491 -0.0684931
-0.0684931 0.20838 -0.0684931
-0.0684931 0.208012 -0.0684931
0.0403981 0.20729 -0.0684931
0.149296 0.206073 -0.0684931
0.210365 0.20419 -0.0684931
0.263291 0.20145 -0.0684931
0.312832 0.197648 -0.0684931
0.36064 0.192549 -0.0684931
0.407468 0.18587 -0.0684931
0.453709 0.177236 -0.0684931
0.499581 0.166101 -0.0684931
0.545217 0.151572 -0.0684931
0.590697 0.131945 -0.0684931
0.636339 0.102697 -0.0684931
0.686592 -0.0238151 -0.0684931
0.74352 -0.0684931 -0.0684931
0.807807 -0.0684931 -0.0684931
0.872484 -0.0684931 -0.0684931
0.924106 -0.0684931 -0.0684931
0.965647 -0.0684931 -0.0684931
0.999541 -0.0684931 -0.0684931
1.02752 -0.0684931 -0.0684931
1.04939 -0.0684931 -0.0684931
1.06301 -0.0684931 -0.0684931
1.07207 -0.0684931 -0.0684931
1.07851 -0.0684931 -0.0684931
1.08332 -0.0684931 -0.0684931
1.08706 -0.0684931 -0.0684931
1.09003 -0.0684931 -0.0684931
1.09018 -0.0684931 -0.0684931
-0.0684931 0.250597 -0.0684931
-0.0684931 0.250348 -0.0684931
-0.0684931 0.250258 -0.0684931
-0.0684931 0.250165 -0.0684931
-0.0684931 0.249866 -0.0684931
-0.0684931 0.249303 -0.0684931
0.111643 0.24839 -0.0684931
0.192189 0.247018 -0.0684931
0.252173 0.245066 -0.0684931
0.305547 0.2424 -0.0684931
0.355748 0.238879 -0.0684931
0.404176 0.234346 -0.0684931
0.45153 0.228624 -0.0684931
0.498197 0.221494 -0.0684931
0.544411 0.212674 -0.0684931
0.590317 0.201776 -0.0684931
0.636276 0.188128 -0.0684931
0.686788 0.168753 -0.0684931
0.743925 0.137761 -0.0684931
0.808374 0.0686813 -0.0684931
0.872997 -0.0684931 -0.0684931
0.924514 -0.0684931 -0.0684931
0.96596 -0.0684931 -0.0684931
0.999776 -0.0684931 -0.0684931
1.02769 -0.0684931 -0.0684931
1.04952 -0.0684931 -0.0684931
1.06312 -0.0684931 -0.0684931
1.07216 -0.0684931 -0.0684931
1.07859 -0.0684931 -0.0684931
1.0834 -0.0684931 -0.0684931
1.08712 -0.0684931 -0.0684931
1.0901 -0.0684931 -0.0684931
1.09018 -0.0684931 -0.0684931
-0.0684931 0.292318 -0.0684931
-0.0684931 0.292097 -0.0684931
-0.0684931 0.292018 -0.0684931
-0.0684931 0.291939 -0.0684931
-0.0684931 0.291686 -0.0684931
-0.0684931 0.291224 -0.0684931
-0.0684931 0.290496 -0.0684931
0.161881 0.28943 -0.0684931
0.234728 0.287941 -0.0684931
0.294017 0.285939 -0.0684931
0.347725 0.283325 -0.0684931
0.398467 0.279997 -0.0684931
0.44744 0.275842 -0.0684931
0.49528 0.270736 -0.0684931
0.542364 0.264537 -0.0684931
0.588926 0.257069 -0.0684931
0.63539 0.248058 -0.0684931
0.686323 0.236016 -0.0684931
0.743817 0.218962 -0.0684931
0.808555 0.193552 -0.0684931
0.873303 0.149781 -0.0684931
0.924822 -0.0423068 -0.0684931
0.966229 -0.0684931 -0.0684931
0.999995 -0.0684931 -0.0684931
1.02787 -0.0684931 -0.0684931
1.04965 -0.0684931 -0.0684931
1.06323 -0.0684931 -0.0684931
1.07225 -0.0684931 -0.0684931
1.07868 -0.0684931 -0.0684931
1.08348 -0.0684931 -0.0684931
1.0872 -0.0684931 -0.0684931
1.09017 -0.0684931 -0.0684931
1.09018 -0.0684931 -0.0684931
-0.0684931 0.334041 -0.0684931
-0.0684931 0.333843 -0.0684931
-0.0684931 0.333774 -0.0684931
-0.0684931 0.333704 -0.0684931
-0.0684931 0.333486 -0.0684931
-0.0684931 0.333093 -0.0684931
-0.0684931 0.332488 -0.0684931
0.102873 0.331621 -0.0684931
0.208161 0.33043 -0.0684931
0.277079 0.32885 -0.0684931
0.335884 0.32681 -0.0684931
0.38985 0.324235 -0.0684931
0.441044 0.321047 -0.0684931
0.490493 0.317161 -0.0684931
0.53878 0.312486 -0.0684931
0.58626 0.30692 -0.0684931
0.63344 0.300301 -0.0684931
0.684985 0.291644 -0.0684931
0.743005 0.279795 -0.0684931
0.808185 0.263204 -0.0684931
0.873295 0.236915 -0.0684931
0.924966 0.193331 -0.0684931
0.966415 0.116923 -0.0684931
1.00017 -0.0684931 -0.0684931
1.02802 -0.0684931 -0.0684931
1.04978 -0.0684931 -0.0684931
1.06334 -0.0684931 -0.0684931
1.07235 -0.0684931 -0.0684931
1.07876 -0.0684931 -0.0684931
1.08356 -0.0684931 -0.0684931
1.08727 -0.0684931 -0.0684931
1.09018 -0.0684931 -0.0684931
1.09018 -0.0684931 -0.0684931
-0.0684931 0.375768 -0.0684931
-0.0684931 0.375589 -0.0684931
-0.0684931 0.375527 -0.0684931
-0.0684931 0.375465 -0.0684931
-0.0684931 0.375272 -0.0684931
-0.0684931 0.37493 -0.0684931
-0.0684931 0.374413 -0.0684931
-0.0684931 0.373683 -0.0684931
0.165577 0.372695 -0.0684931
0.252819 0.371402 -0.0684931
0.319319 0.369749 -0.0684931
0.377766 0.36768 -0.0684931
0.431939 0.365136 -0.0684931
0.483514 0.362054 -0.0684931
0.533384 0.35837 -0.0684931
0.582077 0.354012 -0.0684931
0.630208 0.348871 -0.0684931
0.682575 0.342216 -0.0684931
0.741315 0.333245 -0.0684931
0.807109 0.320982 -0.0684931
0.872871 0.301173 -0.0684931
0.924885 0.268203 -0.0684931
0.966481 0.221336 -0.0684931
1.00029 0.150684 -0.0684931
1.02814 -0.0684931 -0.0684931
1.04989 -0.0684931 -0.0684931
1.06344 -0.0684931 -0.0684931
1.07244 -0.0684931 -0.0684931
1.07885 -0.0684931 -0.0684931
1.08364 -0.0684931 -0.0684931
1.08735 -0.0684931 -0.0684931
1.09018 -0.0684931 -0.0684931
1.09018 -0.0684931 -0.0684931
-0.0684931 0.417496 -0.0684931
-0.0684931 0.417334 -0.0684931
-0.0684931 0.417278 -0.0684931
-0.0684931 0.417222 -0.0684931
-0.0684931 0.417049 -0.0684931
-0.0684931 0.416747 -0.0684931
-0.0684931 0.416294 -0.0684931
-0.0684931 0.415664 -0.0684931
0.0653562 0.414823 -0.0684931
0.217369 0.413733 -0.0684931
0.296634 0.412354 -0.0684931
0.361487 0.410642 -0.0684931
0.419659 0.408549 -0.0684931
0.474001 0.406029 -0.0684931
0.525902 0.403031 -0.0684931
0.576143 0.399503 -0.0684931
0.625491 0.395362 -0.0684931
0.678913 0.390035 -0.0684931
0.738582 0.382912 -0.0684931
0.80518 0.373295 -0.0684931
0.87193 0.35705 -0.0684931
0.924517 0.328376 -0.0684931
0.966389 0.289056 -0.0684931
1.00032 0.23803 -0.0684931
1.02822 0.166363 -0.0684931
1.04998 -0.0684931 -0.0684931
1.06353 -0.0684931 -0.0684931
1.07252 -0.0684931 -0.0684931
1.07893 -0.0684931 -0.0684931
1.08371 -0.0684931 -0.0684931
1.08742 -0.0684931 -0.0684931
1.09018 -0.0684931 -0.0684931
1.09018 -0.0684931 -0.0684931
-0.0684931 0.459227 -0.0684931
-0.0684931 0.459078 -0.0684931
-0.0684931 0.459028 -0.0684931
-0.0684931 0.458977 -0.0684931
-0.0684931 0.45882 -0.0684931
-0.0684931 0.458548 -0.0684931
-0.0684931 0.458146 -0.0684931
-0.0684931 0.457591 -0.0684931
-0.0684931 0.45686 -0.0684931
0.159505 0.455921 -0.0684931
0.265337 0.454743 -0.0684931
0.339949 0.453292 -0.0684931
0.403606 0.451529 -0.0684931
0.461559 0.449418 -0.0684931
0.516043 0.446918 -0.0684931
0.568225 0.443987 -0.0684931
0.619089 0.440562 -0.0684931
0.673825 0.436174 -0.0684931
0.734656 0.43034 -0.0684931
0.802263 0.422519 -0.0684931
0.870372 0.408626 -0.0684931
0.923804 0.382048 -0.0684931
0.966102 0.345733 -0.0684931
1.00025 0.300766 -0.0684931
1.02824 0.24535 -0.0684931
1.05004 0.176104 -0.0684931
1.06359 0.0887446 -0.0684931
1.07259 -0.0684931 -0.0684931
1.07899 -0.0684931 -0.0684931
1.08378 -0.0684931 -0.0684931
1.08748 -0.0684931 -0.0684931
1.09018 -0.0684931 -0.0684931
1.09018 -0.0684931 -0.0684931
-0.0684931 0.50096 -0.0684931
-0.0684931 0.500823 -0.0684931
-0.0684931 0.500776 -0.0684931
-0.0684931 0.500729 -0.0684931
-0.0684931 0.500586 -0.0684931
-0.0684931 0.500339 -0.0684931
-0.0684931 0.499977 -0.0684931
-0.0684931 0.499481 -0.0684931
-0.0684931 0.498834 -0.0684931
-0.0684931 0.498011 -0.0684931
0.219889 0.496986 -0.0684931
0.311409 0.495732 -0.0684931
0.382941 0.494218 -0.0684931
0.445689 0.492413 -0.0684931
0.503465 0.490286 -0.0684931
0.558068 0.487802 -0.0684931
0.610798 0.484909 -0.0684931
0.66714 0.481216 -0.0684931
0.729389 0.476326 -0.0684931
0.798232 0.469802 -0.0684931
0.868092 0.457683 -0.0684931
0.922685 0.432167 -0.0684931
0.965586 0.396996 -0.0684931
1.00004 0.354354 -0.0684931
1.02819 0.304407 -0.0684931
1.05005 0.248974 -0.0684931
1.06363 0.199734 -0.0684931
1.07264 0.152321 -0.0684931
1.07904 0.0966859 -0.0684931
1.08383 -0.0684931 -0.0684931
1.08754 -0.0684931 -0.0684931
1.09018 -0.0684931 -0.0684931
1.09018 -0.0684931 -0.0684931
-0.0684931 0.542694 -0.0684931
-0.0684931 0.542567 -0.0684931
-0.0684931 0.542524 -0.0684931
-0.0684931 0.542481 -0.0684931
-0.0684931 0.542349 -0.0684931
-0.0684931 0.542123 -0.0684931
-0.0684931 0.541792 -0.0684931
-0.0684931 0.541345 -0.0684931
-0.0684931 0.540764 -0.0684931
-0.0684931 0.540032 -0.0684931
0.140124 0.539126 -0.0684931
0.272543 0.538025 -0.0684931
0.356377 0.536703 -0.0684931
0.425714 0.535135 -0.0684931
0.487747 0.533295 -0.0684931
0.545376 0.531154 -0.0684931
0.600394 0.528668 -0.0684931
0.658681 0.525505 -0.0684931
0.722636 0.521331 -0.0684931
0.792961 0.515785 -0.0684931
0.864977 0.505168 -0.0684931
0.9211 0.480172 -0.0684931
0.964804 0.445162 -0.0684931
0.999679 0.40316 -0.0684931
1.02805 0.355288 -0.0684931
1.05002 0.304814 -0.0684931
1.06363 0.263679 -0.0684931
1.07266 0.229278 -0.0684931
1.07907 0.19895 -0.0684931
1.08386 0.170826 -0.0684931
1.08757 0.143243 -0.0684931
1.09018 0.114037 -0.0684931
1.09018 0.07814 -0.0684931
-0.0684931 0.584673 -0.0684931
-0.0684931 0.584555 -0.0684931
-0.0684931 0.584515 -0.0684931
-0.0684931 0.584475 -0.0684931
-0.0684931 0.584353 -0.0684931
-0.0684931 0.584144 -0.0684931
-0.0684931 0.58384 -0.0684931
-0.0684931 0.583432 -0.0684931
-0.0684931 0.582906 -0.0684931
-0.0684931 0.582247 -0.0684931
-0.0684931 0.581437 -0.0684931
0.214683 0.580458 -0.0684931
0.321458 0.579289 -0.0684931
0.400475 0.577908 -0.0684931
0.468203 0.576295 -0.0684931
0.529685 0.574425 -0.0684931
0.587535 0.57226 -0.0684931
0.648187 0.569514 -0.0684931
0.714191 0.565901 -0.0684931
0.786286 0.561116 -0.0684931
0.860869 0.551902 -0.0684931
0.918968 0.527163 -0.0684931
0.963712 0.49171 -0.0684931
0.999142 0.449391 -0.0684931
1.0278 0.401983 -0.0684931
1.04992 0.353453 -0.0684931
1.06359 0.315509 -0.0684931
1.07265 0.285356 -0.0684931
1.07908 0.260415 -0.0684931
1.08388 0.239116 -0.0684931
1.08759 0.220448 -0.0684931
1.09018 0.203725 -0.0684931
1.09018 0.188454 -0.0684931
-0.0684931 0.63097 -0.0684931
-0.0684931 0.63086 -0.0684931
-0.0684931 0.630822 -0.0684931
-0.0684931 0.630785 -0.0684931
-0.0684931 0.630672 -0.0684931
-0.0684931 0.63048 -0.0684931
-0.0684931 0.630202 -0.0684931
-0.0684931 0.629829 -0.0684931
-0.0684931 0.629352 -0.0684931
-0.0684931 0.628758 -0.0684931
-0.0684931 0.628033 -0.0684931
0.0476378 0.627161 -0.0684931
0.267694 0.626127 -0.0684931
0.364684 0.624911 -0.0684931
0.441333 0.623496 -0.0684931
0.508403 0.621861 -0.0684931
0.570184 0.619977 -0.0684931
0.634032 0.617593 -0.0684931
0.702754 0.614466 -0.0684931
0.77717 0.610339 -0.0684931
0.855016 0.602645 -0.0684931
0.915904 0.57812 -0.0684931
0.962108 0.541719 -0.0684931
0.998319 0.498327 -0.0684931
1.0274 0.450342 -0.0684931
1.04973 0.402255 -0.0684931
1.06349 0.365658 -0.0684931
1.07259 0.337409 -0.0684931
1.07905 0.314758 -0.0684931
1.08386 0.296051 -0.0684931
1.08759 0.280239 -0.0684931
1.09018 0.266624 -0.0684931
1.09018 0.254721 -0.0684931
-0.0684931 0.683479 -0.0684931
-0.0684931 0.683377 -0.0684931
-0.0684931 0.683342 -0.0684931
-0.0684931 0.683308 -0.0684931
-0.0684931 0.683204 -0.0684931
-0.0684931 0.683027 -0.0684931
-0.0684931 0.682772 -0.0684931
-0.0684931 0.682433 -0.0684931
-0.0684931 0.682002 -0.0684931
-0.0684931 0.681468 -0.0684931
-0.0684931 0.68082 -0.0684931
-0.0684931 0.680046 -0.0684931
0.157862 0.679132 -0.0684931
0.308629 0.678063 -0.0684931
0.40197 0.676825 -0.0684931
0.478084 0.675401 -0.0684931
0.545788 0.673765 -0.0684931
0.614243 0.671703 -0.0684931
0.686771 0.669007 -0.0684931
0.764372 0.665461 -0.0684931
0.84637 0.659468 -0.0684931
0.911378 0.635401 -0.0684931
0.959708 0.597553 -0.0684931
0.997054 0.552292 -0.0684931
1.02675 0.502749 -0.0684931
1.0494 0.453936 -0.0684931
1.0633 0.417519 -0.0684931
1.07247 0.389959 -0.0684931
1.07896 0.368281 -0.0684931
1.0838 0.350713 -0.0684931
1.08755 0.336137 -0.0684931
1.09018 0.323815 -0.0684931
1.09018 0.313237 -0.0684931
-0.0684931 0.742825 -0.0684931
-0.0684931 0.742731 -0.0684931
-0.0684931 0.742699 -0.0684931
-0.0684931 0.742667 -0.0684931
-0.0684931 0.742572 -0.0684931
-0.0684931 0.74241 -0.0684931
-0.0684931 0.742177 -0.0684931
-0.0684931 0.741869 -0.0684931
-0.0684931 0.74148 -0.0684931
-0.0684931 0.741 -0.0684931
-0.0684931 0.740421 -0.0684931
-0.0684931 0.739734 -0.0684931
-0.0684931 0.738927 -0.0684931
0.200693 0.737989 -0.0684931
0.340113 0.736907 -0.0684931
0.433304 0.735668 -0.0684931
0.510745 0.734251 -0.0684931
0.586231 0.73247 -0.0684931
0.664293 0.730152 -0.0684931
0.746379 0.727114 -0.0684931
0.833391 0.722802 -0.0684931
0.90466 0.700055 -0.0684931
0.956137 0.660311 -0.0684931
0.995142 0.612312 -0.0684931
1.02574 0.560177 -0.0684931
1.04885 0.509536 -0.0684931
1.06296 0.472353 -0.0684931
1.07224 0.444623 -0.0684931
1.07879 0.423102 -0.0684931
1.08367 0.405876 -0.0684931
1.08744 0.391749 -0.0684931
1.09018 0.379934 -0.0684931
1.09018 0.369895 -0.0684931
-0.0684931 0.809689 -0.0684931
-0.0684931 0.809602 -0.0684931
-0.0684931 0.809573 -0.0684931
-0.0684931 0.809544 -0.0684931
-0.0684931 0.809456 -0.0684931
-0.0684931 0.809308 -0.0684931
-0.0684931 0.809097 -0.0684931
-0.0684931 0.808817 -0.0684931
-0.0684931 0.808466 -0.0684931
-0.0684931 0.808035 -0.0684931
-0.0684931 0.807519 -0.0684931
-0.0684931 0.806909 -0.0684931
-0.0684931 0.806197 -0.0684931
-0.0684931 0.805373 -0.0684931
0.220467 0.804428 -0.0684931
0.36193 0.80335 -0.0684931
0.458353 0.802123 -0.0684931
0.545666 0.800587 -0.0684931
0.632284 0.798595 -0.0684931
0.720941 0.795996 -0.0684931
0.81354 0.792581 -0.0684931
0.894559 0.773303 -0.0684931
0.950813 0.731412 -0.0684931
0.992277 0.679692 -0.0684931
1.02419 0.623796 -0.0684931
1.04799 0.570175 -0.0684931
1.06241 0.531337 -0.0684931
1.07184 0.502715 -0.0684931
1.07849 0.480729 -0.0684931
1.08343 0.463291 -0.0684931
1.08724 0.449106 -0.0684931
1.09018 0.437329 -0.0684931
1.09018 0.427389 -0.0684931
-0.0684931 0.875923 -0.0684931
-0.0684931 0.875865 -0.0684931
-0.0684931 0.875845 -0.0684931
-0.0684931 0.875826 -0.0684931
-0.0684931 0.875766 -0.0684931
-0.0684931 0.875667 -0.0684931
-0.0684931 0.875525 -0.0684931
-0.0684931 0.875338 -0.0684931
-0.0684931 0.875103 -0.0684931
-0.0684931 0.874816 -0.0684931
-0.0684931 0.874474 -0.0684931
-0.0684931 0.874071 -0.0684931
-0.0684931 0.873602 -0.0684931
-0.0684931 0.87306 -0.0684931
-0.0684931 0.872439 -0.0684931
0.21442 0.871731 -0.0684931
0.369623 0.870925 -0.0684931
0.480424 0.869916 -0.0684931
0.581241 0.868603 -0.0684931
0.679825 0.866881 -0.0684931
0.780006 0.864602 -0.0684931
0.878979 0.856372 -0.0684931
0.942793 0.812697 -0.0684931
0.987987 0.756154 -0.0684931
1.02186 0.695092 -0.0684931
1.04667 0.637171 -0.0684931
1.06154 0.595739 -0.0684931
1.0712 0.565522 -0.0684931
1.07799 0.54251 -0.0684931
1.08302 0.524391 -0.0684931
1.08689 0.509745 -0.0684931
1.08997 0.497654 -0.0684931
1.09018 0.487497 -0.0684931
-0.0684931 0.928079 -0.0684931
-0.0684931 0.928041 -0.0684931
-0.0684931 0.928028 -0.0684931
-0.0684931 0.928016 -0.0684931
-0.0684931 0.927977 -0.0684931
-0.0684931 0.927913 -0.0684931
-0.0684931 0.927822 -0.0684931
-0.0684931 0.927703 -0.0684931
-0.0684931 0.927553 -0.0684931
-0.0684931 0.927372 -0.0684931
-0.0684931 0.927156 -0.0684931
-0.0684931 0.926904 -0.0684931
-0.0684931 0.926612 -0.0684931
-0.0684931 0.926276 -0.0684931
-0.0684931 0.925894 -0.0684931
-0.0684931 0.92546 -0.0684931
0.164504 0.92497 -0.0684931
0.365833 0.924359 -0.0684931
0.494235 0.923569 -0.0684931
0.607309 0.922542 -0.0684931
0.716416 0.921192 -0.0684931
0.826637 0.919404 -0.0684931
0.930434 0.906537 -0.0684931
0.981514 0.844039 -0.0684931
1.01836 0.776041 -0.0684931
