sample/src/main/assets/lut/hlg2sdr/NBCU_FinalCut_DL_Adobe_v1.1.cube
TITLE "HLG-BT.2100 to SDR-BT.709 Display-Light Conversion 3D Look-Up-Table"
# site: https://github.com/digitaltvguy/NBCUniversal-UHD-HDR-SDR-Single-Master-Production-Workflow-Recommendation-LUTs/tree/main
# PLEASE DO NOT ALTER THE LINES BELOW
# 
# © 2020 NBCUniversal, LLC - Please do not remove this line
#
# Built using tools from and in collaboration with Cromorama and Nick Shaw - the creators of ORION-CONVERT
#
# MaxRGB 2-stage highlight compression knee
#
# Parameters designed by Chris Seeger, NBCU Advanced Technology (chris.seeger@nbcuni.com)
# In collaboration with Michael Drazin, NBCU Sports Group (michael.drazin@nbcuni.com)
#
# 75% HLG maps to 95% SDR (before highlight compression)
# Highlight compression from 95% to 109% SDR
# Stage 1 Pre-rolled-off HDR highlights
# Stage 2 Post-Rolled off converted SDR highlights
#
# Sophisticated Highlight Knee REQUIRES the use of devices using Tetrehedral Interpolation
#
# Display-Light Conversion (absolute chromaticity is preserved from input to output)
# Display-Light Conversion preserves original artistic intent
#
# No Matrix Compensation (so make sure your device is using the correct matrix)
#
# Type III LUT - Full Range Processing for Narrow Range Signals
LUT_3D_SIZE 5
# 2021-04-26
# Input and Output values have been changed from narrow range encoding to extended full range encoding
# According to formula Full range value = (-16 + (1023*NarrowRangeValue)/4)/219
# Narrow range filename was 3-NBCU_HLG2SDR_DL_v1.1.cube
DOMAIN_MIN -0.0730594 -0.0730594 -0.0730594
DOMAIN_MAX 1.09475 1.09475 1.09475
-0.0684931 -0.0684931 -0.0684931
0.267758 -0.0684931 -0.0684931
0.632458 -0.0684931 -0.0684931
1.02692 -0.0684931 -0.0684931
1.09018 -0.0684931 -0.0684931
-0.0684931 0.250597 -0.0684931
0.252173 0.245066 -0.0684931
0.636276 0.188128 -0.0684931
1.02769 -0.0684931 -0.0684931
1.09018 -0.0684931 -0.0684931
-0.0684931 0.584673 -0.0684931
-0.0684931 0.582906 -0.0684931
0.587535 0.57226 -0.0684931
1.0278 0.401983 -0.0684931
1.09018 0.188454 -0.0684931
-0.0684931 1.00342 -0.0684931
-0.0684931 1.00319 -0.0684931
-0.0684931 1.00214 -0.0684931
1.0049 0.979151 -0.0684931
1.09018 0.699045 -0.0684931
-0.0684931 1.07961 -0.0684931
-0.0684931 1.07955 -0.0684931
-0.0684931 1.07928 -0.0684931
0.615517 1.07803 -0.0684931
1.08039 1.05277 -0.0684931
-0.0684931 -0.0684931 0.199835
0.269371 -0.0684931 0.228332
0.632621 -0.0684931 0.255967
1.02693 -0.0684931 0.202541
1.09018 -0.0684931 0.123642
-0.0684931 0.251793 0.240545
0.245515 0.245515 0.245515
0.635367 0.187 0.252849
1.02767 -0.0684931 0.190658
1.09018 -0.0684931 0.106967
-0.0684931 0.585178 0.217146
-0.0684931 0.583337 0.215273
0.58476 0.572467 0.205882
1.02768 0.401899 0.116033
1.09018 0.187796 -0.0684931
-0.0684931 1.00349 -0.0684931
-0.0684931 1.00326 -0.0684931
-0.0684931 1.00219 -0.0684931
1.00453 0.98003 -0.0684931
1.09018 0.699286 -0.0684931
-0.0684931 1.07963 -0.0684931
-0.0684931 1.07957 -0.0684931
-0.0684931 1.0793 -0.0684931
0.613787 1.07804 -0.0684931
1.08029 1.05337 -0.0684931
-0.0684931 -0.0684931 0.459816
0.261329 -0.0684931 0.492834
0.63201 -0.0684931 0.541244
1.02693 -0.0684931 0.477902
1.09018 -0.0684931 0.376355
-0.0684931 0.254979 0.516737
0.212633 0.246435 0.527431
0.631028 0.18207 0.553871
1.02754 -0.0684931 0.477913
1.09018 -0.0684931 0.374614
-0.0684931 0.587048 0.562787
-0.0684931 0.584933 0.565251
0.573215 0.573215 0.573215
1.02719 0.401554 0.476555
1.09018 0.185111 0.366964
-0.0684931 1.00376 0.466138
-0.0684931 1.00352 0.466117
-0.0684931 1.00242 0.465975
1.003 0.983579 0.458695
1.08994 0.700257 0.328146
-0.0684931 1.07971 0.282832
-0.0684931 1.07964 0.281904
-0.0684931 1.07937 0.278085
0.606781 1.07809 0.26251
1.07987 1.05577 0.234642
-0.0684931 -0.0684931 0.9134
0.107392 -0.0684931 0.922952
0.580825 -0.0684931 0.945925
1.02652 -0.0684931 0.880651
1.09018 -0.0684931 0.70367
-0.0684931 0.243567 0.933566
-0.0684931 0.229766 0.939037
0.56537 0.147201 0.95439
1.0267 -0.0684931 0.886092
1.09018 -0.0684931 0.705209
-0.0684931 0.54367 0.965117
-0.0684931 0.539609 0.966916
0.475897 0.521761 0.973018
1.02512 0.400164 0.907565
1.09018 0.174512 0.71134
-0.0684931 1.00467 0.963725
-0.0684931 1.0044 0.965375
-0.0684931 1.00318 0.972011
0.99698 0.99698 0.99698
1.08905 0.70388 0.735245
-0.0684931 1.07997 0.758022
-0.0684931 1.0799 0.758586
-0.0684931 1.07961 0.760861
0.579932 1.07827 0.769434
1.07829 1.06477 0.772298
-0.0684931 -0.0684931 1.03578
-0.0684931 -0.0684931 1.03815
0.447029 -0.0684931 1.04525
0.920895 -0.0684931 1.05844
1.09018 -0.0684931 0.937134
-0.0684931 0.191169 1.0412
-0.0684931 0.176908 1.04294
0.428071 0.0828284 1.04846
0.915358 -0.0684931 1.05976
1.09018 -0.0684931 0.940106
-0.0684931 0.444958 1.05318
-0.0684931 0.440949 1.05398
0.329225 0.42399 1.0568
0.890963 0.347116 1.06386
1.09018 0.159534 0.952147
-0.0684931 0.829913 1.06761
-0.0684931 0.828278 1.06784
-0.0684931 0.821614 1.06872
0.775468 0.795606 1.07141
1.08787 0.708462 1.00054
-0.0684931 1.08027 1.03634
-0.0684931 1.0802 1.03734
-0.0684931 1.07988 1.04137
0.544177 1.07847 1.05656
1.07623 1.07623 1.07623
