sample/src/main/assets/lut/hlg2sdr/NBCU_DaVinci_DL_VRT_v1.1.cube
TITLE "HLG-BT.2100 to SDR-BT.709 Display-Light Conversion 3D Look-Up-Table"
# site: https://github.com/digitaltvguy/NBCUniversal-UHD-HDR-SDR-Single-Master-Production-Workflow-Recommendation-LUTs/tree/main
# PLEASE DO NOT ALTER THE LINES BELOW
# 
# © 2020 NBCUniversal, LLC - Please do not remove this line
#
# Version 1.1 (fix for negative values)
#
# Built using tools from and in collaboration with Cromorama and Nick Shaw - the creators of ORION-CONVERT
#
# MaxRGB 2-stage highlight compression knee
#
# Parameters designed by Chris Seeger, NBCU Advanced Technology (chris.seeger@nbcuni.com)
# In collaboration with Michael Drazin, NBCU Sports Group (michael.drazin@nbcuni.com)
#
# 75% HLG maps to 95% SDR (before highlight compression)
# Highlight compression from 95% to 109% SDR
# Stage 1 Pre-rolled-off HDR highlights
# Stage 2 Post-Rolled off converted SDR highlights
#
# Sophisticated Highlight Knee REQUIRES the use of devices using Tetrehedral Interpolation
#
# Display-Light Conversion (absolute chromaticity is preserved from input to output)
# Display-Light Conversion preserves original artistic intent
#
# No Matrix Compensation (so make sure your device is using the correct matrix)
#
# Type III LUT - Full Range Processing for Narrow Range Signals
#
# Knee Method = MaxRGB
# RESOLVE 17 VIDEO RANGE TAGS
LUT_IN_VIDEO_RANGE
LUT_OUT_VIDEO_RANGE
LUT_3D_SIZE 33
0.0039101 0.0039101 0.0039101
0.1008766 0.0039101 0.0039101
0.1201138 0.0039101 0.0039101
0.1324724 0.0039101 0.0039101
0.1561262 0.0039101 0.0039101
0.1733527 0.0039101 0.0039101
0.2081441 0.0039101 0.0039101
0.2515443 0.0039101 0.0039101
0.2918434 0.0039101 0.0039101
0.3313511 0.0039101 0.0039101
0.3705415 0.0039101 0.0039101
0.4095752 0.0039101 0.0039101
0.4485207 0.0039101 0.0039101
0.4874118 0.0039101 0.0039101
0.5262673 0.0039101 0.0039101
0.5650980 0.0039101 0.0039101
0.6041378 0.0039101 0.0039101
0.6471761 0.0039101 0.0039101
0.6959741 0.0039101 0.0039101
0.7511109 0.0039101 0.0039101
0.8073511 0.0039101 0.0039101
0.8523044 0.0039101 0.0039101
0.8883740 0.0039101 0.0039101
0.9177320 0.0039101 0.0039101
0.9419178 0.0039101 0.0039101
0.9607907 0.0039101 0.0039101
0.9725357 0.0039101 0.0039101
0.9803341 0.0039101 0.0039101
0.9858809 0.0039101 0.0039101
0.9900249 0.0039101 0.0039101
0.9932368 0.0039101 0.0039101
0.9957985 0.0039101 0.0039101
0.9960899 0.0039101 0.0039101
0.0039101 0.0324843 0.0039101
0.0304272 0.0273339 0.0039101
0.0955883 0.0262954 0.0039101
0.1124339 0.0256947 0.0039101
0.1310862 0.0265735 0.0074374
0.1767137 0.0121467 0.0039101
0.2163464 0.0039101 0.0039101
0.2554181 0.0039101 0.0039101
0.2943252 0.0039101 0.0039101
0.3331640 0.0039101 0.0039101
0.3719682 0.0039101 0.0039101
0.4107525 0.0039101 0.0039101
0.4495243 0.0039101 0.0039101
0.4882879 0.0039101 0.0039101
0.5270456 0.0039101 0.0039101
0.5657990 0.0039101 0.0039101
0.6047757 0.0039101 0.0039101
0.6477569 0.0039101 0.0039101
0.6965018 0.0039101 0.0039101
0.7515897 0.0039101 0.0039101
0.8076825 0.0039101 0.0039101
0.8525174 0.0039101 0.0039101
0.8885131 0.0039101 0.0039101
0.9178243 0.0039101 0.0039101
0.9419797 0.0039101 0.0039101
0.9608337 0.0039101 0.0039101
0.9725692 0.0039101 0.0039101
0.9803618 0.0039101 0.0039101
0.9859051 0.0039101 0.0039101
0.9900466 0.0039101 0.0039101
0.9932566 0.0039101 0.0039101
0.9958169 0.0039101 0.0039101
0.9960899 0.0039101 0.0039101
0.0039101 0.0900996 0.0039101
0.0247743 0.0779210 0.0039101
0.0811784 0.0701104 0.0044567
0.0964611 0.0531160 0.0144807
0.1396849 0.0375531 0.0039101
0.1785960 0.0239344 0.0039101
0.2173724 0.0105553 0.0039101
0.2561224 0.0039101 0.0039101
0.2948638 0.0039101 0.0039101
0.3336018 0.0039101 0.0039101
0.3723380 0.0039101 0.0039101
0.4110734 0.0039101 0.0039101
0.4498081 0.0039101 0.0039101
0.4885425 0.0039101 0.0039101
0.5272766 0.0039101 0.0039101
0.5660107 0.0039101 0.0039101
0.6049709 0.0039101 0.0039101
0.6479368 0.0039101 0.0039101
0.6966671 0.0039101 0.0039101
0.7517411 0.0039101 0.0039101
0.8077880 0.0039101 0.0039101
0.8525858 0.0039101 0.0039101
0.8885581 0.0039101 0.0039101
0.9178542 0.0039101 0.0039101
0.9420000 0.0039101 0.0039101
0.9608479 0.0039101 0.0039101
0.9725803 0.0039101 0.0039101
0.9803710 0.0039101 0.0039101
0.9859130 0.0039101 0.0039101
0.9900537 0.0039101 0.0039101
0.9932632 0.0039101 0.0039101
0.9958230 0.0039101 0.0039101
0.9960899 0.0039101 0.0039101
0.0039101 0.1041470 0.0039101
0.0224552 0.0962165 0.0055193
0.0429324 0.0973911 0.0039101
0.1012406 0.0971138 0.0039101
0.1407457 0.0931201 0.0039101
0.1793722 0.0727988 0.0039101
0.2179818 0.0257259 0.0039101
0.2566213 0.0081217 0.0039101
0.2952851 0.0039101 0.0039101
0.3339659 0.0039101 0.0039101
0.3726583 0.0039101 0.0039101
0.4113591 0.0039101 0.0039101
0.4500660 0.0039101 0.0039101
0.4887774 0.0039101 0.0039101
0.5274923 0.0039101 0.0039101
0.5662100 0.0039101 0.0039101
0.6051561 0.0039101 0.0039101
0.6481085 0.0039101 0.0039101
0.6968257 0.0039101 0.0039101
0.7518872 0.0039101 0.0039101
0.8078902 0.0039101 0.0039101
0.8526522 0.0039101 0.0039101
0.8886020 0.0039101 0.0039101
0.9178836 0.0039101 0.0039101
0.9420198 0.0039101 0.0039101
0.9608618 0.0039101 0.0039101
0.9725909 0.0039101 0.0039101
0.9803801 0.0039101 0.0039101
0.9859208 0.0039101 0.0039101
0.9900608 0.0039101 0.0039101
0.9932697 0.0039101 0.0039101
0.9958292 0.0039101 0.0039101
0.9960899 0.0039101 0.0039101
0.0039101 0.1334407 0.0039101
0.0039101 0.1337868 0.0039101
0.0115507 0.1336539 0.0039101
0.0365449 0.1334333 0.0039101
0.1359080 0.1323404 0.0039101
0.1784475 0.1294090 0.0039101
0.2181913 0.1233524 0.0039101
0.2572100 0.1116451 0.0039101
0.2959942 0.0772305 0.0039101
0.3346966 0.0098345 0.0039101
0.3733716 0.0039101 0.0039101
0.4120399 0.0039101 0.0039101
0.4507098 0.0039101 0.0039101
0.4893839 0.0039101 0.0039101
0.5280634 0.0039101 0.0039101
0.5667481 0.0039101 0.0039101
0.6056637 0.0039101 0.0039101
0.6485856 0.0039101 0.0039101
0.6972718 0.0039101 0.0039101
0.7523022 0.0039101 0.0039101
0.8081828 0.0039101 0.0039101
0.8528440 0.0039101 0.0039101
0.8887295 0.0039101 0.0039101
0.9179695 0.0039101 0.0039101
0.9420781 0.0039101 0.0039101
0.9609027 0.0039101 0.0039101
0.9726229 0.0039101 0.0039101
0.9804068 0.0039101 0.0039101
0.9859442 0.0039101 0.0039101
0.9900816 0.0039101 0.0039101
0.9932889 0.0039101 0.0039101
0.9958469 0.0039101 0.0039101
0.9960899 0.0039101 0.0039101
0.0039101 0.1698772 0.0039101
0.0039101 0.1696485 0.0039101
0.0039101 0.1695170 0.0039101
0.0039101 0.1693622 0.0039101
0.1131487 0.1687644 0.0039101
0.1713071 0.1673855 0.0039101
0.2152651 0.1647836 0.0039101
0.2561032 0.1604396 0.0039101
0.2957789 0.1536586 0.0039101
0.3349433 0.1432452 0.0039101
0.3738630 0.1262839 0.0039101
0.4126596 0.0824136 0.0039101
0.4513929 0.0039101 0.0039101
0.4900934 0.0039101 0.0039101
0.5287778 0.0039101 0.0039101
0.5674549 0.0039101 0.0039101
0.6063558 0.0039101 0.0039101
0.6492568 0.0039101 0.0039101
0.6979166 0.0039101 0.0039101
0.7529163 0.0039101 0.0039101
0.8086234 0.0039101 0.0039101
0.8531380 0.0039101 0.0039101
0.8889278 0.0039101 0.0039101
0.9181044 0.0039101 0.0039101
0.9421707 0.0039101 0.0039101
0.9609684 0.0039101 0.0039101
0.9726743 0.0039101 0.0039101
0.9804499 0.0039101 0.0039101
0.9859818 0.0039101 0.0039101
0.9901155 0.0039101 0.0039101
0.9933200 0.0039101 0.0039101
0.9958760 0.0039101 0.0039101
0.9960899 0.0039101 0.0039101
0.0039101 0.2056868 0.0039101
0.0039101 0.2054252 0.0039101
0.0039101 0.2053163 0.0039101
0.0039101 0.2051983 0.0039101
0.0039101 0.2047867 0.0039101
0.1529790 0.2039271 0.0039101
0.2069505 0.2024025 0.0039101
0.2517314 0.1999613 0.0039101
0.2934512 0.1963220 0.0039101
0.3337882 0.1911485 0.0039101
0.3734159 0.1839889 0.0039101
0.4126533 0.1741372 0.0039101
0.4516656 0.1602703 0.0039101
0.4905441 0.1390626 0.0039101
0.5293414 0.0879730 0.0039101
0.5680889 0.0039101 0.0039101
0.6070320 0.0039101 0.0039101
0.6499574 0.0039101 0.0039101
0.6986268 0.0039101 0.0039101
0.7536229 0.0039101 0.0039101
0.8091471 0.0039101 0.0039101
0.8534978 0.0039101 0.0039101
0.8891765 0.0039101 0.0039101
0.9182772 0.0039101 0.0039101
0.9422913 0.0039101 0.0039101
0.9610548 0.0039101 0.0039101
0.9727427 0.0039101 0.0039101
0.9805073 0.0039101 0.0039101
0.9860324 0.0039101 0.0039101
0.9901611 0.0039101 0.0039101
0.9933618 0.0039101 0.0039101
0.9959151 0.0039101 0.0039101
0.9960899 0.0039101 0.0039101
0.0039101 0.2414233 0.0039101
0.0039101 0.2411835 0.0039101
0.0039101 0.2410928 0.0039101
0.0039101 0.2409977 0.0039101
0.0039101 0.2406824 0.0039101
0.0971542 0.2400646 0.0039101
0.1904042 0.2390225 0.0039101
0.2426978 0.2374096 0.0039101
0.2880188 0.2350637 0.0039101
0.3304404 0.2318079 0.0039101
0.3713787 0.2274418 0.0039101
0.4114783 0.2217226 0.0039101
0.4510740 0.2143293 0.0039101
0.4903547 0.2047939 0.0039101
0.5294329 0.1923530 0.0039101
0.5683780 0.1755461 0.0039101
0.6074611 0.1505010 0.0039101
0.6504931 0.0421681 0.0039101
0.6992414 0.0039101 0.0039101
0.7542906 0.0039101 0.0039101
0.8096732 0.0039101 0.0039101
0.8538780 0.0039101 0.0039101
0.8894498 0.0039101 0.0039101
0.9184729 0.0039101 0.0039101
0.9424312 0.0039101 0.0039101
0.9611571 0.0039101 0.0039101
0.9728243 0.0039101 0.0039101
0.9805766 0.0039101 0.0039101
0.9860934 0.0039101 0.0039101
0.9902164 0.0039101 0.0039101
0.9934129 0.0039101 0.0039101
0.9959629 0.0039101 0.0039101
0.9960899 0.0039101 0.0039101
0.0039101 0.2771487 0.0039101
0.0039101 0.2769356 0.0039101
0.0039101 0.2768584 0.0039101
0.0039101 0.2767788 0.0039101
0.0039101 0.2765225 0.0039101
0.0039101 0.2760407 0.0039101
0.1581614 0.2752588 0.0039101
0.2271337 0.2740842 0.0039101
0.2784984 0.2724120 0.0039101
0.3242022 0.2701291 0.0039101
0.3671895 0.2671140 0.0039101
0.4086591 0.2632331 0.0039101
0.4492082 0.2583329 0.0039101
0.4891697 0.2522271 0.0039101
0.5287427 0.2446748 0.0039101
0.5680523 0.2353428 0.0039101
0.6074076 0.2236563 0.0039101
0.6506607 0.2070653 0.0039101
0.6995879 0.1805265 0.0039101
0.7547754 0.1213732 0.0039101
0.8101129 0.0039101 0.0039101
0.8542269 0.0039101 0.0039101
0.8897175 0.0039101 0.0039101
0.9186742 0.0039101 0.0039101
0.9425803 0.0039101 0.0039101
0.9612690 0.0039101 0.0039101
0.9729150 0.0039101 0.0039101
0.9806542 0.0039101 0.0039101
0.9861623 0.0039101 0.0039101
0.9902791 0.0039101 0.0039101
0.9934710 0.0039101 0.0039101
0.9960174 0.0039101 0.0039101
0.9960899 0.0039101 0.0039101
0.0039101 0.3128743 0.0039101
0.0039101 0.3126849 0.0039101
0.0039101 0.3126179 0.0039101
0.0039101 0.3125495 0.0039101
0.0039101 0.3123332 0.0039101
0.0039101 0.3119378 0.0039101
0.0039101 0.3113146 0.0039101
0.2011807 0.3104014 0.0039101
0.2635597 0.3091266 0.0039101
0.3143297 0.3074118 0.0039101
0.3603194 0.3051738 0.0039101
0.4037707 0.3023237 0.0039101
0.4457058 0.2987659 0.0039101
0.4866716 0.2943940 0.0039101
0.5269898 0.2890851 0.0039101
0.5668615 0.2826907 0.0039101
0.6066483 0.2749743 0.0039101
0.6502632 0.2646631 0.0039101
0.6994953 0.2500593 0.0039101
0.7549306 0.2283004 0.0039101
0.8103746 0.1908192 0.0039101
0.8544905 0.0263336 0.0039101
0.8899477 0.0039101 0.0039101
0.9188617 0.0039101 0.0039101
0.9427274 0.0039101 0.0039101
0.9613835 0.0039101 0.0039101
0.9730099 0.0039101 0.0039101
0.9807364 0.0039101 0.0039101
0.9862360 0.0039101 0.0039101
0.9903467 0.0039101 0.0039101
0.9935338 0.0039101 0.0039101
0.9960766 0.0039101 0.0039101
0.9960899 0.0039101 0.0039101
0.0039101 0.3486022 0.0039101
0.0039101 0.3484327 0.0039101
0.0039101 0.3483736 0.0039101
0.0039101 0.3483137 0.0039101
0.0039101 0.3481264 0.0039101
0.0039101 0.3477904 0.0039101
0.0039101 0.3472726 0.0039101
0.1506517 0.3465294 0.0039101
0.2408106 0.3455097 0.0039101
0.2998253 0.3441568 0.0039101
0.3501804 0.3424101 0.0039101
0.3963920 0.3402055 0.0039101
0.4402295 0.3374755 0.0039101
0.4825731 0.3341480 0.0039101
0.5239208 0.3301448 0.0039101
0.5645787 0.3253781 0.0039101
0.6049785 0.3197106 0.0039101
0.6491169 0.3122969 0.0039101
0.6988004 0.3021509 0.0039101
0.7546142 0.2879441 0.0039101
0.8103678 0.2654325 0.0039101
0.8546141 0.2281112 0.0039101
0.8901073 0.1626830 0.0039101
0.9190158 0.0039101 0.0039101
0.9428602 0.0039101 0.0039101
0.9614931 0.0039101 0.0039101
0.9731035 0.0039101 0.0039101
0.9808193 0.0039101 0.0039101
0.9863111 0.0039101 0.0039101
0.9904159 0.0039101 0.0039101
0.9935989 0.0039101 0.0039101
0.9960899 0.0039101 0.0039101
0.9960899 0.0039101 0.0039101
0.0039101 0.3843327 0.0039101
0.0039101 0.3841798 0.0039101
0.0039101 0.3841269 0.0039101
0.0039101 0.3840736 0.0039101
0.0039101 0.3839083 0.0039101
0.0039101 0.3836159 0.0039101
0.0039101 0.3831728 0.0039101
0.0039101 0.3825473 0.0039101
0.2043456 0.3817019 0.0039101
0.2790516 0.3805944 0.0039101
0.3359953 0.3791790 0.0039101
0.3860442 0.3774073 0.0039101
0.4324330 0.3752287 0.0039101
0.4765969 0.3725899 0.0039101
0.5193002 0.3694349 0.0039101
0.5609962 0.3657032 0.0039101
0.6022112 0.3613014 0.0039101
0.6470535 0.3556023 0.0039101
0.6973527 0.3479202 0.0039101
0.7536922 0.3374193 0.0039101
0.8100046 0.3204570 0.0039101
0.8545445 0.2922247 0.0039101
0.8901636 0.2520918 0.0039101
0.9191164 0.1915922 0.0039101
0.9429667 0.0039101 0.0039101
0.9615902 0.0039101 0.0039101
0.9731905 0.0039101 0.0039101
0.9808981 0.0039101 0.0039101
0.9863839 0.0039101 0.0039101
0.9904841 0.0039101 0.0039101
0.9936632 0.0039101 0.0039101
0.9960899 0.0039101 0.0039101
0.9960899 0.0039101 0.0039101
0.0039101 0.4200653 0.0039101
0.0039101 0.4199263 0.0039101
0.0039101 0.4198785 0.0039101
0.0039101 0.4198305 0.0039101
0.0039101 0.4196824 0.0039101
0.0039101 0.4194234 0.0039101
0.0039101 0.4190358 0.0039101
0.0039101 0.4184960 0.0039101
0.1185259 0.4177759 0.0039101
0.2486950 0.4168430 0.0039101
0.3165702 0.4156621 0.0039101
0.3721039 0.4141955 0.0039101
0.4219170 0.4124039 0.0039101
0.4684507 0.4102460 0.0039101
0.5128938 0.4076788 0.0039101
0.5559155 0.4046575 0.0039101
0.5981719 0.4011119 0.0039101
0.6439173 0.3965496 0.0039101
0.6950129 0.3904508 0.0039101
0.7520404 0.3822151 0.0039101
0.8091989 0.3683050 0.0039101
0.8542296 0.3437509 0.0039101
0.8900847 0.3100808 0.0039101
0.9191433 0.2663870 0.0039101
0.9430342 0.2050188 0.0039101
0.9616667 0.0039101 0.0039101
0.9732649 0.0039101 0.0039101
0.9809687 0.0039101 0.0039101
0.9864507 0.0039101 0.0039101
0.9905477 0.0039101 0.0039101
0.9937240 0.0039101 0.0039101
0.9960899 0.0039101 0.0039101
0.9960899 0.0039101 0.0039101
0.0039101 0.4557997 0.0039101
0.0039101 0.4556723 0.0039101
0.0039101 0.4556288 0.0039101
0.0039101 0.4555852 0.0039101
0.0039101 0.4554511 0.0039101
0.0039101 0.4552183 0.0039101
0.0039101 0.4548735 0.0039101
0.0039101 0.4543988 0.0039101
0.0039101 0.4537722 0.0039101
0.1991460 0.4529685 0.0039101
0.2897708 0.4519601 0.0039101
0.3536609 0.4507170 0.0039101
0.4081705 0.4492079 0.0039101
0.4577965 0.4473998 0.0039101
0.5044510 0.4452588 0.0039101
0.5491354 0.4427495 0.0039101
0.5926903 0.4398165 0.0039101
0.6395605 0.4360590 0.0039101
0.6916506 0.4310631 0.0039101
0.7495432 0.4243658 0.0039101
0.8078648 0.4124693 0.0039101
0.8536187 0.3897109 0.0039101
0.8898393 0.3586136 0.0039101
0.9190774 0.3201089 0.0039101
0.9430507 0.2726553 0.0039101
0.9617148 0.2133597 0.0039101
0.9733209 0.1385535 0.0039101
0.9810262 0.0039101 0.0039101
0.9865074 0.0039101 0.0039101
0.9906033 0.0039101 0.0039101
0.9937783 0.0039101 0.0039101
0.9960899 0.0039101 0.0039101
0.9960899 0.0039101 0.0039101
0.0039101 0.4915356 0.0039101
0.0039101 0.4914182 0.0039101
0.0039101 0.4913782 0.0039101
0.0039101 0.4913382 0.0039101
0.0039101 0.4912156 0.0039101
0.0039101 0.4910041 0.0039101
0.0039101 0.4906935 0.0039101
0.0039101 0.4902695 0.0039101
0.0039101 0.4897152 0.0039101
0.0039101 0.4890103 0.0039101
0.2508530 0.4881328 0.0039101
0.3292221 0.4870586 0.0039101
0.3904758 0.4857623 0.0039101
0.4442071 0.4842171 0.0039101
0.4936809 0.4823954 0.0039101
0.5404376 0.4802685 0.0039101
0.5855908 0.4777912 0.0039101
0.6338364 0.4746288 0.0039101
0.6871405 0.4704410 0.0039101
0.7460909 0.4648549 0.0039101
0.8059127 0.4544775 0.0039101
0.8526608 0.4326278 0.0039101
0.8893970 0.4025111 0.0039101
0.9188995 0.3659964 0.0039101
0.9430043 0.3232259 0.0039101
0.9617265 0.2757587 0.0039101
0.9733529 0.2335945 0.0039101
0.9810661 0.1929945 0.0039101
0.9865505 0.1453537 0.0039101
0.9906476 0.0039101 0.0039101
0.9938231 0.0039101 0.0039101
0.9960899 0.0039101 0.0039101
0.9960899 0.0039101 0.0039101
0.0039101 0.5272728 0.0039101
0.0039101 0.5271639 0.0039101
0.0039101 0.5271269 0.0039101
0.0039101 0.5270899 0.0039101
0.0039101 0.5269771 0.0039101
0.0039101 0.5267833 0.0039101
0.0039101 0.5265004 0.0039101
0.0039101 0.5261172 0.0039101
0.0039101 0.5256200 0.0039101
0.0039101 0.5249928 0.0039101
0.1825500 0.5242174 0.0039101
0.2959406 0.5232743 0.0039101
0.3677285 0.5221425 0.0039101
0.4271022 0.5208001 0.0039101
0.4802216 0.5192240 0.0039101
0.5295691 0.5173907 0.0039101
0.5766815 0.5152625 0.0039101
0.6265932 0.5125540 0.0039101
0.6813577 0.5089796 0.0039101
0.7415779 0.5042300 0.0039101
0.8032451 0.4951392 0.0039101
0.8513035 0.4737350 0.0039101
0.8887273 0.4437555 0.0039101
0.9185914 0.4077893 0.0039101
0.9428833 0.3667963 0.0039101
0.9616944 0.3235749 0.0039101
0.9733551 0.2883509 0.0039101
0.9810836 0.2588930 0.0039101
0.9865759 0.2329231 0.0039101
0.9906772 0.2088403 0.0039101
0.9938552 0.1852210 0.0039101
0.9960899 0.1602114 0.0039101
0.9960899 0.1294728 0.0039101
0.0039101 0.5632198 0.0039101
0.0039101 0.5631183 0.0039101
0.0039101 0.5630840 0.0039101
0.0039101 0.5630497 0.0039101
0.0039101 0.5629451 0.0039101
0.0039101 0.5627663 0.0039101
0.0039101 0.5625066 0.0039101
0.0039101 0.5621570 0.0039101
0.0039101 0.5617064 0.0039101
0.0039101 0.5611418 0.0039101
0.0039101 0.5604484 0.0039101
0.2463951 0.5596098 0.0039101
0.3378275 0.5586088 0.0039101
0.4054902 0.5574270 0.0039101
0.4634860 0.5560452 0.0039101
0.5161333 0.5544437 0.0039101
0.5656703 0.5525903 0.0039101
0.6176069 0.5502388 0.0039101
0.6741261 0.5471448 0.0039101
0.7358617 0.5430471 0.0039101
0.7997276 0.5351579 0.0039101
0.8494784 0.5139738 0.0039101
0.8877928 0.4836145 0.0039101
0.9181312 0.4473767 0.0039101
0.9426747 0.4067815 0.0039101
0.9616100 0.3652250 0.0039101
0.9733219 0.3327329 0.0039101
0.9810746 0.3069130 0.0039101
0.9865799 0.2855555 0.0039101
0.9906889 0.2673171 0.0039101
0.9938719 0.2513319 0.0039101
0.9960899 0.2370116 0.0039101
0.9960899 0.2239351 0.0039101
0.0039101 0.6028636 0.0039101
0.0039101 0.6027694 0.0039101
0.0039101 0.6027375 0.0039101
0.0039101 0.6027057 0.0039101
0.0039101 0.6026089 0.0039101
0.0039101 0.6024441 0.0039101
0.0039101 0.6022058 0.0039101
0.0039101 0.6018868 0.0039101
0.0039101 0.6014785 0.0039101
0.0039101 0.6009698 0.0039101
0.0039101 0.6003489 0.0039101
0.1033536 0.5996026 0.0039101
0.2917892 0.5987165 0.0039101
0.3748414 0.5976754 0.0039101
0.4404767 0.5964635 0.0039101
0.4979087 0.5950641 0.0039101
0.5508128 0.5934501 0.0039101
0.6054860 0.5914088 0.0039101
0.6643331 0.5887313 0.0039101
0.7280557 0.5851970 0.0039101
0.7947159 0.5786092 0.0039101
0.8468543 0.5576081 0.0039101
0.8864189 0.5264382 0.0039101
0.9174263 0.4892808 0.0039101
0.9423299 0.4481910 0.0039101
0.9614480 0.4070144 0.0039101
0.9732371 0.3756755 0.0039101
0.9810279 0.3514859 0.0039101
0.9865546 0.3320896 0.0039101
0.9906768 0.3160709 0.0039101
0.9938683 0.3025315 0.0039101
0.9960899 0.2908727 0.0039101
0.9960899 0.2806799 0.0039101
0.0039101 0.6478274 0.0039101
0.0039101 0.6477401 0.0039101
0.0039101 0.6477106 0.0039101
0.0039101 0.6476813 0.0039101
0.0039101 0.6475921 0.0039101
0.0039101 0.6474406 0.0039101
0.0039101 0.6472225 0.0039101
0.0039101 0.6469323 0.0039101
0.0039101 0.6465629 0.0039101
0.0039101 0.6461055 0.0039101
0.0039101 0.6455507 0.0039101
0.0039101 0.6448877 0.0039101
0.1977393 0.6441049 0.0039101
0.3268415 0.6431898 0.0039101
0.4067702 0.6421295 0.0039101
0.4719470 0.6409102 0.0039101
0.5299217 0.6395092 0.0039101
0.5885402 0.6377433 0.0039101
0.6506464 0.6354351 0.0039101
0.7170967 0.6323987 0.0039101
0.7873121 0.6272669 0.0039101
0.8429784 0.6066581 0.0039101
0.8843642 0.5742483 0.0039101
0.9163435 0.5354916 0.0039101
0.9417742 0.4930675 0.0039101
0.9611643 0.4512687 0.0039101
0.9730710 0.4200851 0.0039101
0.9809213 0.3964851 0.0039101
0.9864823 0.3779219 0.0039101
0.9906258 0.3628781 0.0039101
0.9938318 0.3503971 0.0039101
0.9960899 0.3398458 0.0039101
0.9960899 0.3307879 0.0039101
0.0039101 0.6986455 0.0039101
0.0039101 0.6985650 0.0039101
0.0039101 0.6985379 0.0039101
0.0039101 0.6985108 0.0039101
0.0039101 0.6984289 0.0039101
0.0039101 0.6982901 0.0039101
0.0039101 0.6980911 0.0039101
0.0039101 0.6978275 0.0039101
0.0039101 0.6974938 0.0039101
0.0039101 0.6970831 0.0039101
0.0039101 0.6965877 0.0039101
0.0039101 0.6959992 0.0039101
0.0039101 0.6953083 0.0039101
0.2344158 0.6945049 0.0039101
0.3538012 0.6935783 0.0039101
0.4336017 0.6925176 0.0039101
0.4999147 0.6913036 0.0039101
0.5645532 0.6897792 0.0039101
0.6313983 0.6877943 0.0039101
0.7016888 0.6851927 0.0039101
0.7761983 0.6815003 0.0039101
0.8372258 0.6620213 0.0039101
0.8813062 0.6279888 0.0039101
0.9147065 0.5868869 0.0039101
0.9409073 0.5422433 0.0039101
0.9606981 0.4988791 0.0039101
0.9727814 0.4670392 0.0039101
0.9807222 0.4432939 0.0039101
0.9863359 0.4248652 0.0039101
0.9905133 0.4101146 0.0039101
0.9937420 0.3980174 0.0039101
0.9960899 0.3879007 0.0039101
0.9960899 0.3793038 0.0039101
0.0039101 0.7559015 0.0039101
0.0039101 0.7558275 0.0039101
0.0039101 0.7558026 0.0039101
0.0039101 0.7557778 0.0039101
0.0039101 0.7557027 0.0039101
0.0039101 0.7555758 0.0039101
0.0039101 0.7553945 0.0039101
0.0039101 0.7551555 0.0039101
0.0039101 0.7548543 0.0039101
0.0039101 0.7544856 0.0039101
0.0039101 0.7540435 0.0039101
0.0039101 0.7535213 0.0039101
0.0039101 0.7529114 0.0039101
0.0039101 0.7522060 0.0039101
0.2513481 0.7513964 0.0039101
0.3724832 0.7504739 0.0039101
0.4550511 0.7494226 0.0039101
0.5298179 0.7481076 0.0039101
0.6039891 0.7464024 0.0039101
0.6799064 0.7441766 0.0039101
0.7591991 0.7412525 0.0039101
0.8285760 0.7247443 0.0039101
0.8767470 0.6888726 0.0039101
0.9122525 0.6445850 0.0039101
0.9395832 0.5967205 0.0039101
0.9599628 0.5508044 0.0039101
0.9723071 0.5175473 0.0039101
0.9803834 0.4930382 0.0039101
0.9860770 0.4742121 0.0039101
0.9903057 0.4592797 0.0039101
0.9935699 0.4471326 0.0039101
0.9960899 0.4370482 0.0039101
0.9960899 0.4285360 0.0039101
0.0039101 0.8126185 0.0039101
0.0039101 0.8125684 0.0039101
0.0039101 0.8125517 0.0039101
0.0039101 0.8125349 0.0039101
0.0039101 0.8124843 0.0039101
0.0039101 0.8123989 0.0039101
0.0039101 0.8122771 0.0039101
0.0039101 0.8121171 0.0039101
0.0039101 0.8119161 0.0039101
0.0039101 0.8116708 0.0039101
0.0039101 0.8113778 0.0039101
0.0039101 0.8110325 0.0039101
0.0039101 0.8106305 0.0039101
0.0039101 0.8101664 0.0039101
0.0039101 0.8096346 0.0039101
0.2461701 0.8090289 0.0039101
0.3790707 0.8083385 0.0039101
0.4739503 0.8074741 0.0039101
0.5602804 0.8063499 0.0039101
0.6446983 0.8048758 0.0039101
0.7304843 0.8029244 0.0039101
0.8152356 0.7958768 0.0039101
0.8698794 0.7584779 0.0039101
0.9085790 0.7100596 0.0039101
0.9375856 0.6577715 0.0039101
0.9588312 0.6081741 0.0039101
0.9715604 0.5726954 0.0039101
0.9798372 0.5468200 0.0039101
0.9856498 0.5271152 0.0039101
0.9899557 0.5116000 0.0039101
0.9932732 0.4990585 0.0039101
0.9959074 0.4887044 0.0039101
0.9960899 0.4800073 0.0039101
0.0039101 0.8572794 0.0039101
0.0039101 0.8572471 0.0039101
0.0039101 0.8572362 0.0039101
0.0039101 0.8572255 0.0039101
0.0039101 0.8571928 0.0039101
0.0039101 0.8571379 0.0039101
0.0039101 0.8570598 0.0039101
0.0039101 0.8569576 0.0039101
0.0039101 0.8568297 0.0039101
0.0039101 0.8566744 0.0039101
0.0039101 0.8564898 0.0039101
0.0039101 0.8562736 0.0039101
0.0039101 0.8560232 0.0039101
0.0039101 0.8557358 0.0039101
0.0039101 0.8554084 0.0039101
0.0039101 0.8550375 0.0039101
0.2034269 0.8546172 0.0039101
0.3758253 0.8540940 0.0039101
0.4857772 0.8534181 0.0039101
0.5826032 0.8525380 0.0039101
0.6760313 0.8513824 0.0039101
0.7704146 0.8498513 0.0039101
0.8592966 0.8388332 0.0039101
0.9030362 0.7853160 0.0039101
0.9345841 0.7270887 0.0039101
0.9571165 0.6724137 0.0039101
0.9704131 0.6337736 0.0039101
0.9789858 0.6058682 0.0039101
