sample/src/main/assets/lut/sdr2pq/NBCU_FinalCut_DL_Adobe_v1.cube
TITLE "SDR-BT.709 to PQ-BT.2100 Display-Light Conversion 3D Look-Up-Table"
# site: https://github.com/digitaltvguy/NBCUniversal-UHD-HDR-SDR-Single-Master-Production-Workflow-Recommendation-LUTs/tree/main
# PLEASE DO NOT ALTER THE LINES BELOW
# 
# Â© 2020 NBCUniversal, LLC - Please do not remove this line
#
# Built using tools from and in collaboration with Cromorama and Nick Shaw - the creators of ORION-CONVERT
#
#
# Parameters designed by Chris Seeger, NBCU Advanced Technology (chris.seeger@nbcuni.com)
# In collaboration with Michael Drazin, NBCU Sports Group (michael.drazin@nbcuni.com)
#
# 100% SDR maps to 58% PQ 
# SDR 100-109% preserved into PQ above 58% (preserves additional color volume from SDR)
#
#
# No Matrix Compensation (so make sure your device is using the correct matrix)
#
# Type III LUT - Full Range Processing for Narrow Range Signals
# Unscaled code values in and out
LUT_3D_SIZE 5
# 2021-04-08
# Input and Output values have been changed from narrow range encoding to extended full range encoding
# According to formula Full range value = (-16 + (1023*NarrowRangeValue)/4)/219
# Narrow range filename was 4-NBCU_SDR2PQ_DL_v1.cube
DOMAIN_MIN -0.0730594 -0.0730594 -0.0730594
DOMAIN_MAX 1.09475 1.09475 1.09475
-0.0684931 -0.0684931 -0.0684931
0.216709 0.0233022 -0.0684931
0.376895 0.199962 0.0954836
0.478898 0.281175 0.174514
0.55406 0.342929 0.227762
0.170838 0.245098 0.0669294
0.248104 0.250607 0.0846007
0.383253 0.278637 0.137898
0.481318 0.32115 0.190429
0.555273 0.365891 0.236234
0.320728 0.411954 0.217427
0.340746 0.412924 0.219293
0.415657 0.418739 0.229987
0.495209 0.430756 0.249987
0.562506 0.448158 0.275557
0.416795 0.51715 0.300736
0.424907 0.517509 0.301454
0.464636 0.519708 0.305785
0.521167 0.524507 0.314865
0.577243 0.532072 0.328307
0.488619 0.593966 0.364143
0.492795 0.594143 0.364513
0.515581 0.595239 0.366782
0.554125 0.597668 0.371711
0.598139 0.601607 0.379433
-0.0684931 -0.0684931 0.243102
0.221589 0.0553901 0.244473
0.377755 0.201577 0.252512
0.479219 0.281793 0.268282
0.55422 0.343249 0.289603
0.179501 0.246029 0.250218
0.251479 0.251479 0.251479
0.38406 0.279272 0.258915
0.481632 0.321551 0.27366
0.555432 0.366144 0.293872
0.322254 0.412114 0.284719
0.341985 0.413082 0.285574
0.416244 0.418889 0.290701
0.495485 0.430889 0.3013
0.562654 0.448271 0.316668
0.417376 0.517209 0.333606
0.425444 0.517568 0.334113
0.465004 0.519766 0.337198
0.521384 0.524562 0.343809
0.577372 0.532124 0.35393
0.488912 0.593995 0.382613
0.493077 0.594173 0.382921
0.51581 0.595267 0.384811
0.554285 0.597696 0.388944
0.598247 0.601634 0.395487
0.167025 0.0577011 0.409494
0.246703 0.115112 0.40973
0.382925 0.210908 0.411184
0.481191 0.285527 0.414387
0.555209 0.345205 0.419522
0.218284 0.251582 0.410757
0.269897 0.256701 0.410991
0.388924 0.28311 0.412427
0.483561 0.323998 0.415592
0.556409 0.367696 0.420669
0.3312 0.413101 0.41826
0.349333 0.41406 0.418477
0.419813 0.419813 0.419813
0.497181 0.431713 0.422762
0.56357 0.448968 0.427506
0.420907 0.517575 0.433402
0.428713 0.517932 0.43359
0.467255 0.520123 0.434745
0.522719 0.524904 0.437304
0.578173 0.532442 0.44144
0.490715 0.594176 0.454612
0.494811 0.594353 0.454766
0.517215 0.595446 0.45571
0.555274 0.597871 0.457809
0.598909 0.601803 0.461222
0.244889 0.14886 0.514479
0.285512 0.166539 0.514566
0.393688 0.228632 0.515107
0.485506 0.29342 0.516315
0.557405 0.349476 0.518301
0.268512 0.262922 0.514947
0.301188 0.267431 0.515034
0.399096 0.291207 0.515572
0.487783 0.329293 0.516775
0.558582 0.371108 0.518753
0.348746 0.415291 0.517807
0.364111 0.41623 0.517892
0.427431 0.421866 0.518416
0.500907 0.433545 0.519587
0.565606 0.450524 0.521515
0.428447 0.518395 0.523988
0.435725 0.51875 0.524068
0.472161 0.520924 0.524563
0.52567 0.52567 0.52567
0.579957 0.533157 0.527494
0.494668 0.594583 0.533579
0.498619 0.59476 0.533653
0.520318 0.595849 0.534106
0.557468 0.598264 0.53512
0.600388 0.602183 0.536793
0.303505 0.201124 0.591189
0.327052 0.210338 0.591232
0.409444 0.25171 0.5915
0.492342 0.305246 0.592101
0.560976 0.356214 0.593097
0.316594 0.279093 0.591421
0.337407 0.282867 0.591464
0.414095 0.303303 0.591731
0.494479 0.337528 0.592331
0.562115 0.376556 0.593325
0.372433 0.418846 0.592849
0.384724 0.419754 0.592891
0.439019 0.425206 0.593155
0.506853 0.436534 0.593747
0.568922 0.45307 0.594729
0.439928 0.51975 0.596
0.44647 0.5201 0.596042
0.479877 0.522248 0.596298
0.530424 0.526937 0.596873
0.582872 0.534341 0.597828
0.50096 0.595259 0.601068
0.504689 0.595435 0.601108
0.525307 0.596517 0.601352
0.561037 0.598918 0.601902
0.602814 0.602814 0.602814
