sample/src/main/assets/lut/sdr2pq/NBCU_FinalCut_DL_Adobe_v1.cube
TITLE "SDR-BT.709 to PQ-BT.2100 Display-Light Conversion 3D Look-Up-Table"
# site: https://github.com/digitaltvguy/NBCUniversal-UHD-HDR-SDR-Single-Master-Production-Workflow-Recommendation-LUTs/tree/main
# PLEASE DO NOT ALTER THE LINES BELOW
# 
# Â© 2020 NBCUniversal, LLC - Please do not remove this line
#
# Built using tools from and in collaboration with Cromorama and Nick Shaw - the creators of ORION-CONVERT
#
#
# Parameters designed by Chris Seeger, NBCU Advanced Technology (chris.seeger@nbcuni.com)
# In collaboration with Michael Drazin, NBCU Sports Group (michael.drazin@nbcuni.com)
#
# 100% SDR maps to 58% PQ 
# SDR 100-109% preserved into PQ above 58% (preserves additional color volume from SDR)
#
#
# No Matrix Compensation (so make sure your device is using the correct matrix)
#
# Type III LUT - Full Range Processing for Narrow Range Signals
# Unscaled code values in and out
LUT_3D_SIZE 9
# 2021-04-08
# Input and Output values have been changed from narrow range encoding to extended full range encoding
# According to formula Full range value = (-16 + (1023*NarrowRangeValue)/4)/219
# Narrow range filename was 4-NBCU_SDR2PQ_DL_v1.cube
DOMAIN_MIN -0.0730594 -0.0730594 -0.0730594
DOMAIN_MAX 1.09475 1.09475 1.09475
-0.0684931 -0.0684931 -0.0684931
0.0610508 -0.0684931 -0.0684931
0.216709 0.0233022 -0.0684931
0.308084 0.143951 -0.0559834
0.376895 0.199962 0.0954836
0.432378 0.243932 0.140866
0.478898 0.281175 0.174514
0.518937 0.313793 0.202815
0.55406 0.342929 0.227762
-0.0684931 0.098929 -0.0684931
0.102176 0.104821 -0.0684931
0.221667 0.132873 -0.0684931
0.309856 0.174573 -0.0229113
0.377769 0.21589 0.10334
0.432886 0.253626 0.14464
0.479224 0.28764 0.176853
0.519163 0.318378 0.204428
0.554223 0.346331 0.228947
0.170838 0.245098 0.0669294
0.186781 0.245855 0.0697424
0.248104 0.250607 0.0846007
0.320588 0.261831 0.110035
0.383253 0.278637 0.137898
0.436119 0.299034 0.164977
0.481318 0.32115 0.190429
0.52061 0.34369 0.214145
0.555273 0.365891 0.236234
0.256615 0.340399 0.160933
0.262454 0.340666 0.161467
0.293095 0.342375 0.164832
0.343824 0.346675 0.172878
0.396224 0.353805 0.185162
0.444067 0.363576 0.200415
0.486565 0.375532 0.217336
0.524277 0.389105 0.234951
0.557951 0.403747 0.252631
0.320728 0.411954 0.217427
0.323661 0.412084 0.217679
0.340746 0.412924 0.219293
0.3747 0.41507 0.223333
0.415657 0.418739 0.229987
0.456729 0.423989 0.239027
0.495209 0.430756 0.249987
0.530438 0.438883 0.26233
0.562506 0.448158 0.275557
0.372792 0.469311 0.262471
0.374519 0.469386 0.262618
0.385042 0.469872 0.263567
0.408111 0.471121 0.265982
0.439206 0.473283 0.270075
0.4732 0.476435 0.275858
0.506952 0.480593 0.283197
0.539038 0.485731 0.291863
0.568978 0.491779 0.301583
0.416795 0.51715 0.300736
0.417918 0.517198 0.300832
0.424907 0.517509 0.301454
0.441105 0.518311 0.303047
0.464636 0.519708 0.305785
0.49223 0.521762 0.309731
0.521167 0.524507 0.314865
0.549785 0.527949 0.321101
0.577243 0.532072 0.328307
0.454944 0.558142 0.334244
0.455723 0.558175 0.334311
0.460637 0.558389 0.334748
0.47241 0.55894 0.33587
0.490395 0.559903 0.337812
0.51265 0.561327 0.340644
0.53712 0.563242 0.344383
0.56225 0.565664 0.349003
0.587063 0.568597 0.354448
0.488619 0.593966 0.364143
0.489187 0.59399 0.364192
0.492795 0.594143 0.364513
0.501623 0.594542 0.365342
0.515581 0.595239 0.366782
0.533564 0.596272 0.368895
0.554125 0.597668 0.371711
0.575969 0.599443 0.375232
0.598139 0.601607 0.379433
-0.0684931 -0.0684931 0.096725
0.0690854 -0.0684931 0.0982437
0.217379 0.0304123 0.107158
0.308319 0.144428 0.125285
0.37701 0.20018 0.148034
0.432445 0.244059 0.171949
0.478941 0.281258 0.195426
0.518967 0.313851 0.217864
0.554082 0.342972 0.239089
-0.0615295 0.0999435 0.104413
0.105731 0.105731 0.105731
0.222298 0.133439 0.113589
0.310086 0.174879 0.130076
0.377883 0.216068 0.151429
0.432952 0.253739 0.17437
0.479267 0.287717 0.197199
0.519192 0.318433 0.2192
0.554244 0.346372 0.240124
0.172059 0.245223 0.138498
0.187764 0.245979 0.139245
0.248563 0.250724 0.143882
0.320794 0.261934 0.154579
0.383361 0.278722 0.170086
0.436184 0.299102 0.188369
0.48136 0.321204 0.207795
0.520639 0.343732 0.227362
0.555294 0.365925 0.246534
0.257031 0.340443 0.185466
0.262843 0.340709 0.185846
0.293371 0.342418 0.188264
0.343985 0.346716 0.194195
0.39632 0.353843 0.203625
0.444127 0.36361 0.215885
0.486605 0.375562 0.230082
0.524305 0.389132 0.2454
0.557971 0.40377 0.261219
0.320934 0.411975 0.230159
0.32386 0.412105 0.230375
0.340912 0.412945 0.231758
0.374818 0.415091 0.235241
0.415736 0.418759 0.241034
0.456782 0.424008 0.249011
0.495246 0.430774 0.25883
0.530465 0.438899 0.270053
0.562526 0.448173 0.28225
0.372912 0.469323 0.270182
0.374638 0.469398 0.270317
0.385148 0.469884 0.271187
0.408196 0.471133 0.273405
0.439269 0.473295 0.277175
0.473245 0.476446 0.282529
0.506985 0.480605 0.289364
0.539063 0.485742 0.297487
0.568997 0.49179 0.30666
0.416873 0.517158 0.305857
0.417995 0.517206 0.305948
0.424979 0.517517 0.306537
0.441167 0.518319 0.308046
0.464685 0.519716 0.310642
0.492268 0.52177 0.314392
0.521196 0.524514 0.319284
0.549807 0.527956 0.325244
0.57726 0.532079 0.332154
0.454998 0.558148 0.337864
0.455777 0.558181 0.337929
0.460688 0.558394 0.338349
0.472456 0.558945 0.339431
0.490434 0.559908 0.341303
0.512681 0.561332 0.344036
0.537145 0.563247 0.347648
0.56227 0.565669 0.35212
0.587078 0.568602 0.357398
0.488658 0.59397 0.36682
0.489226 0.593994 0.366869
0.492832 0.594147 0.367181
0.501658 0.594546 0.367987
0.515612 0.595242 0.36939
0.53359 0.596276 0.371449
0.554147 0.597671 0.374195
0.575987 0.599447 0.37763
0.598154 0.60161 0.381734
-0.0684931 -0.0684931 0.243102
0.101721 -0.0684931 0.243287
0.221589 0.0553901 0.244473
0.309827 0.147435 0.247476
0.377755 0.201577 0.252512
0.432877 0.244876 0.259529
0.479219 0.281793 0.268282
0.519159 0.314226 0.278428
0.55422 0.343249 0.289603
0.0660268 0.106089 0.244089
0.124541 0.111292 0.244272
0.226266 0.13699 0.245444
0.311567 0.17683 0.248413
0.378621 0.217212 0.253397
0.433383 0.254468 0.260344
0.479545 0.288214 0.26902
0.519384 0.318791 0.279087
0.554383 0.346639 0.290186
0.179501 0.246029 0.250218
0.193841 0.246778 0.250387
0.251479 0.251479 0.251479
0.322116 0.262599 0.254249
0.38406 0.279272 0.258915
0.436601 0.299541 0.265451
0.481632 0.321551 0.27366
0.520828 0.344007 0.283244
0.555432 0.366144 0.293872
0.259679 0.340727 0.264337
0.265323 0.340992 0.264481
0.295142 0.342697 0.26541
0.345024 0.346983 0.267776
0.396935 0.35409 0.271788
0.444514 0.363835 0.277464
0.486864 0.375761 0.284678
0.524487 0.389306 0.29321
0.558105 0.40392 0.302796
0.322254 0.412114 0.284719
0.32514 0.412244 0.284834
0.341985 0.413082 0.285574
0.375579 0.415225 0.287467
0.416244 0.418889 0.290701
0.457125 0.424132 0.295331
0.495485 0.430889 0.3013
0.530637 0.439006 0.308473
0.562654 0.448271 0.316668
0.373688 0.469403 0.308557
0.3754 0.469478 0.308646
0.385835 0.469964 0.309218
0.408743 0.471212 0.310684
0.439674 0.473372 0.313209
0.473539 0.476521 0.31686
0.507199 0.480677 0.321628
0.539222 0.48581 0.327447
0.569118 0.491854 0.334205
0.417376 0.517209 0.333606
0.418492 0.517257 0.333674
0.425444 0.517568 0.334113
0.441565 0.51837 0.335243
0.465004 0.519766 0.337198
0.492514 0.521819 0.340047
0.521384 0.524562 0.343809
0.549951 0.528002 0.348456
0.577372 0.532124 0.35393
0.455347 0.558183 0.35852
0.456123 0.558216 0.358572
0.461019 0.558429 0.358912
0.472752 0.55898 0.359789
0.490684 0.559943 0.361311
0.512884 0.561366 0.363544
0.537308 0.56328 0.366514
0.562399 0.565702 0.37022
0.587181 0.568634 0.374633
0.488912 0.593995 0.382613
0.489479 0.594019 0.382654
0.493077 0.594173 0.382921
0.501883 0.594571 0.38361
0.51581 0.595267 0.384811
0.533757 0.5963 0.386578
0.554285 0.597696 0.388944
0.5761 0.599471 0.391916
0.598247 0.601634 0.395487
0.109708 -0.0684931 0.338125
0.144002 -0.0667615 0.33819
0.231593 0.086002 0.338609
0.31363 0.154654 0.339687
0.37966 0.20509 0.341555
0.433992 0.246959 0.344281
0.479938 0.283164 0.347884
0.519655 0.315193 0.352345
0.55458 0.343963 0.357612
0.130049 0.119449 0.338473
0.156582 0.123614 0.338537
0.235747 0.145375 0.338955
0.315301 0.18166 0.340029
0.38051 0.220107 0.341891
0.434493 0.256333 0.344607
0.480262 0.289493 0.348198
0.519879 0.319712 0.352646
0.554742 0.347328 0.357896
0.195905 0.248084 0.340695
0.207668 0.248815 0.340758
0.258614 0.253409 0.341166
0.325461 0.264298 0.342216
0.38585 0.280682 0.344036
0.437677 0.300672 0.346694
0.482335 0.322445 0.350211
0.521316 0.344715 0.354569
0.555787 0.366709 0.359721
0.266194 0.341459 0.346232
0.271447 0.341723 0.346292
0.299581 0.343415 0.346677
0.34767 0.34767 0.34767
0.398512 0.354729 0.349391
0.445511 0.364413 0.351908
0.487533 0.376274 0.355245
0.52496 0.389754 0.35939
0.558452 0.404309 0.364301
0.325595 0.412473 0.355265
0.328383 0.412602 0.355319
0.344714 0.413438 0.35567
0.377526 0.415573 0.356576
0.417552 0.419225 0.358149
0.45801 0.424451 0.360453
0.496103 0.431189 0.363517
0.531083 0.439283 0.367334
0.562987 0.448524 0.371875
0.375672 0.469611 0.36738
0.37735 0.469686 0.367428
0.387594 0.47017 0.367739
0.41015 0.471416 0.368541
0.440719 0.473572 0.369935
0.474297 0.476715 0.371983
0.507753 0.480863 0.374715
0.539635 0.485988 0.378132
0.569432 0.492022 0.382216
0.41867 0.517342 0.38185
0.419772 0.51739 0.381891
0.426641 0.5177 0.38216
0.442591 0.518501 0.382854
0.465826 0.519895 0.384064
0.493149 0.521946 0.385844
0.52187 0.524686 0.388227
0.550325 0.528122 0.39122
0.577663 0.532239 0.394815
0.456247 0.558274 0.397885
0.457017 0.558307 0.397921
0.461872 0.55852 0.39815
0.473516 0.559071 0.398743
0.49133 0.560033 0.399778
0.51341 0.561454 0.401304
0.537727 0.563367 0.403353
0.562733 0.565787 0.405937
0.587447 0.568717 0.409055
0.489569 0.594061 0.4148
0.490132 0.594084 0.41483
0.493709 0.594238 0.415024
0.502465 0.594636 0.415527
0.516322 0.595332 0.416405
0.534191 0.596365 0.417704
0.554645 0.597759 0.419452
0.576395 0.599533 0.421665
0.598487 0.601695 0.424346
0.167025 0.0577011 0.409494
0.183734 0.0707633 0.409525
0.246703 0.115112 0.40973
0.319965 0.165748 0.41026
0.382925 0.210908 0.411184
0.435924 0.250502 0.41255
0.481191 0.285527 0.414387
0.520522 0.316868 0.416711
0.555209 0.345205 0.419522
0.176272 0.137458 0.409664
0.191187 0.140596 0.409695
0.250189 0.157946 0.4099
0.321528 0.189458 0.410428
0.383748 0.224959 0.411351
0.436415 0.259517 0.412715
0.481511 0.291698 0.414549
0.520744 0.32131 0.416869
0.55537 0.348529 0.419676
0.218284 0.251582 0.410757
0.227317 0.252284 0.410788
0.269897 0.256701 0.410991
0.331074 0.267209 0.411514
0.388924 0.28311 0.412427
0.439542 0.302627 0.413777
0.483561 0.323998 0.415592
0.52217 0.345948 0.417889
0.556409 0.367696 0.420669
0.2766 0.342734 0.413541
0.281287 0.342995 0.413571
0.306905 0.344664 0.413768
0.352154 0.348866 0.414277
0.401229 0.355843 0.415166
0.447243 0.365423 0.416481
0.488701 0.377171 0.418249
0.525785 0.390539 0.420488
0.55906 0.404989 0.4232
0.3312 0.413101 0.41826
0.333831 0.41323 0.418289
0.349333 0.41406 0.418477
0.38086 0.416183 0.418963
0.419813 0.419813 0.419813
0.459549 0.42501 0.42107
0.497181 0.431713 0.422762
0.531864 0.439768 0.424906
0.56357 0.448968 0.427506
0.379068 0.469974 0.424932
0.380691 0.470049 0.424959
0.390616 0.470532 0.425136
0.412577 0.471774 0.425592
0.442531 0.473923 0.426389
0.475618 0.477055 0.427568
0.508721 0.48119 0.429159
0.540356 0.4863 0.431175
0.569981 0.492317 0.433624
0.420907 0.517575 0.433402
0.421985 0.517623 0.433427
0.428713 0.517932 0.43359
0.444371 0.518732 0.43401
0.467255 0.520123 0.434745
0.494257 0.522169 0.435834
0.522719 0.524904 0.437304
0.55098 0.528333 0.43917
0.578173 0.532442 0.44144
0.457812 0.558434 0.443403
0.45857 0.558467 0.443426
0.463356 0.558679 0.443573
0.474846 0.559229 0.443955
0.492456 0.56019 0.444624
0.514328 0.56161 0.445615
0.538461 0.56352 0.446954
0.563317 0.565936 0.448657
0.587914 0.568862 0.450732
0.490715 0.594176 0.454612
0.491271 0.5942 0.454633
0.494811 0.594353 0.454766
0.503481 0.594751 0.455109
0.517215 0.595446 0.45571
0.534949 0.596478 0.456603
0.555274 0.597871 0.457809
0.57691 0.599643 0.459346
0.598909 0.601803 0.461222
0.209441 0.114098 0.466726
0.219459 0.118645 0.466745
0.265229 0.141912 0.466863
0.328704 0.179628 0.467169
0.387615 0.218878 0.467706
0.438745 0.255538 0.468502
0.483036 0.288947 0.469581
0.521804 0.319318 0.470957
0.556143 0.347033 0.47264
0.214855 0.157433 0.466824
0.224256 0.159771 0.466843
0.268055 0.173275 0.466961
0.330131 0.199787 0.467267
0.388401 0.231712 0.467803
0.439224 0.264069 0.468599
0.483351 0.294898 0.469677
0.522024 0.323648 0.471051
0.556303 0.350296 0.472733
0.243211 0.256557 0.467458
0.249997 0.25722 0.467476
0.284461 0.261398 0.467593
0.338892 0.271388 0.467897
0.393348 0.286621 0.46843
0.442269 0.305474 0.469222
0.485365 0.326272 0.470293
0.523433 0.347762 0.47166
0.557333 0.369153 0.473332
0.290191 0.344609 0.469083
0.294239 0.344864 0.469101
0.316877 0.346502 0.469216
0.358494 0.350627 0.469516
0.405158 0.357484 0.470041
0.449778 0.366913 0.47082
0.490421 0.378496 0.471876
0.527007 0.3917 0.473223
0.559961 0.405997 0.47487
0.339008 0.414032 0.471882
0.341437 0.41416 0.471899
0.355853 0.414983 0.472012
0.385645 0.417087 0.472304
0.423101 0.420686 0.472815
0.461807 0.42584 0.473574
0.498771 0.432491 0.474603
0.533019 0.440489 0.475916
0.564435 0.449628 0.477523
0.383937 0.470516 0.475932
0.385484 0.47059 0.475949
0.394969 0.47107 0.476057
0.416101 0.472306 0.476338
0.445182 0.474444 0.47683
0.477562 0.477562 0.477562
0.510151 0.481678 0.478552
0.541425 0.486764 0.479818
0.570797 0.492756 0.481367
0.424161 0.517922 0.481226
0.425206 0.51797 0.481242
0.431735 0.518279 0.481345
0.446976 0.519075 0.481612
0.469357 0.520462 0.482081
0.495891 0.522502 0.482777
0.523976 0.525228 0.483721
0.55195 0.528648 0.484927
0.578931 0.532745 0.486404
0.460107 0.558672 0.487691
0.460849 0.558705 0.487706
0.465535 0.558918 0.487803
0.476803 0.559466 0.488054
0.494118 0.560425 0.488495
0.515686 0.561842 0.489151
0.539549 0.563748 0.49004
0.564184 0.566159 0.491177
0.588607 0.569079 0.492571
0.492403 0.594348 0.495203
0.492952 0.594372 0.495217
0.496437 0.594525 0.495307
0.504982 0.594922 0.495542
0.518538 0.595617 0.495953
0.536073 0.596646 0.496565
0.556207 0.598037 0.497395
0.577677 0.599807 0.498457
0.599537 0.601963 0.499759
0.244889 0.14886 0.514479
0.251548 0.151507 0.514491
0.285512 0.166539 0.514566
0.339481 0.195143 0.514763
0.393688 0.228632 0.515107
0.44248 0.261976 0.515619
0.485506 0.29342 0.516315
0.523532 0.322565 0.517206
0.557405 0.349476 0.518301
0.248448 0.177767 0.514542
0.254846 0.17953 0.514553
0.287771 0.19003 0.514629
0.340757 0.211981 0.514825
0.394428 0.240129 0.515169
0.442942 0.269927 0.515681
0.485813 0.299095 0.516376
0.523748 0.326752 0.517267
0.557563 0.35266 0.518362
0.268512 0.262922 0.514947
0.273632 0.263539 0.514959
0.301188 0.267431 0.515034
0.348641 0.276795 0.51523
0.399096 0.291207 0.515572
0.445882 0.309227 0.516082
0.487783 0.329293 0.516775
0.525136 0.350187 0.517663
0.558582 0.371108 0.518753
0.305987 0.347113 0.515993
0.309409 0.347362 0.516004
0.32899 0.348959 0.516079
0.366543 0.352983 0.516272
0.410292 0.359682 0.516612
0.453146 0.368913 0.517117
0.492728 0.380278 0.517803
0.528655 0.393265 0.518682
0.56118 0.407358 0.519763
0.348746 0.415291 0.517807
0.350945 0.415417 0.517818
0.364111 0.41623 0.517892
0.391834 0.418309 0.518082
0.427431 0.421866 0.518416
0.464816 0.426964 0.518913
0.500907 0.433545 0.519587
0.534579 0.441465 0.520452
0.565606 0.450524 0.521515
0.390228 0.471251 0.520463
0.391682 0.471324 0.520474
0.400628 0.471801 0.520545
0.420727 0.473028 0.520731
0.448697 0.475152 0.521057
0.48016 0.478249 0.521541
0.512074 0.482339 0.5222
0.542869 0.487395 0.523044
0.571902 0.493353 0.524083
0.428447 0.518395 0.523988
0.42945 0.518442 0.523999
0.435725 0.51875 0.524068
0.450433 0.519543 0.524248
0.472161 0.520924 0.524563
0.498084 0.522955 0.525032
0.52567 0.52567 0.52567
0.553262 0.529076 0.526488
0.579957 0.533157 0.527494
0.463164 0.558997 0.528374
0.463885 0.55903 0.528384
0.468441 0.559242 0.528451
0.47942 0.559789 0.528623
0.496348 0.560745 0.528926
0.517514 0.562157 0.529377
0.541018 0.564058 0.52999
0.565357 0.566463 0.530775
0.589547 0.569375 0.531743
0.494668 0.594583 0.533579
0.495205 0.594607 0.533589
0.498619 0.59476 0.533653
0.506999 0.595156 0.533817
0.520318 0.595849 0.534106
0.537589 0.596876 0.534536
0.557468 0.598264 0.53512
0.578715 0.60003 0.53587
0.600388 0.602183 0.536793
0.275842 0.17686 0.55541
0.280568 0.178645 0.555418
0.306362 0.189263 0.55547
0.351817 0.211404 0.555605
0.401023 0.23972 0.555841
0.447111 0.269638 0.556193
0.488611 0.298886 0.556672
0.525722 0.326597 0.557288
0.559013 0.352541 0.558047
0.278353 0.19768 0.555453
0.282952 0.199036 0.555461
0.308167 0.207285 0.555513
0.352942 0.225375 0.555648
0.401711 0.249877 0.555884
0.447552 0.276956 0.556236
0.48891 0.304244 0.556715
0.525933 0.330614 0.55733
0.559169 0.355627 0.558089
0.29312 0.270506 0.555732
0.297043 0.271072 0.55574
0.319083 0.274653 0.555791
0.359932 0.283322 0.555926
0.406064 0.296803 0.556161
0.450368 0.313857 0.556512
0.490823 0.333056 0.55699
0.527293 0.35323 0.557604
0.560173 0.373576 0.55836
0.323064 0.350251 0.556451
0.325926 0.350492 0.556459
0.342645 0.352039 0.55651
0.376048 0.355941 0.556643
0.416559 0.362448 0.556878
0.457338 0.371436 0.557226
0.495633 0.382532 0.557701
0.530744 0.395249 0.558311
0.562734 0.409087 0.559062
0.360026 0.416893 0.557704
0.361988 0.417017 0.557712
0.37384 0.417817 0.557763
0.399299 0.419865 0.557895
0.432763 0.42337 0.558126
0.468577 0.428396 0.558471
0.503601 0.434889 0.55894
0.536558 0.442712 0.559543
0.567098 0.451668 0.560286
0.397808 0.472191 0.55955
0.399158 0.472265 0.559558
0.407495 0.472737 0.559608
0.426406 0.473954 0.559738
0.453067 0.476059 0.559965
0.483423 0.47913 0.560304
0.514505 0.483187 0.560766
0.544705 0.488204 0.561359
0.573312 0.494118 0.56209
0.433728 0.519001 0.562023
0.434682 0.519049 0.562031
0.440657 0.519354 0.56208
0.454732 0.520143 0.562206
0.475674 0.521517 0.562429
0.500849 0.523537 0.562761
0.527817 0.526238 0.563212
0.554931 0.529626 0.563792
0.581267 0.533687 0.564507
0.466983 0.559415 0.565134
0.467679 0.559448 0.565141
0.472077 0.559659 0.565189
0.482705 0.560204 0.565312
0.499157 0.561156 0.565528
0.519827 0.562563 0.565851
0.542885 0.564457 0.566289
0.566853 0.566853 0.566853
0.590749 0.569755 0.567548
0.497522 0.594885 0.568874
0.498045 0.594909 0.568881
0.50137 0.595062 0.568927
0.509546 0.595457 0.569046
0.522573 0.596148 0.569255
0.539515 0.597172 0.569567
0.559075 0.598557 0.569991
0.58004 0.600318 0.570536
0.601477 0.602465 0.571209
0.303505 0.201124 0.591189
0.307018 0.202421 0.591195
0.327052 0.210338 0.591232
0.365231 0.227822 0.591329
0.409444 0.25171 0.5915
0.452585 0.278306 0.591754
0.492342 0.305246 0.592101
0.528378 0.331373 0.592547
0.560976 0.356214 0.593097
0.305365 0.216841 0.59122
0.30881 0.217905 0.591226
0.328503 0.224481 0.591263
0.366213 0.239424 0.59136
0.410079 0.260607 0.591531
0.453004 0.284971 0.591785
0.492631 0.310258 0.592132
0.528585 0.335199 0.592578
0.561129 0.359189 0.593128
0.316594 0.279093 0.591421
0.319655 0.279607 0.591427
0.337407 0.282867 0.591464
0.37235 0.290814 0.591561
0.414095 0.303303 0.591731
0.455679 0.319301 0.591985
0.494479 0.337528 0.592331
0.529912 0.356878 0.592776
0.562115 0.376556 0.593325
0.340706 0.35401 0.591941
0.343093 0.354242 0.591946
0.357282 0.355731 0.591984
0.386707 0.359491 0.59208
0.423838 0.365775 0.59225
0.462316 0.374479 0.592502
0.499131 0.38526 0.592847
0.533282 0.397658 0.593289
0.564632 0.411194 0.593836
0.372433 0.418846 0.592849
0.374167 0.418968 0.592854
0.384724 0.419754 0.592891
0.407858 0.421763 0.592987
0.439019 0.425206 0.593155
0.473064 0.430145 0.593406
0.506853 0.436534 0.593747
0.538965 0.444238 0.594186
0.568922 0.45307 0.594729
0.406488 0.473347 0.594192
0.407728 0.47342 0.594197
0.415419 0.473887 0.594234
0.433045 0.475091 0.594328
0.458247 0.477174 0.594494
0.487336 0.480214 0.594742
0.517448 0.48423 0.595079
0.546939 0.4892 0.595513
0.575036 0.49506 0.596049
0.439928 0.51975 0.596
0.440827 0.519796 0.596006
0.44647 0.5201 0.596042
0.459833 0.520883 0.596135
0.479877 0.522248 0.596298
0.504184 0.524255 0.596542
0.530424 0.526937 0.596873
0.556968 0.530304 0.5973
0.582872 0.534341 0.597828
0.471537 0.559932 0.598291
0.472203 0.559964 0.598296
0.476422 0.560174 0.598331
0.486644 0.560717 0.598422
0.502544 0.561664 0.598582
0.522631 0.563065 0.598821
0.545157 0.56495 0.599146
0.568681 0.567336 0.599564
0.592221 0.570225 0.600081
0.50096 0.595259 0.601068
0.501466 0.595283 0.601073
0.504689 0.595435 0.601108
0.512626 0.595828 0.601196
0.525307 0.596517 0.601352
0.541858 0.597539 0.601585
0.561037 0.598918 0.601902
0.581662 0.600674 0.60231
0.602814 0.602814 0.602814
