sample/src/main/assets/lut/sdr2pq/NBCU_FinalCut_DL_Adobe_v1.cube
TITLE "SDR-BT.709 to PQ-BT.2100 Display-Light Conversion 3D Look-Up-Table"
# site: https://github.com/digitaltvguy/NBCUniversal-UHD-HDR-SDR-Single-Master-Production-Workflow-Recommendation-LUTs/tree/main
# PLEASE DO NOT ALTER THE LINES BELOW
# 
# Â© 2020 NBCUniversal, LLC - Please do not remove this line
#
# Built using tools from and in collaboration with Cromorama and Nick Shaw - the creators of ORION-CONVERT
#
#
# Parameters designed by Chris Seeger, NBCU Advanced Technology (chris.seeger@nbcuni.com)
# In collaboration with Michael Drazin, NBCU Sports Group (michael.drazin@nbcuni.com)
#
# 100% SDR maps to 58% PQ 
# SDR 100-109% preserved into PQ above 58% (preserves additional color volume from SDR)
#
#
# No Matrix Compensation (so make sure your device is using the correct matrix)
#
# Type III LUT - Full Range Processing for Narrow Range Signals
# Unscaled code values in and out
LUT_3D_SIZE 33
# 2021-04-08
# Input and Output values have been changed from narrow range encoding to extended full range encoding
# According to formula Full range value = (-16 + (1023*NarrowRangeValue)/4)/219
# Narrow range filename was 4-NBCU_SDR2PQ_DL_v1.cube
DOMAIN_MIN -0.0730594 -0.0730594 -0.0730594
DOMAIN_MAX 1.09475 1.09475 1.09475
-0.0684931 -0.0684931 -0.0684931
-0.0684931 -0.0684931 -0.0684931
-0.0684931 -0.0684931 -0.0684931
-0.0613264 -0.0684931 -0.0684931
0.0610508 -0.0684931 -0.0684931
0.116093 -0.0684931 -0.0684931
0.155162 -0.0684931 -0.0684931
0.187921 -0.0666153 -0.0684931
0.216709 0.0233022 -0.0684931
0.242591 0.0784563 -0.0684931
0.266191 0.105453 -0.0684931
0.287922 0.126248 -0.0684931
0.308084 0.143951 -0.0559834
0.326903 0.159715 -0.00965742
0.344554 0.174108 0.057783
0.361179 0.187454 0.0794494
0.376895 0.199962 0.0954836
0.391797 0.211773 0.108823
0.405967 0.22299 0.120527
0.419474 0.23369 0.13111
0.432378 0.243932 0.140866
0.444729 0.253766 0.149978
0.456574 0.26323 0.158569
0.467952 0.272357 0.166726
0.478898 0.281175 0.174514
0.489443 0.289709 0.181983
0.499615 0.297977 0.18917
0.509439 0.306 0.196106
0.518937 0.313793 0.202815
0.528131 0.32137 0.20932
0.537039 0.328744 0.215636
0.545676 0.335927 0.22178
0.55406 0.342929 0.227762
-0.0684931 -0.0613805 -0.0684931
-0.058183 -0.0552004 -0.0684931
-0.0416985 -0.0535911 -0.0684931
0.0144452 -0.0519227 -0.0684931
0.0821756 -0.0436719 -0.0684931
0.124329 -0.0077769 -0.0684931
0.15976 0.0525006 -0.0684931
0.190871 0.076574 -0.0684931
0.218759 0.0962067 -0.0684931
0.244094 0.113577 -0.0684931
0.267336 0.129452 -0.0684931
0.288822 0.144206 -0.0664665
0.308808 0.158059 -0.0464403
0.327495 0.171155 0.0334026
0.345047 0.183598 0.0650441
0.361596 0.195467 0.0839927
0.377251 0.206822 0.0988153
0.392104 0.217714 0.111446
0.406234 0.228186 0.122678
0.419708 0.238271 0.132924
0.432584 0.248001 0.142425
0.444913 0.257403 0.151337
0.456738 0.266499 0.159768
0.468099 0.275311 0.167794
0.47903 0.283856 0.175473
0.489563 0.292151 0.182849
0.499724 0.300212 0.189957
0.509539 0.308051 0.196824
0.519029 0.315682 0.203474
0.528215 0.323114 0.209926
0.537116 0.330359 0.216197
0.545748 0.337427 0.222299
0.554126 0.344325 0.228245
-0.0684931 -0.0367596 -0.0684931
-0.0505113 -0.020666 -0.0684931
-0.027395 -0.0139223 -0.0684931
0.0355152 0.00480507 -0.0684931
0.0859684 0.0313664 -0.0684931
0.126106 0.0516293 -0.0684931
0.160795 0.0702327 -0.0684931
0.191546 0.0876021 -0.0684931
0.219232 0.103924 -0.0684931
0.244443 0.119328 -0.0684931
0.267603 0.133917 -0.0684931
0.289031 0.147777 -0.0649349
0.308976 0.160981 -0.0437525
0.327634 0.173589 0.0371434
0.345163 0.185657 0.0665717
0.361693 0.197229 0.0849978
0.377334 0.208347 0.0995666
0.392176 0.219046 0.112043
0.406296 0.229357 0.123172
0.419763 0.23931 0.133342
0.432633 0.248928 0.142785
0.444956 0.258234 0.151652
0.456777 0.267248 0.160046
0.468134 0.275989 0.168042
0.479062 0.284473 0.175696
0.489591 0.292715 0.18305
0.49975 0.300728 0.19014
0.509562 0.308526 0.196992
0.51905 0.316119 0.203628
0.528235 0.323518 0.210068
0.537134 0.330734 0.216328
0.545765 0.337775 0.22242
0.554142 0.344649 0.228358
-0.0684931 0.0392134 -0.0684931
-0.0407271 0.0485481 -0.0684931
0.0179943 0.0503979 -0.0684931
0.0467875 0.052138 -0.0684931
0.0894547 0.058778 -0.0684931
0.127817 0.0695453 -0.0684931
0.161806 0.0825799 -0.0684931
0.192209 0.096519 -0.0684931
0.219698 0.110621 -0.0684931
0.244787 0.12452 -0.0684931
0.267866 0.138048 -0.0684931
0.289239 0.151135 -0.0633588
0.309143 0.163759 -0.0408426
0.327771 0.175922 0.0404157
0.345277 0.187641 0.0680315
0.36179 0.198935 0.0859732
0.377416 0.209828 0.100301
0.392247 0.220343 0.112629
0.406358 0.230502 0.123657
0.419817 0.240326 0.133753
0.43268 0.249836 0.143139
0.444998 0.259049 0.151962
0.456814 0.267984 0.16032
0.468168 0.276656 0.168287
0.479092 0.28508 0.175916
0.489619 0.293269 0.183249
0.499775 0.301236 0.190321
0.509585 0.308993 0.197157
0.519071 0.31655 0.20378
0.528254 0.323917 0.210208
0.537152 0.331104 0.216457
0.545781 0.338118 0.22254
0.554157 0.344969 0.22847
-0.0684931 0.098929 -0.0684931
0.0508945 0.1014 -0.0684931
0.0642662 0.101963 -0.0684931
0.0741935 0.102514 -0.0684931
0.102176 0.104821 -0.0684931
0.13466 0.109229 -0.0684931
0.165981 0.115631 -0.0684931
0.194989 0.123662 -0.0684931
0.221667 0.132873 -0.0684931
0.246246 0.142855 -0.0684931
0.268986 0.153279 -0.0684931
0.290122 0.163907 -0.0557739
0.309856 0.174573 -0.0229113
0.328356 0.185164 0.0515118
0.345765 0.195608 0.0737825
0.362202 0.205859 0.0899508
0.377769 0.21589 0.10334
0.392551 0.225686 0.115077
0.406623 0.235241 0.125694
0.42005 0.244553 0.135486
0.432886 0.253626 0.14464
0.445181 0.262464 0.153277
0.456977 0.271074 0.161485
0.468314 0.279463 0.169328
0.479224 0.28764 0.176853
0.489739 0.295612 0.184098
0.499884 0.303387 0.191093
0.509685 0.310973 0.197863
0.519163 0.318378 0.204428
0.528338 0.32561 0.210806
0.537229 0.332674 0.21701
0.545852 0.339579 0.223053
0.554223 0.346331 0.228947
0.0549731 0.143846 -0.0684931
0.0927344 0.145018 -0.0684931
0.0984685 0.14529 -0.0684931
0.103593 0.145558 -0.0684931
0.12141 0.146697 -0.0684931
0.14664 0.148952 -0.0684931
0.173776 0.152406 -0.0684931
0.200347 0.157029 -0.0684931
0.225528 0.162706 -0.0684931
0.249138 0.169274 -0.0684931
0.27122 0.176555 -0.0562882
0.291892 0.184373 -0.0319142
0.311288 0.192573 0.0431763
0.329535 0.201027 0.0670049
0.34675 0.209627 0.0835928
0.363035 0.218292 0.0971786
0.378482 0.226958 0.109041
0.393167 0.235577 0.119755
0.407159 0.244115 0.129634
0.42052 0.252545 0.13887
0.433302 0.26085 0.147587
0.44555 0.269018 0.155874
0.457308 0.27704 0.163795
0.468611 0.284911 0.171398
0.479492 0.29263 0.17872
0.489982 0.300195 0.185792
0.500105 0.307609 0.192638
0.509886 0.314872 0.199279
0.519347 0.321988 0.20573
0.528508 0.328959 0.212007
0.537386 0.335789 0.218122
0.545997 0.342481 0.224086
0.554357 0.34904 0.229908
0.108292 0.181932 -0.0684931
0.124946 0.182613 -0.0684931
0.128255 0.182772 -0.0684931
0.131366 0.182929 -0.0684931
0.143203 0.183599 -0.0684931
0.16219 0.184941 -0.0684931
0.184721 0.187039 -0.0684931
0.208212 0.189923 -0.0643559
0.231348 0.193578 -0.0558377
0.253569 0.197958 -0.0410499
0.27468 0.202992 0.019848
0.294653 0.208593 0.0517095
0.313533 0.21467 0.0696658
0.33139 0.221134 0.0838238
0.348304 0.2279 0.096029
0.364353 0.234892 0.107001
0.379611 0.242046 0.117102
0.394144 0.249304 0.126543
0.408011 0.256622 0.135457
0.421268 0.263961 0.143936
0.433963 0.27129 0.152045
0.446139 0.278584 0.159833
0.457835 0.285823 0.167337
0.469084 0.292994 0.174589
0.47992 0.300084 0.181612
0.490369 0.307083 0.188425
0.500457 0.313987 0.195046
0.510208 0.32079 0.20149
0.519642 0.327489 0.207767
0.528779 0.334083 0.213891
0.537635 0.340569 0.219869
0.546228 0.34695 0.22571
0.554571 0.353223 0.231422
0.14268 0.215304 -0.044299
0.152797 0.215746 -0.0420296
0.154962 0.215849 -0.0414727
0.157041 0.215951 -0.0409107
0.165311 0.216388 -0.0383715
0.179622 0.217269 -0.032379
0.197939 0.218659 -0.0178677
0.21819 0.220592 0.0272133
0.238971 0.223083 0.044732
0.259496 0.226125 0.0582754
0.279375 0.229694 0.0701209
0.298439 0.233754 0.080951
0.316634 0.238259 0.0910694
0.333966 0.243159 0.100641
0.350471 0.248401 0.109766
0.366197 0.253931 0.118512
0.381194 0.259699 0.126928
0.395516 0.265659 0.13505
0.40921 0.271767 0.142906
0.422323 0.277986 0.15052
0.434896 0.284283 0.15791
0.44697 0.290629 0.165094
0.458578 0.296999 0.172084
0.469753 0.303374 0.178894
0.480524 0.309736 0.185534
0.490917 0.316069 0.192014
0.500956 0.322364 0.198342
0.510664 0.328609 0.204527
0.52006 0.334797 0.210575
0.529162 0.340922 0.216493
0.537989 0.346979 0.222288
0.546554 0.352965 0.227964
0.554873 0.358875 0.233527
0.170838 0.245098 0.0669294
0.177735 0.245406 0.0680942
0.179262 0.245478 0.0683627
0.180743 0.24555 0.068627
0.186781 0.245855 0.0697424
0.197733 0.246473 0.0719239
0.212542 0.247452 0.0752009
0.229746 0.248824 0.0794806
0.248104 0.250607 0.0846007
0.26677 0.252807 0.0903772
0.285237 0.255422 0.0966358
0.303223 0.258436 0.103228
0.320588 0.261831 0.110035
0.337274 0.26558 0.116966
0.353268 0.269653 0.123951
0.368585 0.274017 0.130941
0.383253 0.278637 0.137898
0.397304 0.283481 0.144796
0.410775 0.288515 0.151617
0.423702 0.293709 0.158347
0.436119 0.299034 0.164977
0.44806 0.304463 0.171504
0.459554 0.309972 0.177922
0.470632 0.315541 0.18423
0.481318 0.32115 0.190429
0.491638 0.326783 0.196518
0.501613 0.332425 0.202499
0.511264 0.338064 0.208374
0.52061 0.34369 0.214145
0.529669 0.349292 0.219814
0.538455 0.354864 0.225384
0.546986 0.360399 0.230856
0.555273 0.365891 0.236234
0.195439 0.272051 0.100154
0.200462 0.272277 0.100737
0.201593 0.27233 0.100873
0.202698 0.272383 0.101007
0.207268 0.272607 0.101579
0.215813 0.273062 0.102723
0.22783 0.273784 0.104503
0.242354 0.2748 0.106936
0.258399 0.276128 0.110002
0.275175 0.277777 0.113651
0.292136 0.279752 0.117815
0.308933 0.28205 0.122418
0.325358 0.284662 0.127383
0.341296 0.287577 0.132636
0.356691 0.290778 0.138111
0.371523 0.294246 0.143752
0.385794 0.29796 0.149509
0.399519 0.301897 0.155342
0.412719 0.306035 0.161218
0.425418 0.31035 0.16711
0.437643 0.314821 0.172996
0.449421 0.319425 0.178859
0.460775 0.324143 0.184686
0.471732 0.328955 0.190466
0.482313 0.333844 0.196191
0.492542 0.338794 0.201854
0.502437 0.34379 0.207452
0.512017 0.34882 0.212981
0.521301 0.35387 0.218439
0.530304 0.358932 0.223823
0.539042 0.363996 0.229134
0.547528 0.369054 0.234371
0.555776 0.374098 0.239534
0.217582 0.29668 0.123889
0.221403 0.296852 0.124273
0.222273 0.296893 0.124363
0.223126 0.296933 0.124452
0.226689 0.297104 0.124831
0.233484 0.297451 0.125596
0.243315 0.298003 0.126798
0.255573 0.298781 0.128467
0.269516 0.299802 0.130609
0.284473 0.301076 0.133213
0.299914 0.302608 0.136254
0.315466 0.304402 0.139697
0.330878 0.306454 0.1435
0.345993 0.308761 0.147616
0.360716 0.311314 0.152001
0.374998 0.314101 0.15661
0.388815 0.317112 0.161402
0.402162 0.320331 0.16634
0.415045 0.323743 0.17139
0.427477 0.327332 0.176524
0.439476 0.331082 0.181716
0.45106 0.334977 0.186945
0.462248 0.339 0.192193
0.47306 0.343136 0.197445
0.483517 0.347371 0.202688
0.493636 0.35169 0.207912
0.503435 0.356079 0.213108
0.512931 0.360528 0.21827
0.52214 0.365023 0.223391
0.531076 0.369556 0.228468
0.539754 0.374116 0.233496
0.548187 0.378695 0.238473
0.556387 0.383286 0.243396
0.237852 0.319366 0.143596
0.240854 0.319501 0.143877
0.241543 0.319532 0.143943
0.24222 0.319564 0.144008
0.245063 0.319698 0.144286
0.250564 0.31997 0.144848
0.258689 0.320404 0.145737
0.269066 0.321017 0.14698
0.281161 0.321822 0.14859
0.29443 0.32283 0.150571
0.308399 0.324047 0.152913
0.3227 0.325477 0.155601
0.337065 0.327121 0.158614
0.351308 0.328978 0.161924
0.365308 0.331044 0.165502
0.378986 0.333314 0.169316
0.392299 0.33578 0.173337
0.405223 0.338434 0.177535
0.417749 0.341266 0.181881
0.429879 0.344266 0.186349
0.441618 0.347421 0.190916
0.452979 0.35072 0.19556
0.463976 0.354151 0.200264
0.474622 0.357702 0.205009
0.484933 0.361361 0.209782
0.494925 0.365117 0.21457
0.504612 0.368957 0.219362
0.514009 0.372873 0.224149
0.52313 0.376853 0.228924
0.531989 0.380888 0.23368
0.540597 0.384969 0.238411
0.548967 0.389088 0.243112
0.557111 0.393237 0.247779
0.256615 0.340399 0.160933
0.259033 0.340507 0.16115
0.25959 0.340533 0.161201
0.260139 0.340558 0.161252
0.262454 0.340666 0.161467
0.266979 0.340884 0.161903
0.273764 0.341233 0.162595
0.282594 0.341726 0.163566
0.293095 0.342375 0.164832
0.304839 0.34319 0.166399
0.317424 0.344175 0.168267
0.330508 0.345336 0.170431
0.343824 0.346675 0.172878
0.357173 0.348194 0.175595
0.370416 0.34989 0.178561
0.383454 0.351761 0.181758
0.396224 0.353805 0.185162
0.408688 0.356014 0.188751
0.420822 0.358384 0.192504
0.432615 0.360907 0.196398
0.444067 0.363576 0.200415
0.455179 0.366381 0.204533
0.46596 0.369315 0.208737
0.476418 0.372368 0.21301
0.486565 0.375532 0.217336
0.496412 0.378796 0.221705
0.505971 0.382152 0.226104
0.515256 0.385591 0.230522
0.524277 0.389105 0.234951
0.533045 0.392686 0.239382
0.541574 0.396324 0.24381
0.549872 0.400014 0.248228
0.557951 0.403747 0.252631
0.274121 0.360008 0.176647
0.276108 0.360096 0.176821
0.276567 0.360117 0.176862
0.27702 0.360138 0.176902
0.278937 0.360226 0.177075
0.282711 0.360405 0.177426
0.288436 0.36069 0.177983
0.295997 0.361095 0.178767
0.305136 0.361628 0.179792
0.315527 0.362297 0.181067
0.326838 0.363108 0.182596
0.338765 0.364066 0.184376
0.351057 0.365173 0.186405
0.363513 0.366432 0.188671
0.375984 0.367843 0.191166
0.388359 0.369405 0.193874
0.40056 0.371116 0.196782
0.412534 0.372974 0.199871
0.424247 0.374974 0.203127
0.435677 0.377113 0.206532
0.446815 0.379384 0.210069
0.457654 0.381782 0.213722
0.468197 0.384302 0.217477
0.478447 0.386935 0.221317
0.488411 0.389677 0.225231
0.498097 0.392518 0.229205
0.507514 0.395453 0.233229
0.516672 0.398474 0.237291
0.52558 0.401575 0.241383
0.534248 0.404747 0.245497
0.542686 0.407985 0.249624
0.550903 0.411282 0.253758
0.558909 0.414632 0.257893
0.290554 0.378375 0.191147
0.292212 0.378449 0.19129
0.292597 0.378466 0.191323
0.292976 0.378483 0.191357
0.294586 0.378556 0.191499
0.297773 0.378705 0.191788
0.30265 0.378943 0.192247
0.309167 0.379279 0.192895
0.317149 0.379723 0.193744
0.326353 0.380281 0.194804
0.33651 0.380958 0.196079
0.347359 0.38176 0.197571
0.358671 0.382688 0.199279
0.370253 0.383745 0.201197
0.381954 0.384933 0.20332
0.393655 0.386251 0.205639
0.405269 0.387698 0.208143
0.416734 0.389275 0.210821
0.428004 0.390978 0.21366
0.439049 0.392804 0.216648
0.449851 0.39475 0.219772
0.460396 0.396813 0.223017
0.470682 0.398988 0.226372
0.480706 0.40127 0.229823
0.49047 0.403653 0.23336
0.49998 0.406134 0.23697
0.509241 0.408706 0.240643
0.518259 0.411363 0.244369
0.527042 0.414101 0.24814
0.535599 0.416913 0.251946
0.543936 0.419794 0.25578
0.552063 0.422739 0.259636
0.559987 0.425741 0.263506
0.306053 0.395649 0.204684
0.307456 0.395711 0.204804
0.307782 0.395726 0.204832
0.308104 0.39574 0.20486
0.309472 0.395802 0.204979
0.312193 0.395928 0.205222
0.316386 0.396128 0.205608
0.32204 0.396412 0.206153
0.329041 0.396786 0.206869
0.33721 0.397257 0.207764
0.346333 0.39783 0.208845
0.35619 0.398509 0.210113
0.366578 0.399295 0.211569
0.377319 0.400193 0.213212
0.388264 0.401203 0.215038
0.399293 0.402327 0.217042
0.410315 0.403563 0.219216
0.421258 0.404913 0.221552
0.43207 0.406374 0.224042
0.442713 0.407946 0.226676
0.453161 0.409626 0.229443
0.463396 0.411411 0.232333
0.473407 0.413298 0.235336
0.483188 0.415285 0.23844
0.492738 0.417366 0.241636
0.502057 0.41954 0.244913
0.511148 0.4218 0.248263
0.520014 0.424144 0.251676
0.528662 0.426566 0.255144
0.537096 0.429062 0.258659
0.545324 0.431627 0.262213
0.553352 0.434258 0.2658
0.561186 0.436949 0.269413
0.320728 0.411954 0.217427
0.32193 0.412007 0.21753
0.32221 0.412019 0.217554
0.322486 0.412031 0.217577
0.323661 0.412084 0.217679
0.326006 0.412191 0.217886
0.32964 0.412362 0.218215
0.334577 0.412604 0.21868
0.340746 0.412924 0.219293
0.348015 0.413326 0.220059
0.356217 0.413816 0.220986
0.365171 0.414396 0.222077
0.3747 0.41507 0.223333
0.384641 0.41584 0.224755
0.394856 0.416707 0.22634
0.405226 0.417673 0.228086
0.415657 0.418739 0.229987
0.426074 0.419904 0.232039
0.436419 0.421168 0.234234
0.446648 0.42253 0.236566
0.456729 0.423989 0.239027
0.466639 0.425543 0.241608
0.476362 0.427191 0.244301
0.485887 0.428929 0.247097
0.495209 0.430756 0.249987
0.504324 0.432668 0.252964
0.513233 0.434662 0.256019
0.521937 0.436734 0.259143
0.530438 0.438883 0.26233
0.538741 0.441103 0.265571
0.54685 0.443391 0.268861
0.55477 0.445744 0.272191
0.562506 0.448158 0.275557
0.334672 0.427391 0.229498
0.335711 0.427437 0.229586
0.335953 0.427447 0.229607
0.336192 0.427458 0.229627
0.337211 0.427503 0.229715
0.339249 0.427595 0.229893
0.342423 0.427742 0.230177
0.34676 0.427951 0.230579
0.35222 0.428227 0.231109
0.358708 0.428574 0.231773
0.366095 0.428996 0.232577
0.374232 0.429497 0.233525
0.382968 0.43008 0.234619
0.392159 0.430746 0.23586
0.401675 0.431497 0.237247
0.411405 0.432335 0.238779
0.421255 0.43326 0.240454
0.431148 0.434274 0.242266
0.441023 0.435375 0.244212
0.450831 0.436564 0.246287
0.460536 0.437839 0.248483
0.470111 0.439201 0.250795
0.479534 0.440647 0.253217
0.488792 0.442176 0.25574
0.497875 0.443786 0.258359
0.506776 0.445475 0.261065
0.515492 0.44724 0.263851
0.524022 0.44908 0.266712
0.532367 0.450991 0.269639
0.540529 0.452971 0.272627
0.548511 0.455017 0.275668
0.556315 0.457126 0.278758
0.563947 0.459294 0.281889
0.347956 0.442049 0.240984
0.348862 0.442088 0.241061
0.349074 0.442098 0.241079
0.349282 0.442107 0.241097
0.350173 0.442146 0.241174
0.351959 0.442226 0.241329
0.354749 0.442354 0.241577
0.358582 0.442535 0.241928
0.363436 0.442775 0.24239
0.369247 0.443077 0.24297
0.375913 0.443444 0.243674
0.383314 0.443881 0.244505
0.391324 0.444388 0.245466
0.399815 0.444969 0.246558
0.408671 0.445625 0.247781
0.417786 0.446357 0.249135
0.42707 0.447166 0.250619
0.436447 0.448054 0.252229
0.445854 0.449019 0.253963
0.45524 0.450063 0.255816
0.464564 0.451185 0.257784
0.473797 0.452385 0.259863
0.482912 0.453661 0.262046
0.491893 0.455012 0.264329
0.500727 0.456438 0.266705
0.509404 0.457937 0.269168
0.517918 0.459506 0.271713
0.526267 0.461145 0.274334
0.534447 0.462851 0.277024
0.54246 0.464622 0.279777
0.550306 0.466456 0.282588
0.557987 0.46835 0.285452
0.565507 0.470301 0.288363
0.360645 0.456001 0.251957
0.361442 0.456035 0.252025
0.361628 0.456043 0.25204
0.361811 0.456051 0.252056
0.362596 0.456086 0.252123
0.364171 0.456156 0.25226
0.366639 0.456268 0.252478
0.370044 0.456427 0.252787
0.374379 0.456636 0.253194
0.3796 0.456901 0.253705
0.385629 0.457223 0.254326
0.392371 0.457606 0.25506
0.399718 0.458052 0.25591
0.407562 0.458562 0.256877
0.415797 0.459138 0.257963
0.424326 0.459782 0.259167
0.433065 0.460495 0.260489
0.441939 0.461277 0.261927
0.450884 0.462129 0.263479
0.45985 0.463051 0.265142
0.468792 0.464044 0.266913
0.477678 0.465106 0.268788
0.486481 0.466238 0.270762
0.495179 0.467438 0.272832
0.503756 0.468707 0.274993
0.512202 0.470042 0.277239
0.520506 0.471443 0.279567
0.528664 0.472908 0.281969
0.536672 0.474436 0.284442
0.544529 0.476025 0.286981
0.552232 0.477673 0.28958
0.559784 0.479378 0.292234
0.567185 0.481139 0.29494
0.372792 0.469311 0.262471
0.373497 0.469341 0.262531
0.373661 0.469349 0.262545
0.373824 0.469356 0.262558
0.374519 0.469386 0.262618
0.375918 0.469448 0.262739
0.378114 0.469546 0.262932
0.381154 0.469687 0.263206
0.385042 0.469872 0.263567
0.389748 0.470105 0.264021
0.395215 0.47039 0.264573
0.401366 0.470728 0.265225
0.408111 0.471121 0.265982
0.415358 0.471572 0.266844
0.423013 0.472082 0.267814
0.430989 0.472652 0.268891
0.439206 0.473283 0.270075
0.447592 0.473977 0.271365
0.456087 0.474733 0.27276
0.464637 0.475552 0.274259
0.4732 0.476435 0.275858
0.481739 0.47738 0.277554
0.490225 0.478389 0.279346
0.498636 0.47946 0.281228
0.506952 0.480593 0.283197
0.515159 0.481788 0.285249
0.523248 0.483043 0.287381
0.531209 0.484358 0.289587
0.539038 0.485731 0.291863
0.546731 0.487161 0.294205
0.554286 0.488647 0.296609
0.561701 0.490187 0.29907
0.568978 0.491779 0.301583
0.384443 0.482035 0.272571
0.38507 0.482062 0.272624
0.385217 0.482069 0.272636
0.385362 0.482075 0.272649
0.385982 0.482102 0.272702
0.38723 0.482157 0.27281
0.389194 0.482244 0.272982
0.391921 0.482369 0.273226
0.395422 0.482533 0.273549
0.399679 0.48274 0.273955
0.404648 0.482993 0.274448
0.41027 0.483293 0.275032
0.41647 0.483643 0.275709
0.423169 0.484044 0.276482
0.430285 0.484497 0.277352
0.43774 0.485005 0.27832
0.44546 0.485567 0.279386
0.453379 0.486185 0.280549
0.461435 0.48686 0.281809
0.469579 0.487591 0.283164
0.477767 0.48838 0.284613
0.485961 0.489225 0.286154
0.49413 0.490128 0.287783
0.502251 0.491088 0.289499
0.510302 0.492105 0.291298
0.518268 0.493179 0.293177
0.526135 0.494308 0.295132
0.533894 0.495491 0.297161
0.541539 0.496729 0.299258
0.549063 0.498021 0.301421
0.556463 0.499364 0.303646
0.563737 0.500758 0.305929
0.570884 0.502202 0.308265
0.395637 0.494222 0.282294
0.396199 0.494246 0.282342
0.396331 0.494252 0.282353
0.396461 0.494258 0.282364
0.397016 0.494282 0.282412
0.398136 0.494331 0.282509
0.399901 0.494409 0.282664
0.402358 0.49452 0.282883
0.405523 0.494666 0.283172
0.409385 0.494851 0.283537
0.413914 0.495077 0.28398
0.419062 0.495345 0.284505
0.424768 0.495658 0.285115
0.430966 0.496016 0.285811
0.437583 0.496422 0.286596
0.44455 0.496876 0.28747
0.4518 0.497379 0.288433
0.459271 0.497933 0.289486
0.466905 0.498537 0.290628
0.474654 0.499193 0.291859
0.482473 0.499901 0.293177
0.490326 0.500661 0.29458
0.498181 0.501473 0.296066
0.506012 0.502337 0.297635
0.513796 0.503253 0.299282
0.521517 0.504221 0.301006
0.529159 0.50524 0.302803
0.536713 0.50631 0.304671
0.544168 0.50743 0.306607
0.551519 0.508599 0.308607
0.558759 0.509817 0.310668
0.565887 0.511083 0.312787
0.572899 0.512396 0.31496
0.406411 0.505915 0.291674
0.406917 0.505936 0.291717
0.407035 0.505941 0.291727
0.407152 0.505946 0.291737
0.407652 0.505968 0.29178
0.408662 0.506012 0.291867
0.410255 0.506082 0.292007
0.412478 0.506181 0.292205
0.415349 0.506313 0.292466
0.418864 0.506479 0.292795
0.423002 0.506681 0.293195
0.427726 0.506922 0.29367
0.432985 0.507203 0.294221
0.438724 0.507525 0.294852
0.44488 0.507889 0.295563
0.451393 0.508297 0.296355
0.4582 0.50875 0.297229
0.465245 0.509248 0.298186
0.472474 0.509793 0.299225
0.47984 0.510383 0.300346
0.4873 0.511022 0.301548
0.494818 0.511707 0.30283
0.502362 0.51244 0.304191
0.509904 0.513221 0.305628
0.517421 0.514049 0.30714
0.524896 0.514925 0.308725
0.532312 0.515848 0.31038
0.539656 0.516818 0.312104
0.546919 0.517834 0.313892
0.554092 0.518897 0.315744
0.56117 0.520004 0.317655
0.568147 0.521157 0.319624
0.57502 0.522353 0.321646
0.416795 0.51715 0.300736
0.417253 0.517169 0.300775
0.417359 0.517174 0.300784
0.417465 0.517179 0.300793
0.417918 0.517198 0.300832
0.418831 0.517238 0.300911
0.420276 0.517301 0.301038
0.422294 0.51739 0.301217
0.424907 0.517509 0.301454
0.428117 0.517659 0.301752
0.431907 0.517841 0.302115
0.43625 0.518058 0.302546
0.441105 0.518311 0.303047
0.446425 0.518602 0.30362
0.452156 0.518931 0.304267
0.458245 0.519299 0.304988
0.464636 0.519708 0.305785
0.471278 0.520158 0.306657
0.47812 0.52065 0.307606
0.485118 0.521185 0.308631
0.49223 0.521762 0.309731
0.499421 0.522383 0.310905
0.506658 0.523047 0.312153
0.513915 0.523755 0.313474
0.521167 0.524507 0.314865
0.528396 0.525302 0.316325
0.535583 0.526141 0.317853
0.542717 0.527023 0.319445
0.549785 0.527949 0.321101
0.556778 0.528917 0.322817
0.563689 0.529927 0.324592
0.570512 0.530979 0.326423
0.577243 0.532072 0.328307
0.426817 0.527962 0.309504
0.427232 0.52798 0.30954
0.427329 0.527984 0.309548
0.427425 0.527988 0.309557
0.427836 0.528005 0.309592
0.428667 0.528041 0.309664
0.429981 0.528098 0.309779
0.43182 0.52818 0.309942
0.434206 0.528287 0.310158
0.437144 0.528422 0.31043
0.440625 0.528588 0.31076
0.444626 0.528784 0.311153
0.449115 0.529014 0.31161
0.454053 0.529277 0.312133
0.459393 0.529575 0.312723
