sample/src/main/assets/lut/sdr2pq/NBCU_RESOLVE_DL_VRT.cube
TITLE "SDR-BT.709 to PQ-BT.2100 Display-Light Conversion 3D Look-Up-Table"
# site: https://github.com/digitaltvguy/NBCUniversal-UHD-HDR-SDR-Single-Master-Production-Workflow-Recommendation-LUTs/tree/main
# PLEASE DO NOT ALTER THE LINES BELOW
# 
# © 2020 NBCUniversal, LLC - Please do not remove this line
#
# Built using tools from and in collaboration with Cromorama and Nick Shaw - the creators of ORION-CONVERT
#
#
# Parameters designed by Chris Seeger, NBCU Advanced Technology (chris.seeger@nbcuni.com)
# In collaboration with Michael Drazin, NBCU Sports Group (michael.drazin@nbcuni.com)
#
# 100% SDR maps to 58% PQ 
# SDR 100-109% preserved into PQ above 58% (preserves additional color volume from SDR)
#
#
# No Matrix Compensation (so make sure your device is using the correct matrix)
#
# Type III LUT - Full Range Processing for Narrow Range Signals
# Unscaled code values in and out
# RESOLVE 17 VIDEO RANGE TAGS
LUT_IN_VIDEO_RANGE
LUT_OUT_VIDEO_RANGE
LUT_3D_SIZE 33
0.0039101 0.0039101 0.0039101
0.0039101 0.0039101 0.0039101
0.0039101 0.0039101 0.0039101
0.0100470 0.0039101 0.0039101
0.1148392 0.0039101 0.0039101
0.1619718 0.0039101 0.0039101
0.1954268 0.0039101 0.0039101
0.2234788 0.0055181 0.0039101
0.2481302 0.0825149 0.0039101
0.2702932 0.1297436 0.0039101
0.2905014 0.1528609 0.0039101
0.3091102 0.1706677 0.0039101
0.3263751 0.1858271 0.0146222
0.3424894 0.1993261 0.0542914
0.3576042 0.2116503 0.1120410
0.3718406 0.2230789 0.1305940
0.3852980 0.2337895 0.1443242
0.3980588 0.2439034 0.1557467
0.4101927 0.2535085 0.1657687
0.4217588 0.2626708 0.1748315
0.4328082 0.2714416 0.1831854
0.4433849 0.2798622 0.1909877
0.4535278 0.2879662 0.1983441
0.4632706 0.2957819 0.2053294
0.4726435 0.3033330 0.2119987
0.4816732 0.3106400 0.2183940
0.4903836 0.3177207 0.2245481
0.4987960 0.3245906 0.2304873
0.5069298 0.3312636 0.2362329
0.5148025 0.3377519 0.2418027
0.5224299 0.3440664 0.2472115
0.5298265 0.3502172 0.2524720
0.5370055 0.3562132 0.2575951
0.0039101 0.0100007 0.0039101
0.0127387 0.0152927 0.0039101
0.0268545 0.0166708 0.0039101
0.0749306 0.0180994 0.0039101
0.1329285 0.0251646 0.0039101
0.1690249 0.0559017 0.0039101
0.1993646 0.1075176 0.0039101
0.2260047 0.1281318 0.0039101
0.2498856 0.1449434 0.0039101
0.2715803 0.1598179 0.0039101
0.2914825 0.1734117 0.0039101
0.3098806 0.1860456 0.0056455
0.3269946 0.1979077 0.0227940
0.3429971 0.2091220 0.0911639
0.3580269 0.2197772 0.1182587
0.3721974 0.2299401 0.1344845
0.3856026 0.2396637 0.1471771
0.3983215 0.2489909 0.1579927
0.4104212 0.2579575 0.1676113
0.4219592 0.2665938 0.1763845
0.4329851 0.2749259 0.1845200
0.4435421 0.2829766 0.1921517
0.4536682 0.2907658 0.1993710
0.4633967 0.2983111 0.2062438
0.4727573 0.3056284 0.2128194
0.4817762 0.3127318 0.2191355
0.4904773 0.3196341 0.2252218
0.4988815 0.3263469 0.2311025
0.5070081 0.3328808 0.2367971
0.5148744 0.3392454 0.2423221
0.5224962 0.3454494 0.2476914
0.5298877 0.3515012 0.2529168
0.5370622 0.3574080 0.2580086
0.0039101 0.0310837 0.0039101
0.0193080 0.0448647 0.0039101
0.0391026 0.0506394 0.0039101
0.0929729 0.0666757 0.0039101
0.1361763 0.0894203 0.0039101
0.1705464 0.1067715 0.0039101
0.2002508 0.1227017 0.0039101
0.2265828 0.1375752 0.0039101
0.2502907 0.1515518 0.0039101
0.2718787 0.1647424 0.0039101
0.2917107 0.1772353 0.0039101
0.3100601 0.1891037 0.0069570
0.3271391 0.2004098 0.0250956
0.3431156 0.2112066 0.0943672
0.3581257 0.2215397 0.1195668
0.3722808 0.2314491 0.1353451
0.3856738 0.2409693 0.1478205
0.3983830 0.2501309 0.1585045
0.4104747 0.2589609 0.1680337
0.4220061 0.2674832 0.1767421
0.4330265 0.2757192 0.1848283
0.4435789 0.2836882 0.1924211
0.4537011 0.2914072 0.1996091
0.4634262 0.2988921 0.2064562
0.4727839 0.3061567 0.2130102
0.4818004 0.3132142 0.2193080
0.4904992 0.3200760 0.2253787
0.4989015 0.3267531 0.2312459
0.5070265 0.3332553 0.2369287
0.5148913 0.3395915 0.2424433
0.5225117 0.3457703 0.2478035
0.5299021 0.3517993 0.2530207
0.5370755 0.3576856 0.2581052
0.0039101 0.0961397 0.0039101
0.0276863 0.1041331 0.0039101
0.0779697 0.1057171 0.0039101
0.1026255 0.1072071 0.0039101
0.1391616 0.1128930 0.0039101
0.1720111 0.1221131 0.0039101
0.2011160 0.1332747 0.0039101
0.2271505 0.1452108 0.0039101
0.2506897 0.1572860 0.0039101
0.2721732 0.1691881 0.0039101
0.2919360 0.1807726 0.0039101
0.3102376 0.1919789 0.0083066
0.3272820 0.2027886 0.0275874
0.3432329 0.2132044 0.0971693
0.3582234 0.2232391 0.1208168
0.3723633 0.2329105 0.1361804
0.3857444 0.2422382 0.1484490
0.3984438 0.2512420 0.1590062
0.4105277 0.2599410 0.1684489
0.4220526 0.2683535 0.1770941
0.4330675 0.2764967 0.1851321
0.4436154 0.2843864 0.1926868
0.4537336 0.2920374 0.1998441
0.4634555 0.2994633 0.2066659
0.4728103 0.3066766 0.2131987
0.4818243 0.3136891 0.2194785
0.4905209 0.3205114 0.2255338
0.4989214 0.3271535 0.2313876
0.5070446 0.3336245 0.2370588
0.5149080 0.3399330 0.2425632
0.5225271 0.3460869 0.2479143
0.5299163 0.3520936 0.2531235
0.5370886 0.3579597 0.2582008
0.0039101 0.1472745 0.0039101
0.1061423 0.1493900 0.0039101
0.1175926 0.1498721 0.0039101
0.1260934 0.1503447 0.0039101
0.1500552 0.1523197 0.0039101
0.1778714 0.1560948 0.0039101
0.2046916 0.1615769 0.0039101
0.2295314 0.1684531 0.0039101
0.2523760 0.1763409 0.0039101
0.2734231 0.1848882 0.0039101
0.2928953 0.1938148 0.0039101
0.3109943 0.2029158 0.0148016
0.3278922 0.2120487 0.0429420
0.3437341 0.2211178 0.1066709
0.3586415 0.2300609 0.1257414
0.3727166 0.2388390 0.1395864
0.3860463 0.2474286 0.1510520
0.3987044 0.2558171 0.1611024
0.4107545 0.2639988 0.1701931
0.4222516 0.2719730 0.1785786
0.4332433 0.2797420 0.1864168
0.4437716 0.2873101 0.1938132
0.4538732 0.2946829 0.2008419
0.4635808 0.3018668 0.2075574
0.4729234 0.3088684 0.2140009
0.4819268 0.3156948 0.2202049
0.4906142 0.3223527 0.2261950
0.4990065 0.3288488 0.2319922
0.5071226 0.3351899 0.2376140
0.5149796 0.3413822 0.2430750
0.5225931 0.3474317 0.2483876
0.5299772 0.3533444 0.2535626
0.5371450 0.3591257 0.2586093
0.1096348 0.1857371 0.0039101
0.1419700 0.1867410 0.0039101
0.1468802 0.1869738 0.0039101
0.1512685 0.1872035 0.0039101
0.1665253 0.1881782 0.0039101
0.1881295 0.1901091 0.0039101
0.2113663 0.1930674 0.0039101
0.2341189 0.1970260 0.0039101
0.2556822 0.2018871 0.0039101
0.2758993 0.2075116 0.0039101
0.2948083 0.2137457 0.0143612
0.3125099 0.2204402 0.0352328
0.3291184 0.2274626 0.0995332
0.3447435 0.2347012 0.1199377
0.3594847 0.2420658 0.1341420
0.3734301 0.2494856 0.1457756
0.3866567 0.2569063 0.1559332
0.3992316 0.2642872 0.1651077
0.4112138 0.2715980 0.1735675
0.4226546 0.2788170 0.1814760
0.4335995 0.2859286 0.1889408
0.4440882 0.2929223 0.1960371
0.4541563 0.2997914 0.2028197
0.4638351 0.3065317 0.2093300
0.4731529 0.3131413 0.2156002
0.4821347 0.3196199 0.2216560
0.4908033 0.3259681 0.2275183
0.4991792 0.3321877 0.2332043
0.5072808 0.3382809 0.2387286
0.5151249 0.3442502 0.2441035
0.5227270 0.3500988 0.2493398
0.5301009 0.3558297 0.2544467
0.5372596 0.3614461 0.2594324
0.1552922 0.2183507 0.0039101
0.1695531 0.2189339 0.0039101
0.1723867 0.2190699 0.0039101
0.1750508 0.2192042 0.0039101
0.1851862 0.2197776 0.0039101
0.2014454 0.2209273 0.0039101
0.2207390 0.2227239 0.0039101
0.2408540 0.2251929 0.0074528
0.2606655 0.2283231 0.0147470
0.2796932 0.2320739 0.0274099
0.2977708 0.2363842 0.0795570
0.3148743 0.2411805 0.1068402
0.3310411 0.2463845 0.1222163
0.3463322 0.2519193 0.1343398
0.3608158 0.2577127 0.1447912
0.3745588 0.2637003 0.1541868
0.3876239 0.2698259 0.1628365
0.4000682 0.2760417 0.1709205
0.4119433 0.2823080 0.1785536
0.4232954 0.2885921 0.1858140
0.4341661 0.2948677 0.1927577
0.4445923 0.3011136 0.1994266
0.4546071 0.3073131 0.2058530
0.4642403 0.3134533 0.2120626
0.4735186 0.3195242 0.2180760
0.4824663 0.3255182 0.2239104
0.4911051 0.3314299 0.2295802
0.4994547 0.3372553 0.2350977
0.5075332 0.3429917 0.2404734
0.5153569 0.3486377 0.2457168
0.5229408 0.3541924 0.2508358
0.5302985 0.3596557 0.2558377
0.5374426 0.3650281 0.2607290
0.1847391 0.2469266 0.0246276
0.1934017 0.2473052 0.0265709
0.1952559 0.2473937 0.0270478
0.1970362 0.2474812 0.0275291
0.2041178 0.2478555 0.0297034
0.2163724 0.2486099 0.0348348
0.2320574 0.2497995 0.0472609
0.2493981 0.2514552 0.0858640
0.2671928 0.2535883 0.1008653
0.2847689 0.2561929 0.1124626
0.3017916 0.2592490 0.1226060
0.3181158 0.2627255 0.1318798
0.3336961 0.2665836 0.1405443
0.3485379 0.2707795 0.1487403
0.3626713 0.2752678 0.1565541
0.3761371 0.2800033 0.1640436
0.3889796 0.2849427 0.1712501
0.4012430 0.2900458 0.1782048
0.4129694 0.2952763 0.1849321
0.4241980 0.3006017 0.1914518
0.4349651 0.3059937 0.1977803
0.4453036 0.3114278 0.2039315
0.4552437 0.3168831 0.2099176
0.4648129 0.3223419 0.2157489
0.4740359 0.3277892 0.2214347
0.4829354 0.3332129 0.2269834
0.4915321 0.3386028 0.2324023
0.4998448 0.3439506 0.2376983
0.5078907 0.3492496 0.2428774
0.5156855 0.3544946 0.2479454
0.5232437 0.3596812 0.2529072
0.5305784 0.3648065 0.2577678
0.5377019 0.3698678 0.2625315
0.2088506 0.2724396 0.1198731
0.2147568 0.2727037 0.1208705
0.2160637 0.2727655 0.1211004
0.2173321 0.2728266 0.1213267
0.2225025 0.2730883 0.1222819
0.2318807 0.2736174 0.1241499
0.2445621 0.2744555 0.1269560
0.2592938 0.2756301 0.1306207
0.2750134 0.2771569 0.1350051
0.2909976 0.2790412 0.1399515
0.3068107 0.2812798 0.1453108
0.3222123 0.2838615 0.1509558
0.3370821 0.2867687 0.1567848
0.3513701 0.2899790 0.1627195
0.3650663 0.2934664 0.1687011
0.3781826 0.2972028 0.1746863
0.3907424 0.3011594 0.1806437
0.4027745 0.3053071 0.1865506
0.4143098 0.3096180 0.1923911
0.4253791 0.3140656 0.1981541
0.4360121 0.3186252 0.2038321
0.4462369 0.3232741 0.2094204
0.4560799 0.3279920 0.2149162
0.4655654 0.3327605 0.2203182
0.4747162 0.3375636 0.2256261
0.4835528 0.3423871 0.2308404
0.4920945 0.3472185 0.2359623
0.5003588 0.3520474 0.2409931
0.5083620 0.3568644 0.2459347
0.5161189 0.3616618 0.2507890
0.5236432 0.3664331 0.2555582
0.5309478 0.3711725 0.2602444
0.5380442 0.3758756 0.2648498
0.2299169 0.2955199 0.1483236
0.2342174 0.2957136 0.1488229
0.2351863 0.2957589 0.1489391
0.2361324 0.2958038 0.1490540
0.2400460 0.2959961 0.1495436
0.2473625 0.2963853 0.1505229
0.2576527 0.2970037 0.1520473
0.2700902 0.2978738 0.1541312
0.2838292 0.2990108 0.1567566
0.2981951 0.3004233 0.1598811
0.3127190 0.3021145 0.1634468
0.3271021 0.3040820 0.1673883
0.3411667 0.3063190 0.1716396
0.3548143 0.3088150 0.1761378
0.3679971 0.3115559 0.1808266
0.3806981 0.3145254 0.1856568
0.3929188 0.3177055 0.1905867
0.4046715 0.3210769 0.1955816
0.4159744 0.3246201 0.2006130
0.4268489 0.3283154 0.2056581
0.4373173 0.3321436 0.2106983
0.4474022 0.3360864 0.2157189
0.4571252 0.3401263 0.2207084
0.4665074 0.3442470 0.2256577
0.4755684 0.3484335 0.2305600
0.4843269 0.3526721 0.2354099
0.4928001 0.3569503 0.2402035
0.5010041 0.3612570 0.2449379
0.5089539 0.3655820 0.2496112
0.5166634 0.3699165 0.2542221
0.5241455 0.3742527 0.2587699
0.5314123 0.3785835 0.2632541
0.5384748 0.3829030 0.2676750
0.2488775 0.3166098 0.1686476
0.2521497 0.3167573 0.1689769
0.2528950 0.3167918 0.1690538
0.2536254 0.3168260 0.1691298
0.2566756 0.3169726 0.1694548
0.2624946 0.3172695 0.1701092
0.2709132 0.3177422 0.1711389
0.2814092 0.3184089 0.1725678
0.2933494 0.3192831 0.1744019
0.3061566 0.3203737 0.1766319
0.3193793 0.3216861 0.1792362
0.3326964 0.3232219 0.1821844
0.3458938 0.3249796 0.1854405
0.3588365 0.3269548 0.1889657
0.3714444 0.3291405 0.1927205
0.3836739 0.3315276 0.1966673
0.3955053 0.3341054 0.2007708
0.4069343 0.3368618 0.2049990
0.4179662 0.3397835 0.2093234
0.4286122 0.3428570 0.2137193
0.4388866 0.3460682 0.2181652
0.4488056 0.3494033 0.2226428
0.4583861 0.3528484 0.2271368
0.4676450 0.3563904 0.2316340
0.4765989 0.3600165 0.2361238
0.4852638 0.3637146 0.2405972
0.4936548 0.3674734 0.2450469
0.5017863 0.3712826 0.2494669
0.5096719 0.3751323 0.2538523
0.5173243 0.3790136 0.2581993
0.5247555 0.3829186 0.2625049
0.5319767 0.3868398 0.2667666
0.5389982 0.3907707 0.2709826
0.2662348 0.3360356 0.1855231
0.2688059 0.3361512 0.1857638
0.2693956 0.3361783 0.1858201
0.2699750 0.3362051 0.1858758
0.2724099 0.3363200 0.1861141
0.2771207 0.3365532 0.1865954
0.2840779 0.3369246 0.1873567
0.2929633 0.3374495 0.1884209
0.3033209 0.3381392 0.1897998
0.3146829 0.3390023 0.1914954
0.3266448 0.3400444 0.1935010
0.3388908 0.3412688 0.1958032
0.3511915 0.3426766 0.1983829
0.3633881 0.3442666 0.2012173
0.3753759 0.3460357 0.2042809
0.3870891 0.3479794 0.2075475
0.3984891 0.3500913 0.2109908
0.4095559 0.3523640 0.2145851
0.4202820 0.3547892 0.2183065
0.4306683 0.3573576 0.2221327
0.4407209 0.3600593 0.2260434
0.4504496 0.3628844 0.2300205
0.4598658 0.3658224 0.2340478
0.4689822 0.3688631 0.2381111
0.4778118 0.3719963 0.2421981
0.4863677 0.3752122 0.2462981
0.4946629 0.3785011 0.2504018
0.5027097 0.3818540 0.2545014
0.5105202 0.3852621 0.2585901
0.5181058 0.3887173 0.2626623
0.5254772 0.3922121 0.2667132
0.5326447 0.3957392 0.2707388
0.5396180 0.3992922 0.2747358
0.2823017 0.3540463 0.2003689
0.2843724 0.3541391 0.2005550
0.2848497 0.3541608 0.2005986
0.2853194 0.3541824 0.2006417
0.2873020 0.3542747 0.2008263
0.2911766 0.3544619 0.2011997
0.2969870 0.3547605 0.2017921
0.3045481 0.3551829 0.2026239
0.3135398 0.3557389 0.2037076
0.3235965 0.3564360 0.2050494
0.3343727 0.3572798 0.2066491
0.3455764 0.3582740 0.2085018
0.3569789 0.3594209 0.2105977
0.3684103 0.3607210 0.2129237
0.3797498 0.3621735 0.2154640
0.3909145 0.3637762 0.2182010
0.4018501 0.3655258 0.2211159
0.4125227 0.3674180 0.2241895
0.4229129 0.3694473 0.2274030
0.4330119 0.3716079 0.2307380
0.4428177 0.3738929 0.2341771
0.4523333 0.3762953 0.2377039
0.4615647 0.3788075 0.2413035
0.4705201 0.3814219 0.2449622
0.4792088 0.3841306 0.2486674
0.4876410 0.3869258 0.2524082
0.4958270 0.3897997 0.2561747
0.5037771 0.3927449 0.2599580
0.5115017 0.3957539 0.2637505
0.5190106 0.3988197 0.2675454
0.5263134 0.4019354 0.2713369
0.5334193 0.4050947 0.2751199
0.5403371 0.4082914 0.2788900
0.2972924 0.3708375 0.2138248
0.2989935 0.3709134 0.2139740
0.2993868 0.3709312 0.2140089
0.2997745 0.3709488 0.2140435
0.3014160 0.3710243 0.2141917
0.3046477 0.3711776 0.2144917
0.3095504 0.3714221 0.2149686
0.3160246 0.3717683 0.2156400
0.3238502 0.3722246 0.2165180
0.3327485 0.3727974 0.2176099
0.3424338 0.3734921 0.2189187
0.3526474 0.3743123 0.2204436
0.3631729 0.3752608 0.2221803
0.3738395 0.3763389 0.2241214
0.3845181 0.3775471 0.2262574
0.3951146 0.3788846 0.2285766
0.4055623 0.3803499 0.2310662
0.4158159 0.3819406 0.2337120
0.4258457 0.3836534 0.2364999
0.4356338 0.3854845 0.2394154
0.4451707 0.3874294 0.2424442
0.4544526 0.3894833 0.2455726
0.4634804 0.3916406 0.2487874
0.4722577 0.3938958 0.2520762
0.4807900 0.3962431 0.2554275
0.4890843 0.3986763 0.2588307
0.4971482 0.4011895 0.2622761
0.5049900 0.4037765 0.2657548
0.5126180 0.4064314 0.2692589
0.5200406 0.4091481 0.2727811
0.5272661 0.4119209 0.2763150
0.5343024 0.4147443 0.2798550
0.5411575 0.4176128 0.2833959
0.3113637 0.3865655 0.2262408
0.3127839 0.3866285 0.2263635
0.3131131 0.3866433 0.2263922
0.3134379 0.3866579 0.2264207
0.3148163 0.3867207 0.2265427
0.3175453 0.3868481 0.2267899
0.3217222 0.3870516 0.2271832
0.3273023 0.3873398 0.2277380
0.3341376 0.3877198 0.2284654
0.3420192 0.3881976 0.2293729
0.3507164 0.3887777 0.2304647
0.3600066 0.3894638 0.2317423
0.3696928 0.3902586 0.2332043
0.3796107 0.3911639 0.2348471
0.3896298 0.3921808 0.2366650
0.3996496 0.3933094 0.2386505
0.4095952 0.3945492 0.2407948
0.4194124 0.3958991 0.2430880
0.4290630 0.3973571 0.2455195
0.4385212 0.3989210 0.2480781
0.4477704 0.4005878 0.2507526
0.4568009 0.4023542 0.2535317
0.4656084 0.4042163 0.2564044
0.4741919 0.4061702 0.2593600
0.4825534 0.4082114 0.2623883
0.4906965 0.4103356 0.2654797
0.4986263 0.4125379 0.2686250
0.5063486 0.4148136 0.2718158
0.5138699 0.4171579 0.2750444
0.5211969 0.4195660 0.2783037
0.5283365 0.4220330 0.2815870
0.5352955 0.4245543 0.2848885
0.5420807 0.4271252 0.2882027
0.3246355 0.4013576 0.2378327
0.3258373 0.4014107 0.2379356
0.3261165 0.4014232 0.2379598
0.3263920 0.4014355 0.2379836
0.3275637 0.4014884 0.2380860
0.3298933 0.4015958 0.2382935
0.3334839 0.4017673 0.2386240
0.3383253 0.4020103 0.2390909
0.3443207 0.4023311 0.2397041
0.3513158 0.4027346 0.2404708
0.3591274 0.4032251 0.2413959
0.3675683 0.4038060 0.2424817
0.3764637 0.4044797 0.2437289
0.3856611 0.4052485 0.2451358
0.3950332 0.4061134 0.2466994
0.4044781 0.4070754 0.2484150
0.4139160 0.4081344 0.2502767
0.4232865 0.4092901 0.2522775
0.4325447 0.4105415 0.2544098
0.4416584 0.4118873 0.2566650
0.4506049 0.4133255 0.2590345
0.4593691 0.4148541 0.2615092
0.4679417 0.4164703 0.2640801
0.4763178 0.4181714 0.2667383
0.4844954 0.4199541 0.2694750
0.4924752 0.4218151 0.2722816
0.5002595 0.4237508 0.2751501
0.5078520 0.4257576 0.2780728
0.5152569 0.4278316 0.2810423
0.5224795 0.4299690 0.2840520
0.5295250 0.4321658 0.2870954
0.5363991 0.4344183 0.2901667
0.5431074 0.4367224 0.2932604
0.3372025 0.4153192 0.2487452
0.3382315 0.4153645 0.2488328
0.3384708 0.4153751 0.2488534
0.3387072 0.4153856 0.2488737
0.3397137 0.4154307 0.2489609
0.3417217 0.4155222 0.2491377
0.3448336 0.4156684 0.2494196
0.3490610 0.4158758 0.2498182
0.3543435 0.4161496 0.2503424
0.3605682 0.4164942 0.2509990
0.3675918 0.4169134 0.2517927
0.3752591 0.4174103 0.2527268
0.3834184 0.4179874 0.2538025
0.3919315 0.4186467 0.2550199
0.4006782 0.4193895 0.2563773
0.4095582 0.4202168 0.2578720
0.4184903 0.4211293 0.2595003
0.4274102 0.4221269 0.2612572
0.4362685 0.4232093 0.2631372
0.4450277 0.4243757 0.2651341
0.4536602 0.4256251 0.2672411
0.4621462 0.4269561 0.2694512
0.4704719 0.4283668 0.2717571
0.4786286 0.4298554 0.2741513
0.4866109 0.4314194 0.2766266
0.4944166 0.4330565 0.2791756
0.5020452 0.4347640 0.2817913
0.5094981 0.4365390 0.2844667
0.5167777 0.4383786 0.2871954
0.5238874 0.4402797 0.2899711
0.5308311 0.4422393 0.2927877
0.5376130 0.4442541 0.2956398
0.5442378 0.4463210 0.2985220
0.3491420 0.4285383 0.2590811
0.3500317 0.4285773 0.2591567
0.3502389 0.4285865 0.2591744
0.3504436 0.4285955 0.2591919
0.3513163 0.4286343 0.2592671
0.3530620 0.4287132 0.2594197
0.3557794 0.4288391 0.2596630
0.3594933 0.4290177 0.2600073
0.3641688 0.4292537 0.2604606
0.3697249 0.4295509 0.2610292
0.3760502 0.4299127 0.2617177
0.3830179 0.4303418 0.2625294
0.3904983 0.4308405 0.2634662
0.3983685 0.4314109 0.2645289
0.4065175 0.4320543 0.2657170
0.4148494 0.4327718 0.2670291
0.4232838 0.4335642 0.2684629
0.4317552 0.4344319 0.2700149
0.4402109 0.4353748 0.2716814
0.4486100 0.4363927 0.2734576
0.4569207 0.4374850 0.2753385
0.4651195 0.4386509 0.2773185
0.4731888 0.4398891 0.2793919
0.4811164 0.4411984 0.2815527
0.4888937 0.4425770 0.2837948
0.4965156 0.4440233 0.2861120
0.5039794 0.4455352 0.2884984
0.5112840 0.4471106 0.2909478
0.5184300 0.4487472 0.2934544
0.5254191 0.4504426 0.2960127
0.5322536 0.4521945 0.2986171
0.5389366 0.4540001 0.3012626
0.5454715 0.4558570 0.3039442
0.3605177 0.4410896 0.2689172
0.3612937 0.4411235 0.2689831
0.3614746 0.4411314 0.2689985
0.3616534 0.4411393 0.2690138
0.3624163 0.4411730 0.2690793
0.3639456 0.4412415 0.2692123
0.3663347 0.4413509 0.2694245
0.3696164 0.4415062 0.2697250
0.3737735 0.4417113 0.2701208
0.3787489 0.4419698 0.2706178
0.3844570 0.4422846 0.2712205
0.3907950 0.4426582 0.2719320
0.3976534 0.4430928 0.2727546
0.4049245 0.4435902 0.2736896
0.4125077 0.4441518 0.2747372
0.4203132 0.4447787 0.2758969
0.4282633 0.4454719 0.2771672
0.4362928 0.4462318 0.2785460
0.4443479 0.4470587 0.2800306
0.4523851 0.4479526 0.2816176
0.4603699 0.4489134 0.2833031
0.4682754 0.4499404 0.2850830
0.4760813 0.4510331 0.2869527
0.4837719 0.4521904 0.2889074
0.4913362 0.4534113 0.2909420
0.4987664 0.4546946 0.2930514
0.5060572 0.4560386 0.2952306
0.5132058 0.4574419 0.2974744
0.5202108 0.4589027 0.2997777
0.5270721 0.4604191 0.3021354
0.5337908 0.4619893 0.3045429
0.5403685 0.4636112 0.3069952
0.5468075 0.4652826 0.3094880
0.3713833 0.4530367 0.2783131
0.3720655 0.4530663 0.2783710
0.3722246 0.4530733 0.2783845
0.3723819 0.4530802 0.2783980
0.3730536 0.4531097 0.2784556
0.3744026 0.4531697 0.2785725
0.3765163 0.4532655 0.2787592
0.3794317 0.4534015 0.2790236
0.3831441 0.4535812 0.2793722
0.3876145 0.4538077 0.2798102
0.3927774 0.4540837 0.2803419
0.3985504 0.4544115 0.2809704
0.4048418 0.4547929 0.2816981
0.4115582 0.4552297 0.2825265
0.4186098 0.4557233 0.2834562
0.4259139 0.4562749 0.2844874
0.4333970 0.4568852 0.2856193
0.4409955 0.4575549 0.2868506
0.4486555 0.4582846 0.2881795
0.4563326 0.4590743 0.2896036
0.4639903 0.4599241 0.2911199
0.4715995 0.4608338 0.2927253
0.4791370 0.4618029 0.2944163
0.4865851 0.4628309 0.2961888
0.4939301 0.4639171 0.2980390
0.5011619 0.4650604 0.2999626
0.5082731 0.4662600 0.3019553
0.5152590 0.4675146 0.3040128
0.5221164 0.4688229 0.3061306
0.5288436 0.4701835 0.3083044
0.5354402 0.4715948 0.3105299
0.5419067 0.4730552 0.3128029
0.5482442 0.4745632 0.3151194
0.3817847 0.4644344 0.2873160
0.3823884 0.4644605 0.2873673
0.3825293 0.4644667 0.2873793
0.3826686 0.4644727 0.2873912
0.3832640 0.4644988 0.2874422
0.3844613 0.4645516 0.2875458
0.3863420 0.4646361 0.2877112
0.3889451 0.4647561 0.2879457
0.3922744 0.4649146 0.2882549
0.3963044 0.4651145 0.2886437
0.4009858 0.4653581 0.2891161
0.4062526 0.4656475 0.2896750
0.4120288 0.4659845 0.2903229
0.4182342 0.4663707 0.2910613
0.4247895 0.4668073 0.2918914
0.4316193 0.4672954 0.2928134
0.4386553 0.4678360 0.2938273
0.4458366 0.4684298 0.2949323
0.4531105 0.4690773 0.2961272
0.4604323 0.4697788 0.2974102
0.4677645 0.4705344 0.2987795
0.4750766 0.4713441 0.3002323
0.4823434 0.4722079 0.3017662
0.4895452 0.4731252 0.3033778
0.4966663 0.4740957 0.3050641
0.5036945 0.4751188 0.3068216
0.5106207 0.4761936 0.3086467
0.5174382 0.4773193 0.3105356
0.5241422 0.4784950 0.3124848
0.5307297 0.4797196 0.3144904
0.5371988 0.4809918 0.3165487
0.5435488 0.4823105 0.3186559
0.5497798 0.4836743 0.3208085
0.3917613 0.4753303 0.2959646
0.3922988 0.4753535 0.2960103
0.3924243 0.4753590 0.2960210
0.3925485 0.4753643 0.2960316
0.3930792 0.4753874 0.2960772
0.3941480 0.4754344 0.2961696
0.3958301 0.4755093 0.2963171
0.3981652 0.4756158 0.2965263
0.4011631 0.4757565 0.2968024
0.4048081 0.4759339 0.2971498
0.4090636 0.4761503 0.2975720
0.4138773 0.4764074 0.2980720
0.4191865 0.4767069 0.2986522
0.4249228 0.4770502 0.2993141
0.4310166 0.4774386 0.3000591
0.4374004 0.4778731 0.3008878
0.4440111 0.4783547 0.3018003
0.4507914 0.4788839 0.3027964
0.4576905 0.4794615 0.3038753
0.4646643 0.4800877 0.3050359
0.4716752 0.4807629 0.3062767
0.4786917 0.4814872 0.3075958
0.4856875 0.4822605 0.3089912
0.4926411 0.4830826 0.3104605
0.4995353 0.4839534 0.3120010
0.5063562 0.4848724 0.3136100
0.5130931 0.4858391 0.3152844
0.5197376 0.4868529 0.3170213
0.5262835 0.4879130 0.3188175
0.5327264 0.4890187 0.3206697
0.5390632 0.4901690 0.3225747
0.5452920 0.4913629 0.3245292
0.5514118 0.4925994 0.3265301
0.4013474 0.4857661 0.3042911
0.4018286 0.4857868 0.3043321
0.4019411 0.4857917 0.3043417
0.4020523 0.4857965 0.3043512
0.4025280 0.4858171 0.3043920
0.4034868 0.4858589 0.3044750
0.4049986 0.4859258 0.3046074
0.4071025 0.4860208 0.3047951
0.4098122 0.4861464 0.3050430
0.4131196 0.4863048 0.3053550
0.4169979 0.4864980 0.3057345
0.4214060 0.4867277 0.3061843
0.4262924 0.4869953 0.3067065
0.4315991 0.4873022 0.3073029
0.4372655 0.4876495 0.3079748
0.4432317 0.4880383 0.3087230
0.4494399 0.4884693 0.3095480
0.4558369 0.4889434 0.3104496
0.4623744 0.4894611 0.3114276
0.4690097 0.4900228 0.3124813
0.4757054 0.4906289 0.3136096
0.4824299 0.4912795 0.3148111
0.4891560 0.4919748 0.3160843
0.4958613 0.4927148 0.3174272
0.5025271 0.4934992 0.3188379
0.5091384 0.4943279 0.3203140
0.5156828 0.4952005 0.3218532
0.5221508 0.4961166 0.3234528
0.5285349 0.4970756 0.3251102
0.5348292 0.4980771 0.3268227
0.5410295 0.4991201 0.3285875
0.5471329 0.5002041 0.3304018
0.5531374 0.5013282 0.3322627
0.4105731 0.4957783 0.3123226
0.4110062 0.4957968 0.3123596
0.4111074 0.4958012 0.3123683
0.4112075 0.4958055 0.3123769
0.4116359 0.4958240 0.3124137
0.4125002 0.4958615 0.3124885
0.4138649 0.4959215 0.3126079
0.4157681 0.4960067 0.3127773
