sample/src/main/assets/lut/sdr2pq/NBCU_RESOLVE_DL_VRT.cube
TITLE "SDR-BT.709 to PQ-BT.2100 Display-Light Conversion 3D Look-Up-Table"
# site: https://github.com/digitaltvguy/NBCUniversal-UHD-HDR-SDR-Single-Master-Production-Workflow-Recommendation-LUTs/tree/main
# PLEASE DO NOT ALTER THE LINES BELOW
# 
# © 2020 NBCUniversal, LLC - Please do not remove this line
#
# Built using tools from and in collaboration with Cromorama and Nick Shaw - the creators of ORION-CONVERT
#
#
# Parameters designed by Chris Seeger, NBCU Advanced Technology (chris.seeger@nbcuni.com)
# In collaboration with Michael Drazin, NBCU Sports Group (michael.drazin@nbcuni.com)
#
# 100% SDR maps to 58% PQ 
# SDR 100-109% preserved into PQ above 58% (preserves additional color volume from SDR)
#
#
# No Matrix Compensation (so make sure your device is using the correct matrix)
#
# Type III LUT - Full Range Processing for Narrow Range Signals
# Unscaled code values in and out
# RESOLVE 17 VIDEO RANGE TAGS
LUT_IN_VIDEO_RANGE
LUT_OUT_VIDEO_RANGE
LUT_3D_SIZE 5
0.0039101 0.0039101 0.0039101
0.2481302 0.0825149 0.0039101
0.3852980 0.2337895 0.1443242
0.4726435 0.3033330 0.2119987
0.5370055 0.3562132 0.2575951
0.2088506 0.2724396 0.1198731
0.2750134 0.2771569 0.1350051
0.3907424 0.3011594 0.1806437
0.4747162 0.3375636 0.2256261
0.5380442 0.3758756 0.2648498
0.3372025 0.4153192 0.2487452
0.3543435 0.4161496 0.2503424
0.4184903 0.4211293 0.2595003
0.4866109 0.4314194 0.2766266
0.5442378 0.4463210 0.2985220
0.4194651 0.5053992 0.3200826
0.4264112 0.5057066 0.3206974
0.4604314 0.5075898 0.3244060
0.5088391 0.5116989 0.3321814
0.5568569 0.5181772 0.3436920
0.4809679 0.5711770 0.3743783
0.4845435 0.5713291 0.3746958
0.5040561 0.5722668 0.3766381
0.5370613 0.5743468 0.3808595
0.5747508 0.5777198 0.3874718
0.0039101 0.0039101 0.2707309
0.2523092 0.1099919 0.2719049
0.3860342 0.2351728 0.2787888
0.4729189 0.3038615 0.2922921
0.5371428 0.3564867 0.3105500
0.2162691 0.2732366 0.2768236
0.2779042 0.2779042 0.2779042
0.3914335 0.3017030 0.2842713
0.4749853 0.3379068 0.2968974
0.5381800 0.3760920 0.3142054
0.3385088 0.4154563 0.3063678
0.3554047 0.4162854 0.3070999
0.4189933 0.4212576 0.3114902
0.4868473 0.4315337 0.3205656
0.5443649 0.4464177 0.3337252
0.4199626 0.5054498 0.3482299
0.4268712 0.5057571 0.3486640
0.4607463 0.5076392 0.3513055
0.5090249 0.5117462 0.3569663
0.5569679 0.5182213 0.3656335
0.4812193 0.5712020 0.3901946
0.4847852 0.5713541 0.3904585
0.5042517 0.5722916 0.3920764
0.5371985 0.5743710 0.3956155
0.5748426 0.5777432 0.4012185
0.2055854 0.1119708 0.4132126
0.2738143 0.1611321 0.4134151
0.3904621 0.2431630 0.4146601
0.4746074 0.3070595 0.4174031
0.5379894 0.3581622 0.4217998
0.2494789 0.2779918 0.4142945
0.2936753 0.2823754 0.4144945
0.3955983 0.3049898 0.4157243
0.4766364 0.3400024 0.4184348
0.5390173 0.3774212 0.4227817
0.3461693 0.4163013 0.4207191
0.3616968 0.4171225 0.4209050
0.4220491 0.4220491 0.4220491
0.4882993 0.4322388 0.4245745
0.5451489 0.4470149 0.4286362
0.4229855 0.5057630 0.4336857
0.4296706 0.5060692 0.4338463
0.4626743 0.5079451 0.4348358
0.5101683 0.5120388 0.4370266
0.5576537 0.5184942 0.4405681
0.4827624 0.5713571 0.4518480
0.4862699 0.5715089 0.4519791
0.5054553 0.5724448 0.4527881
0.5380446 0.5745209 0.4545853
0.5754100 0.5778878 0.4575081
0.2722605 0.1900304 0.5031120
0.3070468 0.2051693 0.5031868
0.3996785 0.2583397 0.5036495
0.4783024 0.3138179 0.5046838
0.5398699 0.3618193 0.5063851
0.2924893 0.2877027 0.5035132
0.3204701 0.2915640 0.5035877
0.4043093 0.3119227 0.5040483
0.4802518 0.3445367 0.5050782
0.5408774 0.3803430 0.5067723
0.3611939 0.4181768 0.5059619
0.3743513 0.4189808 0.5060345
0.4285720 0.4238073 0.5064831
0.4914900 0.4338078 0.5074864
0.5468922 0.4483467 0.5091374
0.4294423 0.5064650 0.5112546
0.4356743 0.5067689 0.5113231
0.4668751 0.5086308 0.5117469
0.5126950 0.5126950 0.5126950
0.5591811 0.5191065 0.5142565
0.4861480 0.5717056 0.5194678
0.4895307 0.5718569 0.5195306
0.5081120 0.5727894 0.5199186
0.5399240 0.5748579 0.5207872
0.5766765 0.5782131 0.5222194
0.3224540 0.2347850 0.5687992
0.3426172 0.2426748 0.5688362
0.4131703 0.2781020 0.5690655
0.4841563 0.3239449 0.5695803
0.5429274 0.3675887 0.5704333
0.3336618 0.3015498 0.5689979
0.3514848 0.3047818 0.5690349
0.4171530 0.3222807 0.5692637
0.4859861 0.3515877 0.5697773
0.5439027 0.3850078 0.5706286
0.3814772 0.4212214 0.5702204
0.3920024 0.4219982 0.5702569
0.4384951 0.4266668 0.5704827
0.4965817 0.4363671 0.5709898
0.5497320 0.4505270 0.5718303
0.4392739 0.5076253 0.5729190
0.4448757 0.5079254 0.5729545
0.4734823 0.5097644 0.5731740
0.5167655 0.5137802 0.5736668
0.5616770 0.5201197 0.5744838
0.4915356 0.5722846 0.5772586
0.4947290 0.5724350 0.5772925
0.5123841 0.5733618 0.5775021
0.5429798 0.5754179 0.5779729
0.5787535 0.5787535 0.5787535
