sample/src/main/assets/lut/sdr2pq/NBCU_RESOLVE_DL_VRT.cube
TITLE "SDR-BT.709 to PQ-BT.2100 Display-Light Conversion 3D Look-Up-Table"
# site: https://github.com/digitaltvguy/NBCUniversal-UHD-HDR-SDR-Single-Master-Production-Workflow-Recommendation-LUTs/tree/main
# PLEASE DO NOT ALTER THE LINES BELOW
# 
# © 2020 NBCUniversal, LLC - Please do not remove this line
#
# Built using tools from and in collaboration with Cromorama and Nick Shaw - the creators of ORION-CONVERT
#
#
# Parameters designed by Chris Seeger, NBCU Advanced Technology (chris.seeger@nbcuni.com)
# In collaboration with Michael Drazin, NBCU Sports Group (michael.drazin@nbcuni.com)
#
# 100% SDR maps to 58% PQ 
# SDR 100-109% preserved into PQ above 58% (preserves additional color volume from SDR)
#
#
# No Matrix Compensation (so make sure your device is using the correct matrix)
#
# Type III LUT - Full Range Processing for Narrow Range Signals
# Unscaled code values in and out
# RESOLVE 17 VIDEO RANGE TAGS
LUT_IN_VIDEO_RANGE
LUT_OUT_VIDEO_RANGE
LUT_3D_SIZE 9
0.0039101 0.0039101 0.0039101
0.1148392 0.0039101 0.0039101
0.2481302 0.0825149 0.0039101
0.3263751 0.1858271 0.0146222
0.3852980 0.2337895 0.1443242
0.4328082 0.2714416 0.1831854
0.4726435 0.3033330 0.2119987
0.5069298 0.3312636 0.2362329
0.5370055 0.3562132 0.2575951
0.0039101 0.1472745 0.0039101
0.1500552 0.1523197 0.0039101
0.2523760 0.1763409 0.0039101
0.3278922 0.2120487 0.0429420
0.3860463 0.2474286 0.1510520
0.4332433 0.2797420 0.1864168
0.4729234 0.3088684 0.2140009
0.5071226 0.3351899 0.2376140
0.5371450 0.3591257 0.2586093
0.2088506 0.2724396 0.1198731
0.2225025 0.2730883 0.1222819
0.2750134 0.2771569 0.1350051
0.3370821 0.2867687 0.1567848
0.3907424 0.3011594 0.1806437
0.4360121 0.3186252 0.2038321
0.4747162 0.3375636 0.2256261
0.5083620 0.3568644 0.2459347
0.5380442 0.3758756 0.2648498
0.2823017 0.3540463 0.2003689
0.2873020 0.3542747 0.2008263
0.3135398 0.3557389 0.2037076
0.3569789 0.3594209 0.2105977
0.4018501 0.3655258 0.2211159
0.4428177 0.3738929 0.2341771
0.4792088 0.3841306 0.2486674
0.5115017 0.3957539 0.2637505
0.5403371 0.4082914 0.2788900
0.3372025 0.4153192 0.2487452
0.3397137 0.4154307 0.2489609
0.3543435 0.4161496 0.2503424
0.3834184 0.4179874 0.2538025
0.4184903 0.4211293 0.2595003
0.4536602 0.4256251 0.2672411
0.4866109 0.4314194 0.2766266
0.5167777 0.4383786 0.2871954
0.5442378 0.4463210 0.2985220
0.3817847 0.4644344 0.2873160
0.3832640 0.4644988 0.2874422
0.3922744 0.4649146 0.2882549
0.4120288 0.4659845 0.2903229
0.4386553 0.4678360 0.2938273
0.4677645 0.4705344 0.2987795
0.4966663 0.4740957 0.3050641
0.5241422 0.4784950 0.3124848
0.5497798 0.4836743 0.3208085
0.4194651 0.5053992 0.3200826
0.4204261 0.5054404 0.3201651
0.4264112 0.5057066 0.3206974
0.4402816 0.5063937 0.3220619
0.4604314 0.5075898 0.3244060
0.4840600 0.5093488 0.3277849
0.5088391 0.5116989 0.3321814
0.5333446 0.5146462 0.3375214
0.5568569 0.5181772 0.3436920
0.4521317 0.5405012 0.3487758
0.4527990 0.5405294 0.3488336
0.4570066 0.5407121 0.3492071
0.4670880 0.5411843 0.3501682
0.4824888 0.5420090 0.3518315
0.5015456 0.5432279 0.3542562
0.5224998 0.5448677 0.3574576
0.5440189 0.5469423 0.3614145
0.5652657 0.5494539 0.3660764
0.4809679 0.5711770 0.3743783
0.4814541 0.5711973 0.3744208
0.4845435 0.5713291 0.3746958
0.4921035 0.5716701 0.3754051
0.5040561 0.5722668 0.3766381
0.5194544 0.5731515 0.3784480
0.5370613 0.5743468 0.3808595
0.5557663 0.5758671 0.3838740
0.5747508 0.5777198 0.3874718
0.0039101 0.0039101 0.1453872
0.1217193 0.0039101 0.1466877
0.2487038 0.0886033 0.1543207
0.3265764 0.1862352 0.1698429
0.3853968 0.2339761 0.1893236
0.4328655 0.2715501 0.2098017
0.4726804 0.3034039 0.2299054
0.5069552 0.3313133 0.2491188
0.5370239 0.3562498 0.2672943
0.0098731 0.1481432 0.1519705
0.1530992 0.1530992 0.1530992
0.2529156 0.1768258 0.1598277
0.3280897 0.2123106 0.1739457
0.3861442 0.2475811 0.1922303
0.4333004 0.2798389 0.2118751
0.4729601 0.3089344 0.2314236
0.5071479 0.3352372 0.2502631
0.5371634 0.3591610 0.2681801
0.2098957 0.2725467 0.1811579
0.2233445 0.2731944 0.1817971
0.2754066 0.2772572 0.1857682
0.3372582 0.2868569 0.1949280
0.3908351 0.3012323 0.2082069
0.4360674 0.3186834 0.2238623
0.4747522 0.3376096 0.2404966
0.5083870 0.3569007 0.2572521
0.5380624 0.3759046 0.2736698
0.2826579 0.3540839 0.2213763
0.2876351 0.3543121 0.2217019
0.3137764 0.3557757 0.2237721
0.3571171 0.3594561 0.2288514
0.4019317 0.3655586 0.2369264
0.4428690 0.3739225 0.2474244
0.4792431 0.3841569 0.2595811
0.5115258 0.3957769 0.2726980
0.5403548 0.4083113 0.2862444
0.3373784 0.4153375 0.2596475
0.3398842 0.4154490 0.2598321
0.3544861 0.4161677 0.2610162
0.3835194 0.4180052 0.2639988
0.4185577 0.4211465 0.2689598
0.4537056 0.4256414 0.2757906
0.4866426 0.4314347 0.2841981
0.5168005 0.4383927 0.2938091
0.5442548 0.4463339 0.3042534
0.3818877 0.4644450 0.2939195
0.3833652 0.4645093 0.2940351
0.3923655 0.4649251 0.2947801
0.4121014 0.4659949 0.2966790
0.4387090 0.4678462 0.2999078
0.4678034 0.4705443 0.3044924
0.4966947 0.4741052 0.3103450
0.5241633 0.4785041 0.3173007
0.5497958 0.4836829 0.3251552
0.4195317 0.5054060 0.3244682
0.4204920 0.5054471 0.3245462
0.4264729 0.5057134 0.3250501
0.4403344 0.5064004 0.3263424
0.4604736 0.5075964 0.3285655
0.4840925 0.5093553 0.3317766
0.5088640 0.5117052 0.3359655
0.5333637 0.5146523 0.3410691
0.5568717 0.5181831 0.3469862
0.4521779 0.5405058 0.3518758
0.4528449 0.5405341 0.3519315
0.4570504 0.5407167 0.3522912
0.4671271 0.5411889 0.3532172
0.4825219 0.5420135 0.3548208
0.5015725 0.5432324 0.3571606
0.5225212 0.5448722 0.3602540
0.5440359 0.5469466 0.3640833
0.5652793 0.5494581 0.3686029
0.4810016 0.5711803 0.3766711
0.4814876 0.5712007 0.3767125
0.4845758 0.5713325 0.3769802
0.4921333 0.5716735 0.3776706
0.5040822 0.5722701 0.3788714
0.5194766 0.5731548 0.3806348
0.5370797 0.5743500 0.3829861
0.5557813 0.5758703 0.3859276
0.5747631 0.5777229 0.3894420
0.0039101 0.0039101 0.2707309
0.1496654 0.0039101 0.2708890
0.2523092 0.1099919 0.2719049
0.3278678 0.1888100 0.2744759
0.3860342 0.2351728 0.2787888
0.4332362 0.2722495 0.2847969
0.4729189 0.3038615 0.2922921
0.5071195 0.3316346 0.3009808
0.5371428 0.3564867 0.3105500
0.1191002 0.1534057 0.2715757
0.1692063 0.1578613 0.2717320
0.2563139 0.1798661 0.2727363
0.3293571 0.2139814 0.2752786
0.3867761 0.2485610 0.2795459
0.4336693 0.2804637 0.2854952
0.4731979 0.3093606 0.2929244
0.5073118 0.3355433 0.3015451
0.5372821 0.3593897 0.3110488
0.2162691 0.2732366 0.2768236
0.2285478 0.2738782 0.2769690
0.2779042 0.2779042 0.2779042
0.3383903 0.2874256 0.2802762
0.3914335 0.3017030 0.2842713
0.4364250 0.3190598 0.2898682
0.4749853 0.3379068 0.2968974
0.5085487 0.3571357 0.3051040
0.5381800 0.3760920 0.3142054
0.2849253 0.3543271 0.2889139
0.2897584 0.3545546 0.2890374
0.3152925 0.3560140 0.2898331
0.3580071 0.3596840 0.2918587
0.4024582 0.3657704 0.2952942
0.4432005 0.3741144 0.3001548
0.4794651 0.3843270 0.3063324
0.5116822 0.3959255 0.3136385
0.5404696 0.4084400 0.3218471
0.3385088 0.4154563 0.3063678
0.3409804 0.4155676 0.3064661
0.3554047 0.4162854 0.3070999
0.3841709 0.4181204 0.3087202
0.4189933 0.4212576 0.3114902
0.4539995 0.4257471 0.3154546
0.4868473 0.4315337 0.3205656
0.5169483 0.4384843 0.3267079
0.5443649 0.4464177 0.3337252
0.3825517 0.4645135 0.3267803
0.3840178 0.4645778 0.3268561
0.3929534 0.4649933 0.3273456
0.4125701 0.4660623 0.3286016
0.4390563 0.4679123 0.3307636
0.4680550 0.4706084 0.3338897
0.4968782 0.4741669 0.3379731
0.5242998 0.4785629 0.3429558
0.5498996 0.4837384 0.3487426
0.4199626 0.5054498 0.3482299
0.4209182 0.5054910 0.3482881
0.4268712 0.5057571 0.3486640
0.4406754 0.5064438 0.3496314
0.4607463 0.5076392 0.3513055
0.4843030 0.5093973 0.3537454
0.5090249 0.5117462 0.3569663
0.5334873 0.5146920 0.3609461
0.5569679 0.5182213 0.3656335
0.4524769 0.5405359 0.3695634
0.4531416 0.5405641 0.3696084
0.4573336 0.5407467 0.3698996
0.4673806 0.5412188 0.3706501
0.4827360 0.5420431 0.3719539
0.5017466 0.5432616 0.3738656
0.5226602 0.5449009 0.3764090
0.5441463 0.5469747 0.3795822
0.5653673 0.5494854 0.3833615
0.4812193 0.5712020 0.3901946
0.4817042 0.5712224 0.3902299
0.4847852 0.5713541 0.3904585
0.4923261 0.5716950 0.3910485
0.5042517 0.5722916 0.3920764
0.5196201 0.5731760 0.3935900
0.5371985 0.5743710 0.3956155
0.5558786 0.5758909 0.3981610
0.5748426 0.5777432 0.4012185
0.1565042 0.0039101 0.3520993
0.1858710 0.0053929 0.3521549
0.2608751 0.1362050 0.3525136
0.3311239 0.1949922 0.3534371
0.3876658 0.2381804 0.3550365
0.4341908 0.2740330 0.3573703
0.4735346 0.3050362 0.3604561
0.5075442 0.3324621 0.3642763
0.5374506 0.3570980 0.3687858
0.1739226 0.1648456 0.3523970
0.1966434 0.1684123 0.3524523
0.2644327 0.1870463 0.3528098
0.3325545 0.2181178 0.3537299
0.3883938 0.2510397 0.3553237
0.4346192 0.2820603 0.3576497
0.4738117 0.3104553 0.3607252
0.5077357 0.3363318 0.3645335
0.5375894 0.3599801 0.3690295
0.2303151 0.2749963 0.3542998
0.2403879 0.2756227 0.3543539
0.2840138 0.2795565 0.3547033
0.3412552 0.2888810 0.3556027
0.3929666 0.3029108 0.3571612
0.4373462 0.3200278 0.3594369
0.4755873 0.3386727 0.3624484
0.5089670 0.3577423 0.3661806
0.5384844 0.3765762 0.3705916
0.2905047 0.3549544 0.3590413
0.2950023 0.3551802 0.3590923
0.3190941 0.3566287 0.3594223
0.3602723 0.3602723 0.3602723
0.4038093 0.3663176 0.3617465
0.4440547 0.3746101 0.3639019
0.4800383 0.3847667 0.3667594
0.5120866 0.3963098 0.3703086
0.5407666 0.4087728 0.3745138
0.3413696 0.4157635 0.3667761
0.3437572 0.4158745 0.3668226
0.3577410 0.4165898 0.3671235
0.3858381 0.4184185 0.3678991
0.4201133 0.4215453 0.3692459
0.4547575 0.4260206 0.3712192
0.4873763 0.4317900 0.3738422
0.5173304 0.4387213 0.3771112
0.5446499 0.4466347 0.3809993
0.3842505 0.4646911 0.3771504
0.3856880 0.4647553 0.3771916
0.3944599 0.4651700 0.3774578
0.4137745 0.4662369 0.3781444
0.4399508 0.4680833 0.3793386
0.4687044 0.4707745 0.3810924
0.4973527 0.4743266 0.3834312
0.5246529 0.4787151 0.3863577
0.5501682 0.4838823 0.3898549
0.4210704 0.5055635 0.3895408
0.4220142 0.5056046 0.3895764
0.4278962 0.5058703 0.3898067
0.4415539 0.5065562 0.3904012
0.4614500 0.5077502 0.3914368
0.4848468 0.5095062 0.3929616
0.5094410 0.5118524 0.3950017
0.5338074 0.5147948 0.3975651
0.5572171 0.5183203 0.4006434
0.4532477 0.5406139 0.4032724
0.4539068 0.5406421 0.4033028
0.4580642 0.5408245 0.4034993
0.4680348 0.5412961 0.4040070
0.4832892 0.5421198 0.4048927
0.5021967 0.5433373 0.4061996
0.5230196 0.5449753 0.4079539
0.5444319 0.5470475 0.4101668
0.5655952 0.5495563 0.4128367
0.4817817 0.5712582 0.4177561
0.4822636 0.5712786 0.4177818
0.4853262 0.5714103 0.4179484
0.4928246 0.5717510 0.4183790
0.5046898 0.5723472 0.4191312
0.5199914 0.5732311 0.4202433
0.5375061 0.5744253 0.4217403
0.5561307 0.5759444 0.4236352
0.5750487 0.5777956 0.4259311
0.2055854 0.1119708 0.4132126
0.2198936 0.1231561 0.4132397
0.2738143 0.1611321 0.4134151
0.3365484 0.2044916 0.4138685
0.3904621 0.2431630 0.4146601
0.4358449 0.2770673 0.4158299
0.4746074 0.3070595 0.4174031
0.5082865 0.3338969 0.4193925
0.5379894 0.3581622 0.4217998
0.2135037 0.1802667 0.4133581
0.2262759 0.1829544 0.4133851
0.2767995 0.1978109 0.4135602
0.3378867 0.2247947 0.4140128
0.3911668 0.2551947 0.4148031
0.4362655 0.2847871 0.4159710
0.4748813 0.3123438 0.4175417
0.5084765 0.3377001 0.4195280
0.5381275 0.3610083 0.4219318
0.2494789 0.2779918 0.4142945
0.2572135 0.2785932 0.4143213
0.2936753 0.2823754 0.4144945
0.3460614 0.2913739 0.4149423
0.3955983 0.3049898 0.4157243
0.4389434 0.3217020 0.4168801
0.4766364 0.3400024 0.4184348
0.5096980 0.3587983 0.4204013
0.5390173 0.3774212 0.4227817
0.2994148 0.3560463 0.4166780
0.3034285 0.3562692 0.4167041
0.3253658 0.3576989 0.4168727
0.3641125 0.3612970 0.4173086
0.4061356 0.3672711 0.4180699
0.4455375 0.3754747 0.4191955
0.4810378 0.3855345 0.4207101
0.5127935 0.3969816 0.4226271
0.5412867 0.4093551 0.4249490
0.3461693 0.4163013 0.4207191
0.3484226 0.4164116 0.4207440
0.3616968 0.4171225 0.4209050
0.3886936 0.4189404 0.4213215
0.4220491 0.4220491 0.4220491
0.4560752 0.4264995 0.4231253
0.4882993 0.4322388 0.4245745
0.5179986 0.4391366 0.4264103
0.5451489 0.4470149 0.4286362
0.3871585 0.4650026 0.4264325
0.3885484 0.4650665 0.4264558
0.3970471 0.4654798 0.4266068
0.4158531 0.4665431 0.4269973
0.4415025 0.4683834 0.4276798
0.4698353 0.4710658 0.4286901
0.4981812 0.4746068 0.4300517
0.5252707 0.4789822 0.4317786
0.5506387 0.4841347 0.4338755
0.4229855 0.5057630 0.4336857
0.4239091 0.5058040 0.4337072
0.4296706 0.5060692 0.4338463
0.4430783 0.5067536 0.4342063
0.4626743 0.5079451 0.4348358
0.4857954 0.5096974 0.4357683
0.5101683 0.5120388 0.4370266
0.5343676 0.5149755 0.4386245
0.5576537 0.5184942 0.4405681
0.4545874 0.5407508 0.4422491
0.4552368 0.5407790 0.4422686
0.4593349 0.5409611 0.4423951
0.4691740 0.5414321 0.4427222
0.4842540 0.5422546 0.4432947
0.5029831 0.5434703 0.4441434
0.5236482 0.5451060 0.4452898
0.5449321 0.5471753 0.4467480
0.5659946 0.5496808 0.4485248
0.4827624 0.5713571 0.4518480
0.4832392 0.5713774 0.4518655
0.4862699 0.5715089 0.4519791
0.4936947 0.5718493 0.4522732
0.5054553 0.5724448 0.4527881
0.5206409 0.5733279 0.4535521
0.5380446 0.5745209 0.4545853
0.5565723 0.5760384 0.4559014
0.5754100 0.5778878 0.4575081
0.2419065 0.1602638 0.4622211
0.2504847 0.1641576 0.4622368
0.2896779 0.1840809 0.4623381
0.3440321 0.2163776 0.4626004
0.3944780 0.2499878 0.4630598
0.4382610 0.2813799 0.4637420
0.4761874 0.3099878 0.4646657
0.5093848 0.3359946 0.4658440
0.5387888 0.3597275 0.4672850
0.2465424 0.1973721 0.4623051
0.2545928 0.1993741 0.4623207
0.2920977 0.2109370 0.4624220
0.3452537 0.2336394 0.4626840
0.3951508 0.2609773 0.4631430
0.4386704 0.2886846 0.4638246
0.4764566 0.3150835 0.4647475
0.5095726 0.3397027 0.4659247
0.5389257 0.3625215 0.4673644
0.2708236 0.2822522 0.4628474
0.2766347 0.2828200 0.4628629
0.3061464 0.2863976 0.4629635
0.3527559 0.2949521 0.4632240
0.3993873 0.3079959 0.4636803
0.4412781 0.3241397 0.4643579
0.4781819 0.3419497 0.4652754
0.5107798 0.3603518 0.4664459
0.5398080 0.3786684 0.4678774
0.3110531 0.3576516 0.4642391
0.3145191 0.3578702 0.4642544
0.3339046 0.3592729 0.4643535
0.3695415 0.3628050 0.4646100
0.4095002 0.3686762 0.4650594
0.4477086 0.3767506 0.4657268
0.4825113 0.3866692 0.4666307
0.5138400 0.3979758 0.4677839
0.5420585 0.4102181 0.4691946
0.3528554 0.4170989 0.4666360
0.3549352 0.4172081 0.4666509
0.3672794 0.4179127 0.4667475
0.3927910 0.4197145 0.4669973
0.4248649 0.4227965 0.4674351
0.4580091 0.4272104 0.4680853
0.4896614 0.4329053 0.4689661
0.5189883 0.4397537 0.4700903
0.5458896 0.4475802 0.4714660
0.3913280 0.4654660 0.4701039
0.3926526 0.4655297 0.4701183
0.4007746 0.4659408 0.4702112
0.4188705 0.4669988 0.4704517
0.4437723 0.4688300 0.4708732
0.4714994 0.4714994 0.4714994
0.4994056 0.4750240 0.4723479
0.5261863 0.4793798 0.4734313
0.5513375 0.4845106 0.4747579
0.4257721 0.5060604 0.4746373
0.4266672 0.5061012 0.4746510
0.4322576 0.5063656 0.4747393
0.4453090 0.5070478 0.4749682
0.4644736 0.5082355 0.4753694
0.4871949 0.5099824 0.4759655
0.5112447 0.5123167 0.4767737
0.5351985 0.5152447 0.4778061
0.5583023 0.5187535 0.4790710
0.4565531 0.5409551 0.4801730
0.4571886 0.5409832 0.4801858
0.4612010 0.5411650 0.4802690
0.4708502 0.5416349 0.4804845
0.4856771 0.5424556 0.4808622
0.5041457 0.5436688 0.4814237
0.5245799 0.5453010 0.4821852
0.5456745 0.5473661 0.4831586
0.5665883 0.5498665 0.4843520
0.4842086 0.5715045 0.4866057
0.4846780 0.5715248 0.4866177
0.4876623 0.5716561 0.4866952
0.4949797 0.5719960 0.4868961
0.5065875 0.5725906 0.4872483
0.5216029 0.5734723 0.4877721
0.5388436 0.5746635 0.4884829
0.5572284 0.5761787 0.4893920
0.5759474 0.5780254 0.4905075
0.2722605 0.1900304 0.5031120
0.2779626 0.1922970 0.5031220
0.3070468 0.2051693 0.5031868
0.3532602 0.2296634 0.5033548
0.3996785 0.2583397 0.5036495
0.4414593 0.2868924 0.5040880
0.4783024 0.3138179 0.5046838
0.5108644 0.3387750 0.5054469
0.5398699 0.3618193 0.5063851
0.2753085 0.2147841 0.5031657
0.2807868 0.2162933 0.5031757
0.3089809 0.2252850 0.5032405
0.3543530 0.2440814 0.5034084
0.4003121 0.2681844 0.5037029
0.4418543 0.2937013 0.5041412
0.4785655 0.3186779 0.5047366
0.5110491 0.3423608 0.5054993
0.5400053 0.3645453 0.5064369
0.2924893 0.2877027 0.5035132
0.2968738 0.2882307 0.5035231
0.3204701 0.2915640 0.5035877
0.3611039 0.2995824 0.5037549
0.4043093 0.3119227 0.5040483
0.4443721 0.3273534 0.5044850
0.4802518 0.3445367 0.5050782
0.5122374 0.3624282 0.5058381
0.5408774 0.3803430 0.5067723
0.3245793 0.3597955 0.5044084
0.3275095 0.3600086 0.5044182
0.3442767 0.3613760 0.5044822
0.3764338 0.3648220 0.5046478
0.4138966 0.3705584 0.5049384
0.4505920 0.3784631 0.5053709
0.4844865 0.3881954 0.5059584
0.5152506 0.3993157 0.5067112
0.5431027 0.4113834 0.5076367
0.3611939 0.4181768 0.5059619
0.3630773 0.4182847 0.5059716
0.3743513 0.4189808 0.5060345
0.3980909 0.4207611 0.5061974
0.4285720 0.4238073 0.5064831
0.4605857 0.4281723 0.5069085
0.4914900 0.4338078 0.5074864
0.5203234 0.4405898 0.5082269
0.5468922 0.4483467 0.5091374
0.3967157 0.4660953 0.5082359
0.3979607 0.4661585 0.5082454
0.4056207 0.4665668 0.5083067
0.4228321 0.4676176 0.5084656
0.4467828 0.4694365 0.5087445
0.4737246 0.4720884 0.5091596
0.5010522 0.4755907 0.5097236
0.5274227 0.4799202 0.5104465
0.5522837 0.4850217 0.5113356
0.4294423 0.5064650 0.5112546
0.4303013 0.5065057 0.5112638
0.4356743 0.5067689 0.5113231
0.4482692 0.5074482 0.5114770
0.4668751 0.5086308 0.5117469
0.4890729 0.5103703 0.5121488
0.5126950 0.5126950 0.5126950
0.5363217 0.5156113 0.5133952
0.5591811 0.5191065 0.5142565
0.4591710 0.5412334 0.5150102
0.4597884 0.5412614 0.5150190
0.4636896 0.5414426 0.5150760
0.4730911 0.5419112 0.5152238
0.4875860 0.5427295 0.5154830
0.5057107 0.5439391 0.5158691
0.5258376 0.5455667 0.5163939
0.5466794 0.5476260 0.5170668
0.5673933 0.5501195 0.5178949
0.4861480 0.5717056 0.5194678
0.4866076 0.5717258 0.5194762
0.4895307 0.5718569 0.5195306
0.4967066 0.5721960 0.5196714
0.5081120 0.5727894 0.5199186
0.5229013 0.5736692 0.5202867
0.5399240 0.5748579 0.5207872
0.5581173 0.5763701 0.5214291
0.5766765 0.5782131 0.5222194
0.2987657 0.2140076 0.5381614
0.3028126 0.2155354 0.5381683
0.3249008 0.2246276 0.5382128
0.3638235 0.2435870 0.5383281
0.4059590 0.2678344 0.5385304
0.4454244 0.2934538 0.5388320
0.4809613 0.3184988 0.5392424
0.5127394 0.3422276 0.5397694
0.5412468 0.3644434 0.5404191
0.3009163 0.2318357 0.5381983
0.3048543 0.2329963 0.5382052
0.3264459 0.2400605 0.5382496
0.3647867 0.2555509 0.5383649
0.4065486 0.2765319 0.5385671
0.4458023 0.2997198 0.5388686
0.4812169 0.3230866 0.5392789
0.5129204 0.3456678 0.5398056
0.5413802 0.3670866 0.5404551
0.3135616 0.2941968 0.5384368
0.3169206 0.2946813 0.5384436
0.3357933 0.2977474 0.5384880
0.3707727 0.3051712 0.5386029
0.4102754 0.3167146 0.5388047
0.4482132 0.3313181 0.5391054
0.4828555 0.3477586 0.5395146
0.5140851 0.3650336 0.5400401
0.5422397 0.3824564 0.5406879
0.3392025 0.3624830 0.5390526
0.3416535 0.3626893 0.5390594
0.3559697 0.3640138 0.5391034
0.3845728 0.3673550 0.5392176
0.4192626 0.3729268 0.5394181
0.4541815 0.3806232 0.5397168
0.4869742 0.3901255 0.5401234
0.5170398 0.4010147 0.5406454
0.5444332 0.4128646 0.5412891
0.3708528 0.4195486 0.5401258
0.3725336 0.4196549 0.5401325
0.3826825 0.4203402 0.5401761
0.4044831 0.4220935 0.5402890
0.4331378 0.4250949 0.5404871
0.4638060 0.4293984 0.5407825
0.4937973 0.4349591 0.5411844
0.5220184 0.4416574 0.5417006
0.5481702 0.4493263 0.5423371
0.4032063 0.4669010 0.5417069
0.4043621 0.4669636 0.5417135
0.4115008 0.4673684 0.5417564
0.4276950 0.4684099 0.5418673
0.4505242 0.4702132 0.5420622
0.4765182 0.4728429 0.5423526
0.5031347 0.4763169 0.5427479
0.5289943 0.4806130 0.5432556
0.5534908 0.4856770 0.5438816
0.4339647 0.5069846 0.5438245
0.4347813 0.5070251 0.5438310
0.4398982 0.5072868 0.5438728
0.4519506 0.5079623 0.5439813
0.4698833 0.5091384 0.5441718
0.4914408 0.5108685 0.5444558
0.5145337 0.5131809 0.5448423
0.5377514 0.5160822 0.5453388
0.5603032 0.5195600 0.5459511
0.4624410 0.5415913 0.5464882
0.4630366 0.5416192 0.5464944
0.4668033 0.5417998 0.5465351
0.4759038 0.5422665 0.5466406
0.4899921 0.5430817 0.5468258
0.5076919 0.5442869 0.5471018
0.5274360 0.5459084 0.5474776
0.5479603 0.5479603 0.5479603
0.5684220 0.5504451 0.5485557
0.4885916 0.5719644 0.5496910
0.4890391 0.5719846 0.5496970
0.4918871 0.5721153 0.5497364
0.4988883 0.5724535 0.5498383
0.5100430 0.5730453 0.5500173
0.5245504 0.5739227 0.5502841
0.5413001 0.5751083 0.5506473
0.5592521 0.5766164 0.5511140
0.5776091 0.5784547 0.5516898
0.3224540 0.2347850 0.5687992
0.3254620 0.2358954 0.5688041
0.3426172 0.2426748 0.5688362
0.3753098 0.2576463 0.5689194
0.4131703 0.2781020 0.5690655
0.4501121 0.3008755 0.5692834
0.4841563 0.3239449 0.5695803
0.5150141 0.3463174 0.5699619
0.5429274 0.3675887 0.5704333
0.3240469 0.2482430 0.5688258
0.3269964 0.2491544 0.5688307
0.3438600 0.2547849 0.5688628
0.3761508 0.2675809 0.5689460
0.4137134 0.2857199 0.5690920
0.4504708 0.3065835 0.5693099
0.4844031 0.3282367 0.5696066
0.5151908 0.3495933 0.5699882
0.5430584 0.3701362 0.5704595
0.3336618 0.3015498 0.5689979
0.3362835 0.3019899 0.5690028
0.3514848 0.3047818 0.5690349
0.3814065 0.3115863 0.5691179
0.4171530 0.3222807 0.5692637
0.4527613 0.3359798 0.5694811
0.4859861 0.3515877 0.5697773
0.5163275 0.3681573 0.5701582
0.5439027 0.3850078 0.5706286
0.3543091 0.3657014 0.5694429
0.3563531 0.3659000 0.5694478
0.3685037 0.3671750 0.5694797
0.3937000 0.3703951 0.5695623
0.4254955 0.3757758 0.5697074
0.4584450 0.3832291 0.5699238
0.4899696 0.3924614 0.5702187
0.5192128 0.4030774 0.5705978
0.5460580 0.4146682 0.5710660
0.3814772 0.4212214 0.5702204
0.3829618 0.4213256 0.5702253
0.3920024 0.4219982 0.5702569
0.4118122 0.4237192 0.5703388
0.4384951 0.4266668 0.5704827
0.4676485 0.4308965 0.5706974
0.4965817 0.4363671 0.5709898
0.5240794 0.4429644 0.5713658
0.5497320 0.4505270 0.5718303
0.4106390 0.4678907 0.5713704
0.4117010 0.4679527 0.5713753
0.4182867 0.4683531 0.5714065
0.4333796 0.4693835 0.5714874
0.4549599 0.4711677 0.5716296
0.4798693 0.4737704 0.5718416
0.5056547 0.4772099 0.5721305
0.5309081 0.4814652 0.5725020
0.5549671 0.4864836 0.5729609
0.4392739 0.5076253 0.5729190
0.4400435 0.5076654 0.5729238
0.4448757 0.5079254 0.5729545
0.4563183 0.5085962 0.5730341
0.4734823 0.5097644 0.5731740
0.4942964 0.5114829 0.5733826
0.5167655 0.5137802 0.5736668
0.5394954 0.5166631 0.5740323
0.5616770 0.5201197 0.5744838
0.4663406 0.5420335 0.5748805
0.4669112 0.5420612 0.5748852
0.4705237 0.5422409 0.5749152
0.4792771 0.5427055 0.5749932
0.4928922 0.5435169 0.5751302
0.5100924 0.5447165 0.5753345
0.5293816 0.5463307 0.5756129
0.5495256 0.5483735 0.5759710
0.5696829 0.5508475 0.5764133
0.4915356 0.5722846 0.5772586
0.4919690 0.5723047 0.5772632
0.4947290 0.5724350 0.5772925
0.5015252 0.5727720 0.5773685
0.5123841 0.5733618 0.5775021
0.5265566 0.5742363 0.5777014
0.5429798 0.5754179 0.5779729
0.5606412 0.5769212 0.5783221
0.5787535 0.5787535 0.5787535
