sample/src/main/assets/lut/NBCU-DaVinci/2-NBCU_SDR2HLG_SL_VRT.cube
TITLE "SDR to HLG Scene-Light Conversion 3D Look-Up-Table"
# PLEASE DO NOT ALTER THE LINES BELOW
# 
# © 2020 NBCUniversal, LLC - Please do not remove this line
#
# Built using tools from and in collaboration with Cromorama and Nick Shaw - the creators of ORION-CONVERT
#
# Parameters designed by Chris Seeger, NBCU Advanced Technology (chris.seeger@nbcuni.com)
# In collaboration with Michael Drazin, NBCU Sports Group (michael.drazin@nbcuni.com)
#
# 100% SDR maps to 75% HLG (ITU-R BT.2408 Mode)
# SDR 100-109% preserved into HLG above 75% (preserves additional color volume from SDR)
# Highlight compression from 95% to 109% SDR
#
# Scene-Light Conversion converts SDR-BT.709 Chromaticity to HLG-BT.2100 Chromaticity
# Scene-Light Conversion provides a better SDR-camera match with native-HLG cameras
# Scene-Light Conversion will appear slightly less saturated and affects colors differently
#
# No Matrix Compensation (so make sure your device is using the correct matrix)
#
# Type III LUT - Full Range Processing for Narrow Range Signals
# RESOLVE 17 VIDEO RANGE TAGS
LUT_IN_VIDEO_RANGE
LUT_OUT_VIDEO_RANGE
LUT_3D_SIZE 5
0.0067838 0.0067838 0.0067838
0.1904765 0.0314733 0.0115479
0.3695976 0.1498184 0.0387513
0.5411958 0.2144153 0.1182136
0.6556178 0.2755661 0.1541579
0.1468774 0.2220282 0.0430847
0.2256031 0.2286165 0.0739378
0.3858130 0.2527049 0.1090892
0.5495475 0.2897186 0.1389088
0.6596307 0.3344287 0.1680208
0.2816469 0.4362126 0.1652737
0.3223149 0.4390715 0.1677212
0.4438499 0.4502986 0.1769905
0.5790353 0.4697297 0.1920145
0.6747097 0.4961999 0.2110568
0.4112814 0.6138226 0.2364122
0.4381663 0.6149395 0.2378693
0.5275623 0.6193281 0.2435815
0.6210052 0.6269246 0.2534341
0.6985968 0.6372724 0.2668288
0.5355595 0.7209929 0.3047255
0.5516516 0.7215486 0.3057737
0.6030770 0.7237520 0.3099228
0.6665389 0.7276403 0.3172215
0.7276137 0.7330881 0.3274095
0.0205284 0.0100403 0.2196806
0.1956277 0.0377864 0.2212913
0.3717791 0.1518164 0.2275785
0.5423207 0.2155721 0.2383304
0.6561517 0.2763923 0.2527915
0.1545045 0.2231301 0.2281458
0.2296750 0.2296750 0.2296750
0.3878858 0.2536301 0.2356579
0.5506129 0.2904936 0.2459367
0.6601508 0.3350765 0.2598411
0.2846938 0.4366842 0.2583863
0.3248899 0.4395395 0.2596811
0.4456087 0.4507531 0.2647781
0.5799147 0.4701625 0.2736436
0.6751811 0.4965967 0.2858291
0.4132036 0.6140068 0.3034383
0.4399517 0.6151224 0.3044921
0.5287915 0.6195058 0.3086628
0.6216742 0.6270938 0.3159977
0.6990002 0.6374305 0.3262331
0.5367265 0.7210844 0.3565700
0.5527025 0.7216398 0.3574339
0.6038289 0.7238419 0.3608653
0.6670361 0.7277279 0.3669450
0.7279476 0.7331727 0.3755185
0.1226588 0.0258528 0.4312056
0.2144993 0.0907950 0.4318950
0.3803571 0.1593983 0.4346404
0.5467404 0.2201152 0.4395320
0.6582692 0.2796665 0.4464880
0.1801710 0.2274651 0.4348923
0.2450592 0.2338445 0.4355749
0.3960497 0.2572873 0.4382934
0.5548028 0.2935679 0.4431381
0.6622142 0.3376530 0.4500293
0.2964872 0.4385651 0.4492907
0.3349485 0.4414063 0.4499479
0.4525662 0.4525662 0.4525662
0.5833830 0.4718896 0.4572358
0.6770528 0.4981742 0.4638850
0.4207910 0.6147417 0.4739418
0.4470115 0.6158519 0.4745597
0.5336131 0.6202148 0.4770225
0.6243219 0.6277685 0.4814195
0.7006037 0.6380613 0.4876907
0.5413081 0.7214500 0.5066049
0.5568364 0.7220041 0.5071395
0.6068007 0.7242010 0.5092600
0.6690093 0.7280781 0.5130047
0.7292761 0.7335106 0.5182573
0.1778600 0.0970923 0.6090074
0.2435785 0.1203284 0.6092816
0.3952417 0.1717277 0.6103736
0.5543886 0.2279794 0.6123199
0.6620090 0.2854392 0.6150884
0.2159045 0.2349944 0.6104738
0.2698957 0.2411049 0.6107454
0.4102632 0.2637033 0.6118270
0.5620678 0.2990015 0.6137551
0.6658599 0.3422314 0.6164980
0.3163396 0.4419276 0.6162040
0.3521764 0.4447438 0.6164656
0.4647875 0.4558090 0.6175077
0.5894353 0.4749805 0.6193660
0.6803654 0.5009735 0.6220111
0.4340591 0.6160556 0.6260080
0.4594039 0.6171564 0.6262533
0.5419275 0.6214828 0.6272311
0.6289757 0.6289757 0.6289757
0.7034485 0.6391903 0.6314612
0.5492255 0.7221060 0.6391459
0.5640079 0.7226577 0.6393711
0.6120092 0.7248453 0.6402688
0.6724986 0.7287063 0.6418718
0.7316388 0.7341170 0.6441581
0.2277264 0.1322840 0.7165681
0.2787856 0.1462626 0.7167040
0.4156363 0.1874059 0.7172464
0.5648027 0.2387204 0.7182181
0.6672546 0.2935233 0.7196108
0.2562101 0.2453236 0.7172963
0.3012521 0.2510996 0.7174315
0.4298246 0.2726255 0.7179714
0.5719888 0.3066368 0.7189385
0.6709775 0.3487155 0.7203247
0.3425420 0.4467327 0.7201756
0.3753913 0.4495139 0.7203083
0.4818126 0.4604465 0.7208381
0.5977760 0.4794047 0.7217873
0.6850274 0.5049289 0.7231481
0.4524284 0.6179339 0.7252260
0.4766504 0.6190213 0.7253544
0.5531928 0.6232961 0.7258671
0.6354579 0.6307029 0.7267858
0.7074666 0.6408066 0.7281030
0.5599845 0.7230486 0.7322393
0.5738078 0.7235970 0.7323620
0.6192331 0.7257713 0.7328518
0.6774024 0.7296093 0.7337296
0.7349887 0.7349887 0.7349887
