sample/src/main/assets/lut/NBCU-DaVinci/2-NBCU_SDR2HLG_SL_VRT.cube
TITLE "SDR to HLG Scene-Light Conversion 3D Look-Up-Table"
# PLEASE DO NOT ALTER THE LINES BELOW
# 
# © 2020 NBCUniversal, LLC - Please do not remove this line
#
# Built using tools from and in collaboration with Cromorama and Nick Shaw - the creators of ORION-CONVERT
#
# Parameters designed by Chris Seeger, NBCU Advanced Technology (chris.seeger@nbcuni.com)
# In collaboration with Michael Drazin, NBCU Sports Group (michael.drazin@nbcuni.com)
#
# 100% SDR maps to 75% HLG (ITU-R BT.2408 Mode)
# SDR 100-109% preserved into HLG above 75% (preserves additional color volume from SDR)
# Highlight compression from 95% to 109% SDR
#
# Scene-Light Conversion converts SDR-BT.709 Chromaticity to HLG-BT.2100 Chromaticity
# Scene-Light Conversion provides a better SDR-camera match with native-HLG cameras
# Scene-Light Conversion will appear slightly less saturated and affects colors differently
#
# No Matrix Compensation (so make sure your device is using the correct matrix)
#
# Type III LUT - Full Range Processing for Narrow Range Signals
# RESOLVE 17 VIDEO RANGE TAGS
LUT_IN_VIDEO_RANGE
LUT_OUT_VIDEO_RANGE
LUT_3D_SIZE 9
0.0067838 0.0067838 0.0067838
0.0905810 0.0107730 0.0077039
0.1904765 0.0314733 0.0115479
0.2805622 0.1122149 0.0202739
0.3695976 0.1498184 0.0387513
0.4582924 0.1828880 0.0951428
0.5411958 0.2144153 0.1182136
0.6045879 0.2452007 0.1369923
0.6556178 0.2755661 0.1541579
0.0299079 0.1135445 0.0119199
0.1157587 0.1175920 0.0129351
0.1982343 0.1314375 0.0172204
0.2852028 0.1529818 0.0273242
0.3729098 0.1779918 0.0580515
0.4608677 0.2046490 0.1026626
0.5429036 0.2321786 0.1229248
0.6057189 0.2602164 0.1405776
0.6564291 0.2885734 0.1570944
0.1468774 0.2220282 0.0430847
0.1674680 0.2233679 0.0459016
0.2256031 0.2286165 0.0739378
0.3028626 0.2386473 0.0932786
0.3858130 0.2527049 0.1090892
0.4710016 0.2699723 0.1241512
0.5495475 0.2897186 0.1389088
0.6101593 0.3113543 0.1535104
0.6596307 0.3344287 0.1680208
0.2157413 0.3292103 0.1257445
0.2279709 0.3300137 0.1265450
0.2697751 0.3332019 0.1296499
0.3347738 0.3394697 0.1354654
0.4101913 0.3486148 0.1434087
0.4905547 0.3603722 0.1529204
0.5620312 0.3744466 0.1635584
0.6186734 0.3905399 0.1750033
0.6658413 0.4083703 0.1870329
0.2816469 0.4362126 0.1652737
0.2903654 0.4367863 0.1657681
0.3223149 0.4390715 0.1677212
0.3766219 0.4436018 0.1715234
0.4438499 0.4502986 0.1769905
0.5168444 0.4590521 0.1838976
0.5790353 0.4697297 0.1920145
0.6306189 0.4821844 0.2011288
0.6747097 0.4961999 0.2110568
0.3466605 0.5381855 0.2014636
0.3534368 0.5385526 0.2018295
0.3790827 0.5400116 0.2032830
0.4249808 0.5428891 0.2061466
0.4845742 0.5471067 0.2103383
0.5460781 0.5525557 0.2157491
0.5991185 0.5591052 0.2222552
0.6452224 0.5666121 0.2297287
0.6857883 0.5749289 0.2380461
0.4112814 0.6138226 0.2364122
0.4168238 0.6140467 0.2367047
0.4381663 0.6149395 0.2378693
0.4775809 0.6167100 0.2401761
0.5275623 0.6193281 0.2435815
0.5761820 0.6227509 0.2480250
0.6210052 0.6269246 0.2534341
0.6617132 0.6317875 0.2597293
0.6985968 0.6372724 0.2668288
0.4756938 0.6725837 0.2707455
0.4803827 0.6727365 0.2709899
0.4984973 0.6733456 0.2719639
0.5296828 0.6745568 0.2738989
0.5670540 0.6763561 0.2767688
0.6058988 0.6787229 0.2805368
0.6437097 0.6816308 0.2851573
0.6794109 0.6850491 0.2905784
0.7126747 0.6889430 0.2967444
0.5355595 0.7209929 0.3047255
0.5389174 0.7211043 0.3049356
0.5516516 0.7215486 0.3057737
0.5743305 0.7224338 0.3074417
0.6030770 0.7237520 0.3099228
0.6345557 0.7254923 0.3131928
0.6665389 0.7276403 0.3172215
0.6977649 0.7301788 0.3219733
0.7276137 0.7330881 0.3274095
0.0092495 0.0074200 0.1120647
0.0950279 0.0114588 0.1130823
0.1915236 0.0326297 0.1169611
0.2811782 0.1129204 0.1239899
0.3700354 0.1502218 0.1332350
0.4586321 0.1831809 0.1439446
0.5414216 0.2146475 0.1556143
0.6047371 0.2453938 0.1679258
0.6557247 0.2757317 0.1806783
0.0343254 0.1142318 0.1173075
0.1182294 0.1182294 0.1182294
0.1992220 0.1319478 0.1217720
0.2858061 0.1533711 0.1282883
0.3733428 0.1782970 0.1370015
0.4612052 0.2048971 0.1472360
0.5431269 0.2323865 0.1585063
0.6058671 0.2603948 0.1704883
0.6565355 0.2887294 0.1829698
0.1484576 0.2222492 0.1345498
0.1687422 0.2235872 0.1352534
0.2264259 0.2288288 0.1380007
0.3034216 0.2388475 0.1432163
0.3862288 0.2528904 0.1504620
0.4713307 0.2701424 0.1592826
0.5497612 0.2898739 0.1692882
0.6103032 0.3114961 0.1801769
0.6597349 0.3345584 0.1917255
0.2166168 0.3293426 0.1603049
0.2287820 0.3301456 0.1608242
0.2704231 0.3333322 0.1628737
0.3352674 0.3395971 0.1668527
0.4105779 0.3487381 0.1725522
0.4908688 0.3604907 0.1797213
0.5622282 0.3745597 0.1881085
0.6188096 0.3906475 0.1974868
0.6659414 0.4084723 0.2076643
0.2822599 0.4363070 0.1894926
0.2909550 0.4368806 0.1898929
0.3228322 0.4391652 0.1914811
0.3770498 0.4436944 0.1946008
0.4442024 0.4503896 0.1991473
0.5171090 0.4591411 0.2049839
0.5792117 0.4698163 0.2119596
0.6307448 0.4822685 0.2199228
0.6748041 0.4962794 0.2287317
0.3471335 0.5382460 0.2202177
0.3538988 0.5386129 0.2205402
0.3795073 0.5400713 0.2218231
0.4253517 0.5429477 0.2243588
0.4848927 0.5471638 0.2280900
0.5462967 0.5526107 0.2329380
0.5992732 0.5591579 0.2388107
0.6453369 0.5666622 0.2456095
0.6858761 0.5749765 0.2532354
0.4116668 0.6138595 0.2517327
0.4172032 0.6140836 0.2520016
0.4385242 0.6149761 0.2530727
0.4779048 0.6167462 0.2551975
0.5278090 0.6193637 0.2583418
0.5763616 0.6227857 0.2624575
0.6211393 0.6269585 0.2674860
0.6618160 0.6318203 0.2733620
0.6986776 0.6373040 0.2800168
0.4760192 0.6726088 0.2837001
0.4807044 0.6727616 0.2839301
0.4987956 0.6733706 0.2848475
0.5299261 0.6745816 0.2866712
0.5672447 0.6763806 0.2893797
0.6060468 0.6787470 0.2929415
0.6438253 0.6816545 0.2973179
0.6795025 0.6850722 0.3024644
0.7127484 0.6889656 0.3083324
0.5357937 0.7210112 0.3159487
0.5391465 0.7211226 0.3161495
0.5518625 0.7215669 0.3169507
0.5745123 0.7224519 0.3185458
0.6032278 0.7237700 0.3209203
0.6346784 0.7255101 0.3240529
0.6666385 0.7276578 0.3279167
0.6978461 0.7301960 0.3324804
0.7276806 0.7331051 0.3377090
0.0205284 0.0100403 0.2196806
0.1087073 0.0142979 0.2200042
0.1956277 0.0377864 0.2212913
0.2836240 0.1156475 0.2238355
0.3717791 0.1518164 0.2275785
0.4599874 0.1843447 0.2324410
0.5423207 0.2155721 0.2383304
0.6053324 0.2461636 0.2451471
0.6561517 0.2763923 0.2527915
0.0792381 0.1168931 0.2214104
0.1271703 0.1207080 0.2217305
0.2031014 0.1339517 0.2230038
0.2882017 0.1549113 0.2255212
0.3750682 0.1795094 0.2292263
0.4625517 0.2058847 0.2340422
0.5440161 0.2332150 0.2398783
0.6064580 0.2611065 0.2466377
0.6569602 0.2893522 0.2542227
0.1545045 0.2231301 0.2281458
0.1736908 0.2244608 0.2284529
0.2296750 0.2296750 0.2296750
0.3056437 0.2396458 0.2320934
0.3878858 0.2536301 0.2356579
0.4726440 0.2708208 0.2402996
0.5506129 0.2904936 0.2459367
0.6108773 0.3120621 0.2524806
0.6601508 0.3350765 0.2598411
0.2200684 0.3298708 0.2408580
0.2319859 0.3306722 0.2411432
0.2729940 0.3338526 0.2422790
0.3372320 0.3401058 0.2445300
0.4121195 0.3492306 0.2478554
0.4921183 0.3609637 0.2521988
0.5630135 0.3750115 0.2574921
0.6193527 0.3910771 0.2636603
0.6663408 0.4088799 0.2706256
0.2846938 0.4366842 0.2583863
0.2932972 0.4372572 0.2586461
0.3248899 0.4395395 0.2596811
0.3787549 0.4440643 0.2617354
0.4456087 0.4507531 0.2647781
0.5181624 0.4594966 0.2687653
0.5799147 0.4701625 0.2736436
0.6312473 0.4826045 0.2793528
0.6751811 0.4965967 0.2858291
0.3490167 0.5384873 0.2795669
0.3557386 0.5388537 0.2798014
0.3811993 0.5403098 0.2807360
0.4268308 0.5431817 0.2825939
0.4861639 0.5473915 0.2853519
0.5471678 0.5528305 0.2889771
0.5998900 0.5593685 0.2934287
0.6457937 0.5668627 0.2986599
0.6862268 0.5751664 0.3046202
0.4132036 0.6140068 0.3034383
0.4187161 0.6142307 0.3036495
0.4399517 0.6151224 0.3044921
0.4791973 0.6168908 0.3061688
0.5287915 0.6195058 0.3086628
0.5770778 0.6229247 0.3119493
0.6216742 0.6270938 0.3159977
0.6622263 0.6319514 0.3207721
0.6990002 0.6374305 0.3262331
0.4773177 0.6727093 0.3292789
0.4819883 0.6728619 0.3294697
0.4999822 0.6734705 0.3302310
0.5308952 0.6746808 0.3317474
0.5680047 0.6764786 0.3340065
0.6066370 0.6788435 0.3369897
0.6442866 0.6817492 0.3406738
0.6798681 0.6851648 0.3450315
0.7130427 0.6890558 0.3500319
0.5367265 0.7210844 0.3565700
0.5400591 0.7211957 0.3567430
0.5527025 0.7216398 0.3574339
0.5752372 0.7225244 0.3588112
0.6038289 0.7238419 0.3608653
0.6351681 0.7255812 0.3635825
0.6670361 0.7277279 0.3669450
0.6981705 0.7302650 0.3709315
0.7279476 0.7331727 0.3755185
0.0821709 0.0157200 0.3255616
0.1279886 0.0205493 0.3257550
0.2034795 0.0555299 0.3265270
0.2884374 0.1207204 0.3280647
0.3752384 0.1549237 0.3303548
0.4626847 0.1866400 0.3333782
0.5441039 0.2174052 0.3371108
0.6065164 0.2476941 0.3415241
0.6570022 0.2777079 0.3465863
0.1118502 0.1218596 0.3265986
0.1420949 0.1253736 0.3267913
0.2105573 0.1378005 0.3275603
0.2929195 0.1579179 0.3290920
0.3784914 0.1818978 0.3313733
0.4652319 0.2078401 0.3343855
0.5457797 0.2348606 0.3381044
0.6076333 0.2625227 0.3425020
0.6578063 0.2905930 0.3475469
0.1655411 0.2248779 0.3307048
0.1829816 0.2261944 0.3308945
0.2359922 0.2313551 0.3316518
0.3100292 0.2412322 0.3331603
0.3911755 0.2551012 0.3354076
0.4752586 0.2721713 0.3383757
0.5523025 0.2917282 0.3420416
0.6120193 0.3131905 0.3463782
0.6609795 0.3361100 0.3513553
0.2267556 0.3309243 0.3387359
0.2382200 0.3317226 0.3389201
0.2780449 0.3348908 0.3396554
0.3411206 0.3411206 0.3411206
0.4151832 0.3502132 0.3433042
0.4945876 0.3619078 0.3461897
0.5645724 0.3759133 0.3497558
0.6204334 0.3919349 0.3539777
0.6671367 0.4096937 0.3588272
0.2894845 0.4374377 0.3503635
0.2979129 0.4380096 0.3505403
0.3289587 0.4402873 0.3512461
0.3821386 0.4448032 0.3526527
0.4484066 0.4514793 0.3547502
0.5202481 0.4602068 0.3575237
0.5813114 0.4708542 0.3609544
0.6322475 0.4832757 0.3650200
0.6759325 0.4972296 0.3696952
0.3527474 0.5389690 0.3651735
0.3593848 0.5393342 0.3653416
0.3845573 0.5407857 0.3660130
0.4297718 0.5436489 0.3673515
0.4886957 0.5478460 0.3693484
0.5488957 0.5532691 0.3719911
0.6011166 0.5597889 0.3752632
0.6467036 0.5672630 0.3791450
0.6869260 0.5755456 0.3836146
0.4162580 0.6143012 0.3827244
0.4217236 0.6145246 0.3828834
0.4427912 0.6154146 0.3835180
0.4817711 0.6171796 0.3847838
0.5307383 0.6197898 0.3866734
0.5785005 0.6232024 0.3891759
0.6227387 0.6273640 0.3922774
0.6630438 0.6322132 0.3959613
0.6996436 0.6376831 0.4002083
0.4799030 0.6729099 0.4025922
0.4845451 0.6730623 0.4027418
0.5023289 0.6736701 0.4033394
0.5328156 0.6748789 0.4045319
0.5695139 0.6766744 0.4063129
0.6078110 0.6790363 0.4086735
0.6452055 0.6819383 0.4116018
0.6805968 0.6853498 0.4150838
0.7136298 0.6892362 0.4191031
0.5385755 0.7212308 0.4243952
0.5418686 0.7213419 0.4245359
0.5543694 0.7217856 0.4250976
0.5766770 0.7226694 0.4262187
0.6050245 0.7239857 0.4278940
0.6361431 0.7257233 0.4301160
0.6678284 0.7278681 0.4328748
0.6988173 0.7304028 0.4361586
0.7284803 0.7333079 0.4399535
0.1226588 0.0258528 0.4312056
0.1492096 0.0322559 0.4313437
0.2144993 0.0907950 0.4318950
0.2954716 0.1275926 0.4329955
0.3803571 0.1593983 0.4346404
0.4666974 0.1900059 0.4368223
0.5467404 0.2201152 0.4395320
0.6082754 0.2499666 0.4427583
0.6582692 0.2796665 0.4464880
0.1377715 0.1286134 0.4319462
0.1602997 0.1317854 0.4320840
0.2210858 0.1432305 0.4326342
0.2998208 0.1622582 0.4337326
0.3835582 0.1853937 0.4353741
0.4692194 0.2107251 0.4375518
0.5483878 0.2373001 0.4402563
0.6093797 0.2646285 0.4434764
0.6590667 0.2924418 0.4471992
0.1801710 0.2274651 0.4348923
0.1957088 0.2287611 0.4350290
0.2450592 0.2338445 0.4355749
0.3164659 0.2435858 0.4366646
0.3960497 0.2572873 0.4382934
0.4791502 0.2741811 0.4404542
0.5548028 0.2935679 0.4431381
0.6137166 0.3148737 0.4463340
0.6622142 0.3376530 0.4500293
0.2363052 0.3324970 0.4407172
0.2471776 0.3332906 0.4408518
0.2854074 0.3364407 0.4413893
0.3468542 0.3426361 0.4424623
0.4197299 0.3516810 0.4440663
0.4982188 0.3633186 0.4461946
0.5668815 0.3772613 0.4488386
0.6220404 0.3932176 0.4519878
0.6683229 0.4109110 0.4556299
0.2964872 0.4385651 0.4492907
0.3046719 0.4391353 0.4494223
0.3349485 0.4414063 0.4499479
0.3871485 0.4459090 0.4509973
0.4525662 0.4525662 0.4525662
0.5233247 0.4612699 0.4546484
0.5833830 0.4718896 0.4572358
0.6337358 0.4842806 0.4603184
0.6770528 0.4981742 0.4638850
0.3582557 0.5396887 0.4604352
0.3647722 0.5400522 0.4605631
0.3895302 0.5414970 0.4610740
0.4341400 0.5443470 0.4620942
0.4924592 0.5485252 0.4636197
0.5514517 0.5539248 0.4656448
0.6029384 0.5604173 0.4681620
0.6480584 0.5678616 0.4711623
0.6879690 0.5761127 0.4746350
0.4207910 0.6147417 0.4739418
0.4261885 0.6149644 0.4740655
0.4470115 0.6158519 0.4745597
0.4856027 0.6176119 0.4755465
0.5336131 0.6202148 0.4770225
0.5806103 0.6236180 0.4789825
0.6243219 0.6277685 0.4814195
0.6642620 0.6326051 0.4843255
0.7006037 0.6380613 0.4876907
0.4837517 0.6732105 0.4895864
0.4883518 0.6733626 0.4897056
0.5057831 0.6739692 0.4901817
0.5356520 0.6751756 0.4911322
0.5717502 0.6769677 0.4925480
0.6095553 0.6793250 0.4944157
0.6465736 0.6822217 0.4967187
0.6816836 0.6856269 0.4994375
0.7145063 0.6895063 0.5025496
0.5413081 0.7214500 0.5066049
0.5445436 0.7215611 0.5067120
0.5568364 0.7220041 0.5071395
0.5788119 0.7228866 0.5079912
0.6068007 0.7242010 0.5092600
0.6375942 0.7259363 0.5109356
0.6690093 0.7280781 0.5130047
0.6997826 0.7306093 0.5154514
0.7292761 0.7335106 0.5182573
0.1515265 0.0477737 0.5328735
0.1712398 0.0770673 0.5329637
0.2280552 0.1064471 0.5333239
0.3045330 0.1357590 0.5340421
0.3870567 0.1650612 0.5351131
0.4719866 0.1943602 0.5365296
0.5501868 0.2236578 0.5382821
0.6105899 0.2529545 0.5403589
0.6599426 0.2822508 0.5427469
0.1623594 0.1366674 0.5333574
0.1802723 0.1395081 0.5334473
0.2341221 0.1499475 0.5338064
0.3087222 0.1677673 0.5345223
0.3901924 0.1899058 0.5355900
0.4744762 0.2144868 0.5370021
0.5517978 0.2405008 0.5387492
0.6116777 0.2674026 0.5408198
0.6607314 0.2948841 0.5432006
0.1972280 0.2308530 0.5352769
0.2109909 0.2321231 0.5353657
0.2564906 0.2371086 0.5357204
0.3248029 0.2466773 0.5364274
0.4024401 0.2601645 0.5374819
0.4842832 0.2768316 0.5388768
0.5580743 0.2959984 0.5406028
0.6159509 0.3171009 0.5426486
0.6638452 0.3396972 0.5450014
0.2482763 0.3345799 0.5390462
0.2584854 0.3353675 0.5391329
0.2948617 0.3384938 0.5394789
0.3543242 0.3446441 0.5401688
0.4257039 0.3536267 0.5411980
0.5029304 0.3651894 0.5425596
0.5699073 0.3790497 0.5442447
0.6241574 0.3949202 0.5462428
0.6698905 0.4125275 0.5485414
0.3055107 0.4400632 0.5445322
0.3134012 0.4406312 0.5446158
0.3427360 0.4428932 0.5449497
0.3937108 0.4473785 0.5456154
0.4580444 0.4540107 0.5466087
0.5273331 0.4626830 0.5479232
0.5861025 0.4732662 0.5495507
0.6356980 0.4856169 0.5514812
0.6785339 0.4994246 0.5537030
0.3654446 0.5406432 0.5515541
0.3718096 0.5410044 0.5516340
0.3960455 0.5424403 0.5519529
0.4398859 0.5452729 0.5525890
0.4973485 0.5494263 0.5535382
0.5547948 0.5547948 0.5547948
0.6053344 0.5612512 0.5563512
0.6498465 0.5686561 0.5581983
0.6893486 0.5768656 0.5603255
0.4267475 0.6153270 0.5599018
0.4320580 0.6155489 0.5599775
0.4525678 0.6164330 0.5602795
0.4906584 0.6181864 0.5608820
0.5373642 0.6207796 0.5617813
0.5833790 0.6241705 0.5629723
0.6264077 0.6283062 0.5644482
0.6658715 0.6331261 0.5662007
0.7018745 0.6385641 0.5682203
0.4888293 0.6736103 0.5693533
0.4933605 0.6737620 0.5694244
0.5102710 0.6743671 0.5697084
0.5393541 0.6755703 0.5702750
0.5746823 0.6773578 0.5711210
0.6118507 0.6797092 0.5722417
0.6483789 0.6825987 0.5736313
0.6831208 0.6859957 0.5752824
0.7156673 0.6898659 0.5771864
0.5448775 0.7217419 0.5796900
0.5480392 0.7218527 0.5797565
0.5600652 0.7222950 0.5800219
0.5816130 0.7231758 0.5805516
0.6091374 0.7244877 0.5813429
0.6395080 0.7262197 0.5823915
0.6705699 0.7283576 0.5836924
0.7010602 0.7308843 0.5852390
0.7303307 0.7337804 0.5870238
0.1778600 0.0970923 0.6090074
0.1936720 0.1028290 0.6090623
0.2435785 0.1203284 0.6092816
0.3154038 0.1448351 0.6097193
0.3952417 0.1717277 0.6103736
0.4785037 0.1996088 0.6112416
0.5543886 0.2279794 0.6123199
0.6134348 0.2566248 0.6136039
0.6620090 0.2854392 0.6150884
0.1864107 0.1456443 0.6093019
0.2012512 0.1481877 0.6093567
0.2491413 0.1576793 0.6095756
0.3194157 0.1742724 0.6100124
0.3983010 0.1953307 0.6106655
0.4809546 0.2190619 0.6115319
0.5559562 0.2444226 0.6126081
0.6145026 0.2708185 0.6138897
0.6627872 0.2979014 0.6153715
0.2159045 0.2349944 0.6104738
0.2281220 0.2362342 0.6105282
0.2698957 0.2411049 0.6107454
0.3348656 0.2504703 0.6111789
0.4102632 0.2637033 0.6118270
0.4906132 0.2800994 0.6126869
0.5620678 0.2990015 0.6137551
0.6186988 0.3198578 0.6150271
0.6658599 0.3422314 0.6164980
0.2622337 0.3371613 0.6127916
0.2717628 0.3379416 0.6128451
0.3061645 0.3410390 0.6130590
0.3634011 0.3471343 0.6134861
0.4330360 0.3560406 0.6141245
0.5086233 0.3675119 0.6149717
0.5736075 0.3812712 0.6160241
0.6267631 0.3970362 0.6172775
0.6718277 0.4145377 0.6187270
0.3163396 0.4419276 0.6162040
0.3239033 0.4424927 0.6162564
0.3521764 0.4447438 0.6164656
0.4017353 0.4492076 0.6168832
0.4647875 0.4558090 0.6175077
0.5322005 0.4644424 0.6183364
0.5894353 0.4749805 0.6193660
0.6381161 0.4872813 0.6205924
0.6803654 0.5009735 0.6220111
0.3741978 0.5418279 0.6206389
0.3803875 0.5421864 0.6206898
0.4040152 0.5436113 0.6208930
0.4469476 0.5464226 0.6212988
0.5032487 0.5505453 0.6219055
0.5588737 0.5558754 0.6227108
0.6082777 0.5622873 0.6237115
0.6520526 0.5696434 0.6249038
0.6910560 0.5778016 0.6262832
0.4340591 0.6160556 0.6260080
0.4392665 0.6162765 0.6260571
0.4594039 0.6171564 0.6262533
0.4968168 0.6189016 0.6266452
0.5419275 0.6214828 0.6272311
0.5867710 0.6248583 0.6280090
0.6289757 0.6289757 0.6289757
0.6678599 0.6337749 0.6301279
0.7034485 0.6391903 0.6314612
0.4950530 0.6741086 0.6322119
0.4994133 0.6742598 0.6322591
0.5157020 0.6748629 0.6324475
0.5438594 0.6760623 0.6328239
0.5782702 0.6778441 0.6333867
0.6146725 0.6801881 0.6341339
0.6506062 0.6830687 0.6350629
0.6848986 0.6864553 0.6361704
0.7171063 0.6903141 0.6374523
0.5492255 0.7221060 0.6391459
0.5522995 0.7222166 0.6391910
0.5640079 0.7226577 0.6393711
0.5850439 0.7235365 0.6397308
0.6120092 0.7248453 0.6402688
0.6418670 0.7265733 0.6409833
0.6724986 0.7287063 0.6418718
0.7026425 0.7312273 0.6429312
0.7316388 0.7341170 0.6441581
0.2030914 0.1162800 0.6680158
0.2163304 0.1201356 0.6680531
0.2606071 0.1334863 0.6682023
0.3278616 0.1545520 0.6685004
0.4048056 0.1792259 0.6689464
0.4861920 0.2056534 0.6695391
0.5592832 0.2330209 0.6702768
0.6167804 0.2609396 0.6711574
0.6644524 0.2892061 0.6721784
0.2101878 0.1552764 0.6682162
0.2228416 0.1575623 0.6682535
0.2657041 0.1661989 0.6684025
0.3316878 0.1816104 0.6687002
0.4077801 0.2015614 0.6691456
0.4885987 0.2243814 0.6697375
0.5608017 0.2490200 0.6704743
0.6178252 0.2748450 0.6713537
0.6652184 0.3014719 0.6723734
0.2356770 0.2398365 0.6690148
0.2465864 0.2410427 0.6690519
0.2849180 0.2457856 0.6692001
0.3464707 0.2549232 0.6694963
0.4194247 0.2678694 0.6699394
0.4979763 0.2839572 0.6705283
0.5667267 0.3025556 0.6712612
0.6219325 0.3231276 0.6721362
0.6682431 0.3452426 0.6731507
0.2777913 0.3402275 0.6706000
0.2866599 0.3409991 0.6706367
0.3190714 0.3440629 0.6707834
0.3739445 0.3500941 0.6710765
0.4416476 0.3589115 0.6715151
0.5151867 0.3702757 0.6720980
0.5779329 0.3839167 0.6728235
0.6298325 0.3995580 0.6736895
0.6741205 0.4169350 0.6746939
0.3287536 0.4441528 0.6729476
0.3359741 0.4447147 0.6729838
0.3631138 0.4469527 0.6731283
0.4111210 0.4513912 0.6734169
0.4727330 0.4579561 0.6738489
0.5378444 0.4665437 0.6744229
0.5933414 0.4770283 0.6751375
0.6409682 0.4892701 0.6759907
0.6825347 0.5028118 0.6769800
0.3843877 0.5432377 0.6760230
0.3903851 0.5435929 0.6760584
0.4133400 0.5450048 0.6762001
0.4552543 0.5477908 0.6764830
0.5100414 0.5518774 0.6769063
0.5636292 0.5571621 0.6774691
0.6117365 0.5635215 0.6781696
0.6546588 0.5708199 0.6790061
0.6930800 0.5789172 0.6799762
0.4426475 0.6169254 0.6797824
0.4477389 0.6171450 0.6798170
0.4674551 0.6180199 0.6799552
0.5038943 0.6197554 0.6802312
0.5472300 0.6223224 0.6806444
0.5907447 0.6256796 0.6811936
0.6320016 0.6297753 0.6818774
0.6702124 0.6345499 0.6826939
0.7053161 0.6399384 0.6836410
0.5022106 0.6747045 0.6841753
0.5063744 0.6748551 0.6842089
0.5219749 0.6754559 0.6843431
0.5490965 0.6766507 0.6846114
0.5824676 0.6784257 0.6850129
0.6179914 0.6807609 0.6855467
0.6532369 0.6836307 0.6862113
0.6870051 0.6870051 0.6870051
0.7188155 0.6908502 0.6879260
0.5542852 0.7225418 0.6891459
0.5572603 0.7226520 0.6891785
0.5686089 0.7230919 0.6893085
0.5890621 0.7239682 0.6895682
0.6153857 0.7252734 0.6899569
0.6446508 0.7269966 0.6904738
0.6747814 0.7291237 0.6911174
0.7045199 0.7316379 0.6918862
0.7331940 0.7345199 0.6927783
0.2277264 0.1322840 0.7165681
0.2391278 0.1352961 0.7165953
0.2787856 0.1462626 0.7167040
0.3416940 0.1647271 0.7169212
0.4156363 0.1874059 0.7172464
0.4949513 0.2123975 0.7176790
0.5648027 0.2387204 0.7182181
0.6205934 0.2658579 0.7188624
0.6672546 0.2935233 0.7196108
0.2338049 0.1653798 0.7167141
0.2448265 0.1674458 0.7167412
0.2834636 0.1753279 0.7168498
0.3453331 0.1896370 0.7170668
0.4185204 0.2084948 0.7173917
0.4972567 0.2303746 0.7178239
0.5662677 0.2542444 0.7183625
0.6216126 0.2794482 0.7190062
0.6680068 0.3055712 0.7197539
0.2562101 0.2453236 0.7172963
0.2660215 0.2464938 0.7173234
0.3012521 0.2510996 0.7174315
0.3594373 0.2599914 0.7176477
0.4298246 0.2726255 0.7179714
0.5061419 0.2883748 0.7184020
0.5719888 0.3066368 0.7189385
0.6256208 0.3268913 0.7195798
0.6709775 0.3487155 0.7203247
0.2946276 0.3437624 0.7184545
0.3028757 0.3445243 0.7184813
0.3333531 0.3475503 0.7185887
0.3858109 0.3535092 0.7188032
0.4514536 0.3622261 0.7191245
0.5225046 0.3734692 0.7195518
0.5828295 0.3869759 0.7200843
0.6333376 0.4024765 0.7207209
0.6767527 0.4197115 0.7214603
0.3425420 0.4467327 0.7201756
0.3494156 0.4472908 0.7202021
0.3753913 0.4495139 0.7203083
0.4217614 0.4539234 0.7205204
0.4818126 0.4604465 0.7208381
0.5441764 0.4689814 0.7212607
0.5977760 0.4794047 0.7217873
0.6442300 0.4915772 0.7224169
0.6850274 0.5049289 0.7231481
0.3958825 0.5448662 0.7224408
0.4016767 0.5452177 0.7224669
0.4239150 0.5466147 0.7225715
0.4647286 0.5493719 0.7227806
0.5176033 0.5534170 0.7230936
0.5689969 0.5586497 0.7235100
0.6156756 0.5649489 0.7240290
0.6576443 0.5721812 0.7246494
0.6954080 0.5802087 0.7253701
0.4524284 0.6179339 0.7252260
0.4573936 0.6181521 0.7252517
0.4766504 0.6190213 0.7253544
0.5117582 0.6207455 0.7255597
0.5531928 0.6232961 0.7258671
0.5952540 0.6266323 0.7262761
0.6354579 0.6307029 0.7267858
0.6729121 0.6354491 0.7273951
0.7074666 0.6408066 0.7281030
0.5101592 0.6753968 0.7285029
0.5141151 0.6755467 0.7285280
0.5289827 0.6761448 0.7286286
0.5549884 0.6773342 0.7288295
0.5872235 0.6791013 0.7291304
0.6217747 0.6814264 0.7295308
0.6562500 0.6842839 0.7300297
0.6894266 0.6876441 0.7306264
0.7207857 0.6914733 0.7313195
0.5599845 0.7230486 0.7322393
0.5628519 0.7231585 0.7322639
0.5738078 0.7235970 0.7323620
0.5936205 0.7244704 0.7325581
0.6192331 0.7257713 0.7328518
0.6478359 0.7274889 0.7332425
0.6774024 0.7296093 0.7337296
0.7066816 0.7321156 0.7343120
0.7349887 0.7349887 0.7349887
