sample/src/main/assets/lut/NBCU-DaVinci/2-NBCU_SDR2HLG_SL_VRT.cube
TITLE "SDR to HLG Scene-Light Conversion 3D Look-Up-Table"
# PLEASE DO NOT ALTER THE LINES BELOW
# 
# © 2020 NBCUniversal, LLC - Please do not remove this line
#
# Built using tools from and in collaboration with Cromorama and Nick Shaw - the creators of ORION-CONVERT
#
# Parameters designed by Chris Seeger, NBCU Advanced Technology (chris.seeger@nbcuni.com)
# In collaboration with Michael Drazin, NBCU Sports Group (michael.drazin@nbcuni.com)
#
# 100% SDR maps to 75% HLG (ITU-R BT.2408 Mode)
# SDR 100-109% preserved into HLG above 75% (preserves additional color volume from SDR)
# Highlight compression from 95% to 109% SDR
#
# Scene-Light Conversion converts SDR-BT.709 Chromaticity to HLG-BT.2100 Chromaticity
# Scene-Light Conversion provides a better SDR-camera match with native-HLG cameras
# Scene-Light Conversion will appear slightly less saturated and affects colors differently
#
# No Matrix Compensation (so make sure your device is using the correct matrix)
#
# Type III LUT - Full Range Processing for Narrow Range Signals
# RESOLVE 17 VIDEO RANGE TAGS
LUT_IN_VIDEO_RANGE
LUT_OUT_VIDEO_RANGE
LUT_3D_SIZE 33
0.0067838 0.0067838 0.0067838
0.0219641 0.0082474 0.0071275
0.0285143 0.0087453 0.0072429
0.0365984 0.0092441 0.0073575
0.0905810 0.0107730 0.0077039
0.1192916 0.0134283 0.0082864
0.1439591 0.0174083 0.0091128
0.1674752 0.0231118 0.0101945
0.1904765 0.0314733 0.0115479
0.2131991 0.0461484 0.0131953
0.2357526 0.0856906 0.0151673
0.2581956 0.1005953 0.0175065
0.2805622 0.1122149 0.0202739
0.3028737 0.1224916 0.0235604
0.3251441 0.1320242 0.0275118
0.3473832 0.1410840 0.0323882
0.3695976 0.1498184 0.0387513
0.3917925 0.1583166 0.0484913
0.4139715 0.1666363 0.0765766
0.4361374 0.1748174 0.0873860
0.4582924 0.1828880 0.0951428
0.4804383 0.1908691 0.1017057
0.5022919 0.1987763 0.1075998
0.5225146 0.2066219 0.1130598
0.5411958 0.2144153 0.1182136
0.5585759 0.2221643 0.1231394
0.5748411 0.2298749 0.1278888
0.5901388 0.2375523 0.1324977
0.6045879 0.2452007 0.1369923
0.6182857 0.2528235 0.1413921
0.6313130 0.2604237 0.1457121
0.6437378 0.2680039 0.1499643
0.6556178 0.2755661 0.1541579
0.0141537 0.0314659 0.0086549
0.0328914 0.0341746 0.0090106
0.0427782 0.0351395 0.0091300
0.0722443 0.0361317 0.0092488
0.1019685 0.0393703 0.0096075
0.1256972 0.0461344 0.0102112
0.1485463 0.0728283 0.0110684
0.1710728 0.0868086 0.0121922
0.1934434 0.0968793 0.0136008
0.2157265 0.1058602 0.0153197
0.2379553 0.1143218 0.0173843
0.2601483 0.1224843 0.0198448
0.2823162 0.1304558 0.0227744
0.3044659 0.1382966 0.0262868
0.3266021 0.1460435 0.0305733
0.3487279 0.1537205 0.0360060
0.3708455 0.1613438 0.0435433
0.3929565 0.1689251 0.0652575
0.4150623 0.1764727 0.0826027
0.4371636 0.1839928 0.0912230
0.4592614 0.1914904 0.0981532
0.4813560 0.1989691 0.1042448
0.5031210 0.2064318 0.1098233
0.5232414 0.2138809 0.1150525
0.5418393 0.2213184 0.1200279
0.5591505 0.2287458 0.1248103
0.5753579 0.2361644 0.1294411
0.5906066 0.2435752 0.1339499
0.6050136 0.2509793 0.1383584
0.6186750 0.2583773 0.1426832
0.6316706 0.2657699 0.1469372
0.6440676 0.2731577 0.1511305
0.6559229 0.2805412 0.1552714
0.0168810 0.0467396 0.0092949
0.0375874 0.0531166 0.0096549
0.0509527 0.0566153 0.0097758
0.0812793 0.0668126 0.0098960
0.1050999 0.0759319 0.0102592
0.1276977 0.0836977 0.0108704
0.1500257 0.0912317 0.0117388
0.1722488 0.0986794 0.0128777
0.1944201 0.1060850 0.0143063
0.2165619 0.1134670 0.0160513
0.2386853 0.1208342 0.0181499
0.2607966 0.1281917 0.0206553
0.2828993 0.1355425 0.0236459
0.3049958 0.1428883 0.0272449
0.3270876 0.1502304 0.0316639
0.3491759 0.1575696 0.0373305
0.3712614 0.1649067 0.0454413
0.3933446 0.1722420 0.0712708
0.4154261 0.1795758 0.0842464
0.4375060 0.1869084 0.0923955
0.4595847 0.1942401 0.0991040
0.4816623 0.2015709 0.1050596
0.5033971 0.2089010 0.1105434
0.5234835 0.2162305 0.1157018
0.5420538 0.2235595 0.1206216
0.5593421 0.2308880 0.1253588
0.5755302 0.2382161 0.1299519
0.5907626 0.2455439 0.1344287
0.6051556 0.2528714 0.1388095
0.6188049 0.2601986 0.1431101
0.6317899 0.2675255 0.1473427
0.6441776 0.2748522 0.1515169
0.6560248 0.2821788 0.1556406
0.0197585 0.0840249 0.0099376
0.0433498 0.0874973 0.0103020
0.0735090 0.0885546 0.0104244
0.0871575 0.0895628 0.0105461
0.1079941 0.0923905 0.0109138
0.1296237 0.0965871 0.0115330
0.1514693 0.1017149 0.0124128
0.1734034 0.1074559 0.0135674
0.1953820 0.1136037 0.0150167
0.2173863 0.1200278 0.0167887
0.2394067 0.1266452 0.0189228
0.2614377 0.1334017 0.0214753
0.2834763 0.1402611 0.0245304
0.3055203 0.1471984 0.0282219
0.3275684 0.1541958 0.0327856
0.3496197 0.1612406 0.0387172
0.3716735 0.1683233 0.0475600
0.3937293 0.1754367 0.0745575
0.4157867 0.1825755 0.0857625
0.4378454 0.1897353 0.0935151
0.4599052 0.1969128 0.1000236
0.4819659 0.2041052 0.1058528
0.5036705 0.2113105 0.1112474
0.5237234 0.2185268 0.1163384
0.5422663 0.2257527 0.1212047
0.5595319 0.2329869 0.1258983
0.5757010 0.2402285 0.1304550
0.5909172 0.2474765 0.1349006
0.6052963 0.2547303 0.1392545
0.6189336 0.2619892 0.1435315
0.6319082 0.2692527 0.1477431
0.6442867 0.2765203 0.1518986
0.6561258 0.2837916 0.1560055
0.0299079 0.1135445 0.0119199
0.0824797 0.1151008 0.0122987
0.0923215 0.1156108 0.0124259
0.0995855 0.1161120 0.0125524
0.1157587 0.1175920 0.0129351
0.1351091 0.1199752 0.0135797
0.1556766 0.1231551 0.0144970
0.1768057 0.1270138 0.0157029
0.1982343 0.1314375 0.0172204
0.2198401 0.1363244 0.0190822
0.2415588 0.1415888 0.0213349
0.2633539 0.1471602 0.0240469
0.2852028 0.1529818 0.0273242
0.3070913 0.1590084 0.0313443
0.3290094 0.1652038 0.0364482
0.3509506 0.1715393 0.0434867
0.3729098 0.1779918 0.0580515
0.3948835 0.1845427 0.0812322
0.4168690 0.1911770 0.0898192
0.4388643 0.1978825 0.0966616
0.4608677 0.2046490 0.1026626
0.4828779 0.2114683 0.1081557
0.5044901 0.2183333 0.1133061
0.5244426 0.2252384 0.1182090
0.5429036 0.2321786 0.1229248
0.5601014 0.2391498 0.1274941
0.5762136 0.2461485 0.1319461
0.5913813 0.2531715 0.1363019
0.6057189 0.2602164 0.1405776
0.6193203 0.2672809 0.1447858
0.6322635 0.2743630 0.1489362
0.6446145 0.2814610 0.1530370
0.6564291 0.2885734 0.1570944
0.0770803 0.1410819 0.0154103
0.1034731 0.1421012 0.0158174
0.1090662 0.1424390 0.0159542
0.1140184 0.1427727 0.0160904
0.1266472 0.1437683 0.0165024
0.1434330 0.1454018 0.0171977
0.1622985 0.1476366 0.0181897
0.1822644 0.1504267 0.0194989
0.2028618 0.1537212 0.0211553
0.2238488 0.1574676 0.0232028
0.2450912 0.1616146 0.0257064
0.2665091 0.1661141 0.0287675
0.2880525 0.1709221 0.0325561
0.3096887 0.1759996 0.0373987
0.3313952 0.1813118 0.0441072
0.3531562 0.1868288 0.0578181
0.3749604 0.1925244 0.0804776
0.3967994 0.1983761 0.0888279
0.4186667 0.2043647 0.0954904
0.4405573 0.2104735 0.1013449
0.4624676 0.2166883 0.1067139
0.4843943 0.2229966 0.1117567
0.5058471 0.2293880 0.1165647
0.5256345 0.2358531 0.1211958
0.5439606 0.2423841 0.1256888
0.5610465 0.2489740 0.1300714
0.5770645 0.2556169 0.1343637
0.5921522 0.2623073 0.1385811
0.6064211 0.2690407 0.1427354
0.6199629 0.2758131 0.1468359
0.6328541 0.2826207 0.1508900
0.6451594 0.2894605 0.1549040
0.6569337 0.2963297 0.1588829
0.1072720 0.1681988 0.0207853
0.1214003 0.1689587 0.0212453
0.1254180 0.1692114 0.0214002
0.1291652 0.1694616 0.0215544
0.1393419 0.1702106 0.0220219
0.1538218 0.1714482 0.0228137
0.1708930 0.1731579 0.0239497
0.1895144 0.1753182 0.0254616
0.2090962 0.1779040 0.0273978
0.2293004 0.1808871 0.0298335
0.2499257 0.1842385 0.0328915
0.2708470 0.1879287 0.0367924
0.2919835 0.1919285 0.0420106
0.3132807 0.1962102 0.0501045
0.3347008 0.2007477 0.0742843
0.3562170 0.2055166 0.0839032
0.3778096 0.2104944 0.0908274
0.3994639 0.2156609 0.0967360
0.4211687 0.2209975 0.1020873
0.4429154 0.2264876 0.1070826
0.4646972 0.2321164 0.1118303
0.4865087 0.2378704 0.1163959
0.5077274 0.2437378 0.1208224
0.5272880 0.2497079 0.1251391
0.5454286 0.2557712 0.1293674
0.5623601 0.2619190 0.1335232
0.5782482 0.2681440 0.1376184
0.5932252 0.2744393 0.1416624
0.6073989 0.2807987 0.1456628
0.6208582 0.2872169 0.1496255
0.6336774 0.2936889 0.1535555
0.6459192 0.3002104 0.1574568
0.6576374 0.3067773 0.1613329
0.1281244 0.1951535 0.0289368
0.1384658 0.1957596 0.0295100
0.1416210 0.1959616 0.0297038
0.1446317 0.1961617 0.0298973
0.1530860 0.1967618 0.0304861
0.1656533 0.1977565 0.0314929
0.1810317 0.1991373 0.0329602
0.1982689 0.2008925 0.0349613
0.2167428 0.2030082 0.0376245
0.2360588 0.2054683 0.0411959
0.2559647 0.2082553 0.0462619
0.2762958 0.2113510 0.0555322
0.2969414 0.2147364 0.0764283
0.3178252 0.2183928 0.0839960
0.3388933 0.2223014 0.0899847
0.3601065 0.2264442 0.0952736
0.3814358 0.2308040 0.1001590
0.4028595 0.2353643 0.1047813
0.4243606 0.2401097 0.1092188
0.4459263 0.2450256 0.1135197
0.4675462 0.2500988 0.1177161
0.4892120 0.2553168 0.1218301
0.5101117 0.2606682 0.1258777
0.5293884 0.2661424 0.1298710
0.5472957 0.2717298 0.1338192
0.5640329 0.2774215 0.1377292
0.5797569 0.2832096 0.1416068
0.5945940 0.2890865 0.1454565
0.6086472 0.2950456 0.1492820
0.6220018 0.3010807 0.1530864
0.6347295 0.3071862 0.1568723
0.6468907 0.3133570 0.1606418
0.6585376 0.3195883 0.1643967
0.1468774 0.2220282 0.0430847
0.1551474 0.2225325 0.0440919
0.1577512 0.2227008 0.0444410
0.1602662 0.2228675 0.0447942
0.1674680 0.2233679 0.0459016
0.1784865 0.2241990 0.0479334
0.1923531 0.2253557 0.0513829
0.2082570 0.2268310 0.0593229
0.2256031 0.2286165 0.0739378
0.2439782 0.2307023 0.0797306
0.2630995 0.2330774 0.0845974
0.2827728 0.2357299 0.0890537
0.3028626 0.2386473 0.0932786
0.3232726 0.2418165 0.0973565
0.3439331 0.2452246 0.1013338
0.3647927 0.2488584 0.1052386
0.3858130 0.2527049 0.1090892
0.4069644 0.2567516 0.1128981
0.4282243 0.2609862 0.1166740
0.4495748 0.2653968 0.1204234
0.4710016 0.2699723 0.1241512
0.4924867 0.2747021 0.1278610
0.5129765 0.2795759 0.1315557
0.5319172 0.2845844 0.1352377
0.5495475 0.2897186 0.1389088
0.5660530 0.2949702 0.1425705
0.5815811 0.3003315 0.1462240
0.5962506 0.3057951 0.1498703
0.6101593 0.3113543 0.1535104
0.6233882 0.3170029 0.1571449
0.6360057 0.3227350 0.1607745
0.6480700 0.3285453 0.1643996
0.6596307 0.3344287 0.1680208
0.1646941 0.2488575 0.0851127
0.1716213 0.2492894 0.0859448
0.1738403 0.2494336 0.0862163
0.1759991 0.2495765 0.0864827
0.1822581 0.2500056 0.0872667
0.1920238 0.2507191 0.0885214
0.2045748 0.2517136 0.0901827
0.2192430 0.2529848 0.0921824
0.2354906 0.2545273 0.0944568
0.2529136 0.2563344 0.0969514
0.2712177 0.2583989 0.0996219
0.2901904 0.2607127 0.1024329
0.3096779 0.2632672 0.1053568
0.3295674 0.2660534 0.1083718
0.3497755 0.2690619 0.1114612
0.3702393 0.2722830 0.1146118
0.3909111 0.2757073 0.1178130
0.4117538 0.2793249 0.1210565
0.4327388 0.2831265 0.1243358
0.4538430 0.2871027 0.1276453
0.4750481 0.2912443 0.1309807
0.4962742 0.2955426 0.1343384
0.5162948 0.2999891 0.1377154
0.5348530 0.3045755 0.1411092
0.5521668 0.3092941 0.1445177
0.5684067 0.3141374 0.1479391
0.5837094 0.3190984 0.1513721
0.5981858 0.3241703 0.1548152
0.6119274 0.3293469 0.1582673
0.6250107 0.3346222 0.1617276
0.6375006 0.3399905 0.1651953
0.6494520 0.3454466 0.1686695
0.6609127 0.3509854 0.1721497
0.1819942 0.2756586 0.1017162
0.1879695 0.2760364 0.1022013
0.1899039 0.2761624 0.1023621
0.1917947 0.2762875 0.1025210
0.1973220 0.2766631 0.1029952
0.2060662 0.2772880 0.1037738
0.2174837 0.2781600 0.1048400
0.2310317 0.2792762 0.1061727
0.2462395 0.2806327 0.1077483
0.2627290 0.2822251 0.1095424
0.2802092 0.2840484 0.1115310
0.2984599 0.2860969 0.1136914
0.3173156 0.2883645 0.1160028
0.3366514 0.2908446 0.1184464
0.3563726 0.2935303 0.1210057
0.3764066 0.2964147 0.1236661
0.3966970 0.2994904 0.1264150
0.4171999 0.3027501 0.1292414
0.4378805 0.3061865 0.1321359
0.4587108 0.3097920 0.1350904
0.4796686 0.3135596 0.1380978
0.5005312 0.3174819 0.1411520
0.5200364 0.3215519 0.1442478
0.5381722 0.3257629 0.1473806
0.5551345 0.3301080 0.1505465
0.5710785 0.3345810 0.1537420
0.5861291 0.3391756 0.1569641
0.6003887 0.3438858 0.1602103
0.6139425 0.3487060 0.1634781
0.6268618 0.3536306 0.1667655
0.6392075 0.3586545 0.1700707
0.6510315 0.3637727 0.1733922
0.6623788 0.3689804 0.1767285
0.1989745 0.3024410 0.1144679
0.2042354 0.3027766 0.1148347
0.2059505 0.3028887 0.1149568
0.2076323 0.3029998 0.1150776
0.2125772 0.3033338 0.1154393
0.2204790 0.3038896 0.1160370
0.2309219 0.3046658 0.1168629
0.2434663 0.3056603 0.1179069
0.2577074 0.3068704 0.1191568
0.2733015 0.3082929 0.1205993
0.2899705 0.3099241 0.1222205
0.3074949 0.3117600 0.1240062
0.3257040 0.3137960 0.1259425
0.3444651 0.3160274 0.1280161
0.3636750 0.3184490 0.1302143
0.3832531 0.3210554 0.1325255
0.4031359 0.3238412 0.1349386
0.4232730 0.3268007 0.1374440
0.4436241 0.3299281 0.1400327
0.4641566 0.3332176 0.1426965
0.4848442 0.3366634 0.1454283
0.5052171 0.3402595 0.1482216
0.5241694 0.3440004 0.1510704
0.5418491 0.3478802 0.1539697
0.5584300 0.3518934 0.1569148
0.5740512 0.3560345 0.1599015
0.5888260 0.3602982 0.1629260
0.6028477 0.3646793 0.1659852
0.6161947 0.3691727 0.1690760
0.6289331 0.3737737 0.1721957
0.6411193 0.3784774 0.1753419
0.6528021 0.3832794 0.1785125
0.6640236 0.3881753 0.1817055
0.2157413 0.3292103 0.1257445
0.2204445 0.3295122 0.1260462
0.2219854 0.3296131 0.1261468
0.2234997 0.3297131 0.1262464
0.2279709 0.3300137 0.1265450
0.2351694 0.3305142 0.1270398
0.2447723 0.3312135 0.1277264
0.2564225 0.3321101 0.1285989
0.2697751 0.3332019 0.1296499
0.2845230 0.3344867 0.1308712
0.3004068 0.3359617 0.1322538
0.3172141 0.3376238 0.1337884
0.3347738 0.3394697 0.1354654
0.3529495 0.3414958 0.1372752
0.3716325 0.3436981 0.1392083
0.3907362 0.3460725 0.1412557
0.4101913 0.3486148 0.1434087
0.4299418 0.3513205 0.1456592
0.4499427 0.3541851 0.1479993
0.4701571 0.3572039 0.1504219
0.4905547 0.3603722 0.1529204
0.5102901 0.3636854 0.1554887
0.5286604 0.3671386 0.1581212
0.5458568 0.3707273 0.1608126
0.5620312 0.3744466 0.1635584
0.5773069 0.3782921 0.1663541
0.5917851 0.3822591 0.1691958
0.6055502 0.3863431 0.1720800
0.6186734 0.3905399 0.1750033
0.6312154 0.3948451 0.1779629
0.6432282 0.3992546 0.1809560
0.6547571 0.4037643 0.1839800
0.6658413 0.4083703 0.1870329
0.2323579 0.3559700 0.1362267
0.2366126 0.3562445 0.1364856
0.2380116 0.3563361 0.1365720
0.2393887 0.3564270 0.1366576
0.2434676 0.3567003 0.1369144
0.2500722 0.3571555 0.1373406
0.2589477 0.3577917 0.1379335
0.2698026 0.3586078 0.1386890
0.2823438 0.3596023 0.1396025
0.2963000 0.3607733 0.1406683
0.3114333 0.3621189 0.1418804
0.3275421 0.3636367 0.1432321
0.3444592 0.3653240 0.1447165
0.3620476 0.3671782 0.1463266
0.3801960 0.3691961 0.1480554
0.3988135 0.3713745 0.1498956
0.4178265 0.3737102 0.1518405
0.4371747 0.3761994 0.1538834
0.4568089 0.3788388 0.1560178
0.4766883 0.3816244 0.1582376
0.4967035 0.3845525 0.1605370
0.5157083 0.3876193 0.1629106
0.5334757 0.3908209 0.1653532
0.5501677 0.3941533 0.1678599
0.5659154 0.3976127 0.1704264
0.5808266 0.4011952 0.1730484
0.5949905 0.4048969 0.1757222
0.6084827 0.4087140 0.1784440
0.6213672 0.4126427 0.1812107
0.6336991 0.4166793 0.1840191
0.6455259 0.4208201 0.1868664
0.6568893 0.4250616 0.1897501
0.6678256 0.4294003 0.1926676
0.2488645 0.3827226 0.1462135
0.2527503 0.3829742 0.1464417
0.2540314 0.3830582 0.1465178
0.2552941 0.3831415 0.1465932
0.2590431 0.3833921 0.1468198
0.2651405 0.3838094 0.1471962
0.2733826 0.3843929 0.1477204
0.2835295 0.3851417 0.1483899
0.2953323 0.3860546 0.1492011
0.3085527 0.3871303 0.1501502
0.3229749 0.3883670 0.1512328
0.3384105 0.3897630 0.1524439
0.3546990 0.3913163 0.1537786
0.3717054 0.3930247 0.1552314
0.3893177 0.3948857 0.1567969
0.4074432 0.3968968 0.1584696
0.4260050 0.3990553 0.1602439
0.4449397 0.4013584 0.1621145
0.4641944 0.4038032 0.1640760
0.4837253 0.4063866 0.1661232
0.5031662 0.4091056 0.1682512
0.5214307 0.4119569 0.1704552
0.5385815 0.4149375 0.1727306
0.5547540 0.4180439 0.1750731
0.5700596 0.4212730 0.1774786
0.5845909 0.4246214 0.1799432
0.5984260 0.4280860 0.1824633
0.6116314 0.4316633 0.1850355
0.6242642 0.4353502 0.1876564
0.6363739 0.4391435 0.1903232
0.6480035 0.4430399 0.1930331
0.6591910 0.4470364 0.1957833
0.6699698 0.4511298 0.1985714
0.2652879 0.4094698 0.1558643
0.2688646 0.4097019 0.1560689
0.2700462 0.4097795 0.1561372
0.2712120 0.4098564 0.1562049
0.2746799 0.4100877 0.1564082
0.2803399 0.4104730 0.1567463
0.2880271 0.4110119 0.1572177
0.2975424 0.4117036 0.1578204
0.3086741 0.4125472 0.1585520
0.3212135 0.4135417 0.1594095
0.3349663 0.4146856 0.1603896
0.3497581 0.4159777 0.1614887
0.3654369 0.4174163 0.1627029
0.3818719 0.4189996 0.1640280
0.3989524 0.4207256 0.1654598
0.4165849 0.4225924 0.1669938
0.4346911 0.4245978 0.1686256
0.4532049 0.4267394 0.1703509
0.4720712 0.4290149 0.1721651
0.4912428 0.4314218 0.1740639
0.5098948 0.4339575 0.1760431
0.5274174 0.4366195 0.1780985
0.5439449 0.4394050 0.1802262
0.5595883 0.4423113 0.1824223
0.5744405 0.4453357 0.1846831
0.5885803 0.4484755 0.1870052
0.6020749 0.4517277 0.1893850
0.6149821 0.4550896 0.1918195
0.6273523 0.4585585 0.1943055
0.6392293 0.4621315 0.1968404
0.6506519 0.4658059 0.1994212
0.6616543 0.4695789 0.2020455
0.6722669 0.4734478 0.2047109
0.2816469 0.4362126 0.1652737
0.2849607 0.4364281 0.1654596
0.2860572 0.4365001 0.1655217
0.2871399 0.4365716 0.1655832
0.2903654 0.4367863 0.1657681
0.2956449 0.4371442 0.1660756
0.3028429 0.4376448 0.1665047
0.3117932 0.4382874 0.1670538
0.3223149 0.4390715 0.1677212
0.3342254 0.4399961 0.1685045
0.3473505 0.4410601 0.1694013
0.3615303 0.4422625 0.1704086
0.3766219 0.4436018 0.1715234
0.3925002 0.4450767 0.1727425
0.4090572 0.4466856 0.1740624
0.4262001 0.4484268 0.1754796
0.4438499 0.4502986 0.1769905
0.4619394 0.4522990 0.1785914
0.4804115 0.4544261 0.1802787
0.4990699 0.4566778 0.1820486
0.5168444 0.4590521 0.1838976
0.5336306 0.4615467 0.1858222
0.5495339 0.4641593 0.1878188
0.5646434 0.4668878 0.1898840
0.5790353 0.4697297 0.1920145
0.5927754 0.4726827 0.1942073
0.6059205 0.4757444 0.1964592
0.6185204 0.4789125 0.1987673
0.6306189 0.4821844 0.2011288
0.6422545 0.4855579 0.2035410
0.6534617 0.4890305 0.2060013
0.6642709 0.4925924 0.2085073
0.6747097 0.4961999 0.2110568
0.2979549 0.4629520 0.1745027
0.3010422 0.4631531 0.1746733
0.3020651 0.4632203 0.1747303
0.3030757 0.4632870 0.1747868
0.3060903 0.4634875 0.1749565
0.3110358 0.4638215 0.1752389
0.3178001 0.4642888 0.1756332
0.3262433 0.4648889 0.1761383
0.3362100 0.4656213 0.1767526
0.3475403 0.4664851 0.1774743
0.3600786 0.4674795 0.1783016
0.3736788 0.4686036 0.1792321
0.3882079 0.4698564 0.1802634
0.4035471 0.4712365 0.1813928
0.4195922 0.4727428 0.1826177
0.4362521 0.4743739 0.1839350
0.4534483 0.4761282 0.1853419
0.4711130 0.4780043 0.1868353
0.4891881 0.4800004 0.1884121
0.5070538 0.4821149 0.1900692
0.5239734 0.4843460 0.1918035
0.5400347 0.4866918 0.1936120
0.5553181 0.4891505 0.1954916
0.5698933 0.4917180 0.1974394
0.5838216 0.4943705 0.1994524
0.5971567 0.4970980 0.2015279
0.6099461 0.4998958 0.2036630
0.6222319 0.5027593 0.2058551
0.6340516 0.5056838 0.2081016
0.6454387 0.5086650 0.2104001
0.6564233 0.5116986 0.2127481
0.6670325 0.5147803 0.2151434
0.6772908 0.5179062 0.2175837
0.3142218 0.4896885 0.1835926
0.3171118 0.4898771 0.1837504
0.3180704 0.4899401 0.1838030
0.3190180 0.4900026 0.1838553
0.3218473 0.4901906 0.1840123
0.3264977 0.4905038 0.1842738
0.3328754 0.4909419 0.1846389
0.3408616 0.4915035 0.1851068
0.3503224 0.4921872 0.1856764
0.3611176 0.4929913 0.1863461
0.3731082 0.4939140 0.1871145
0.3861613 0.4949531 0.1879796
0.4001536 0.4961061 0.1889395
0.4149733 0.4973705 0.1899921
0.4305204 0.4987435 0.1911351
0.4467067 0.5002221 0.1923660
0.4634547 0.5018031 0.1936825
0.4806969 0.5034832 0.1950819
0.4982544 0.5052590 0.1965617
0.5151518 0.5071271 0.1981192
0.5312441 0.5090839 0.1997518
0.5465968 0.5111256 0.2014568
0.5612688 0.5132486 0.2032317
0.5753132 0.5154493 0.2050737
0.5887778 0.5177238 0.2069803
0.6017057 0.5200684 0.2089491
0.6141355 0.5224796 0.2109775
0.6261024 0.5249536 0.2130631
0.6376379 0.5274868 0.2152036
0.6487707 0.5300757 0.2173966
0.6595270 0.5327168 0.2196401
0.6699304 0.5354068 0.2219318
0.6800027 0.5381422 0.2242698
0.3304551 0.5151389 0.1925724
0.3331718 0.5152993 0.1927193
0.3340737 0.5153528 0.1927684
0.3349656 0.5154059 0.1928170
0.3376309 0.5155656 0.1929633
0.3420188 0.5158314 0.1932068
0.3480500 0.5162029 0.1935470
0.3556229 0.5166792 0.1939833
0.3646218 0.5172595 0.1945145
0.3749232 0.5179424 0.1951396
0.3864030 0.5187267 0.1958573
0.3989406 0.5196108 0.1966660
0.4124221 0.5205929 0.1975642
0.4267429 0.5216711 0.1985500
0.4418079 0.5228434 0.1996216
0.4575319 0.5241076 0.2007770
0.4738393 0.5254612 0.2020141
0.4906634 0.5269020 0.2033307
0.5073547 0.5284273 0.2047247
0.5233263 0.5300344 0.2061937
0.5386225 0.5317208 0.2077355
0.5532864 0.5334836 0.2093478
0.5673592 0.5353199 0.2110284
0.5808795 0.5372270 0.2127748
0.5938833 0.5392019 0.2145849
0.6064041 0.5412418 0.2164564
0.6184728 0.5433437 0.2183871
0.6301179 0.5455048 0.2203748
0.6413655 0.5477222 0.2224174
0.6522399 0.5499930 0.2245129
0.6627634 0.5523144 0.2266591
0.6729563 0.5546837 0.2288541
0.6828377 0.5570981 0.2310960
0.3466605 0.5381855 0.2014636
0.3492237 0.5383235 0.2016011
0.3500752 0.5383696 0.2016471
0.3509177 0.5384153 0.2016926
0.3534368 0.5385526 0.2018295
0.3575898 0.5387814 0.2020576
0.3633088 0.5391013 0.2023763
0.3705068 0.5395116 0.2027850
0.3790827 0.5400116 0.2032830
0.3889280 0.5406004 0.2038694
0.3999316 0.5412771 0.2045429
0.4119841 0.5420404 0.2053025
0.4249808 0.5428891 0.2061466
0.4388239 0.5438216 0.2070739
0.4534235 0.5448366 0.2080828
0.4686980 0.5459322 0.2091715
0.4845742 0.5471067 0.2103383
0.5007721 0.5483584 0.2115814
0.5164499 0.5496851 0.2128989
0.5315444 0.5510849 0.2142888
0.5460781 0.5525557 0.2157491
0.5600760 0.5540954 0.2172780
0.5735646 0.5557017 0.2188733
0.5865701 0.5573724 0.2205330
0.5991185 0.5591052 0.2222552
0.6112347 0.5608979 0.2240379
0.6229426 0.5627482 0.2258789
0.6342647 0.5646537 0.2277765
0.6452224 0.5666121 0.2297287
0.6558355 0.5686211 0.2317336
0.6661227 0.5706784 0.2337893
0.6761016 0.5727818 0.2358941
0.6857883 0.5749289 0.2380461
0.3628426 0.5592822 0.2102822
0.3652688 0.5594024 0.2104115
0.3660753 0.5594426 0.2104547
0.3668735 0.5594824 0.2104975
0.3692616 0.5596021 0.2106263
0.3732031 0.5598016 0.2108408
0.3786398 0.5600804 0.2111407
0.3854962 0.5604382 0.2115254
0.3936841 0.5608745 0.2119943
0.4031076 0.5613884 0.2125466
0.4136671 0.5619794 0.2131813
0.4252634 0.5626464 0.2138975
0.4378004 0.5633885 0.2146940
0.4511872 0.5642045 0.2155695
0.4653389 0.5650933 0.2165227
0.4801778 0.5660536 0.2175521
0.4955833 0.5670840 0.2186563
0.5107792 0.5681831 0.2198337
0.5255114 0.5693493 0.2210826
0.5397778 0.5705811 0.2224013
0.5535839 0.5718769 0.2237882
0.5669407 0.5732348 0.2252415
0.5798622 0.5746533 0.2267595
0.5923645 0.5761304 0.2283403
0.6044649 0.5776645 0.2299822
0.6161809 0.5792537 0.2316834
0.6275301 0.5808960 0.2334421
0.6385298 0.5825897 0.2352567
0.6491967 0.5843329 0.2371252
0.6595469 0.5861236 0.2390461
0.6695957 0.5879601 0.2410176
0.6793578 0.5898404 0.2430381
0.6888469 0.5917626 0.2451059
0.3790050 0.5787623 0.2190404
0.3813082 0.5788682 0.2191625
0.3820742 0.5789035 0.2192032
0.3828325 0.5789386 0.2192437
0.3851025 0.5790441 0.2193653
0.3888526 0.5792197 0.2195679
0.3940327 0.5794654 0.2198511
0.4005771 0.5797807 0.2202146
0.4084081 0.5801653 0.2206577
0.4174408 0.5806185 0.2211798
0.4275859 0.5811398 0.2217801
0.4387534 0.5817285 0.2224578
0.4508552 0.5823838 0.2232118
0.4638066 0.5831049 0.2240412
0.4775282 0.5838908 0.2249447
0.4919429 0.5847405 0.2259210
0.5064635 0.5856529 0.2269690
0.5206641 0.5866268 0.2280873
0.5345157 0.5876612 0.2292743
0.5480022 0.5887546 0.2305288
0.5611165 0.5899059 0.2318491
0.5738581 0.5911136 0.2332338
0.5862313 0.5923764 0.2346813
0.5982438 0.5936928 0.2361900
0.6099053 0.5950614 0.2377583
0.6212271 0.5964807 0.2393847
0.6322213 0.5979492 0.2410676
0.6429005 0.5994653 0.2428054
0.6532772 0.6010275 0.2445965
0.6633640 0.6026342 0.2464393
0.6731732 0.6042840 0.2483324
0.6827167 0.6059752 0.2502741
0.6920060 0.6077063 0.2522631
0.3951504 0.5968775 0.2277478
0.3973426 0.5969715 0.2278635
0.3980720 0.5970030 0.2279021
